!!!!SEGMENT: pl-sa--260-a-vii-20_krzewdzienski-pawel--te-deum-patrem-ingenitum.krn
!!!cenid: 17xx:347
!!!COM: Krzewdzieński, Paweł
!!!COM-rismid: pe41012328
!!!CDT: <1722->1723
!!!CNT: Polish
!!!OTL: Te Deum Patrem ingenitum
!!!PDT: 1723
!!!AGN:
!!!SMS-siglum: PL-SA
!!!SMS-shelfmark: 260/A VII 20
!!!SMS-shelfwork: W
!!!NIFC-rismid: 1001039860
!!!URL-scan: http://bc.bdsandomierz.pl/dlibra/publication/1771/edition/1739/content
!!!ONB-nifc:
**kern	**fb	**kern	**kern	**kern	**text	**kern	**text	**kern	**text	**kern	**text	**kern	**kern
*part9	*part9	*part8	*part7	*part6	*part6	*part5	*part5	*part4	*part4	*part3	*part3	*part2	*part1
*staff9	*staff9	*staff8	*staff7	*staff6	*staff6	*staff5	*staff5	*staff4	*staff4	*staff3	*staff3	*staff2	*staff1
*	*	*I"Violino 2do.	*I"Violino Primo.	*I"Baſso.	*	*I"Tenore.	*	*I"Alto.	*	*I"Canto	*	*I"Clarino 2do.	*I"Clarino Primo.
*	*	*I'vl 2	*I'vl 1	*I'B	*	*I'T	*	*I'A	*	*I'S	*	*I'clno 2	*I'clno 1
*clefF4	*	*clefG2	*clefG2	*clefF4	*	*clefC4	*	*clefC3	*	*clefC1	*	*clefG2	*clefG2
*k[]	*	*k[]	*k[]	*k[]	*	*k[]	*	*k[]	*	*k[]	*	*k[]	*k[]
*C:	*	*C:	*C:	*C:	*	*C:	*	*C:	*	*C:	*	*C:	*C:
*M2/2	*	*M2/2	*M2/2	*M2/2	*	*M2/2	*	*M2/2	*	*M2/2	*	*M2/2	*M2/2
*met(c|)	*	*met(c|)	*met(c|)	*met(c|)	*	*met(c|)	*	*met(c|)	*	*met(c|)	*	*met(c|)	*met(c|)
=1	=1	=1	=1	=1	=1	=1	=1	=1	=1	=1	=1	=1	=1
*	*above	*	*	*	*	*	*	*	*	*	*	*	*
!LO:TX:b:t=Te Deum Patrem	!	!	!	!	!	!	!	!	!	!	!	!	!LO:TX:b:i:t=Te Deum. Patrem
!LO:TX:i:a:t=Tutti	!	!LO:TX:b:t=Te Deum.	!LO:TX:b:t=Te Deum Patrem.	!	!	!	!	!	!	!	!	!LO:TX:i:b:t=Te Deu(m) Patrem.	!
8r	.	8r	8r	8r	.	8r	.	8r	.	8r	.	8r	8r
8C/L	.	8ee\	8gg\	8C/	Te	8c\	Te	8g\	Te	8ee\	Te	8ee\L	8gg\L
!	!	!LO:TX:a:t=P:problem:mixed beam	!LO:TX:a:t=P:problem:mixed beam	!	!	!	!	!	!	!	!	!	!
8C/	.	16ee\LL	16gg\LL	8C/	De-	8e\	De-	8g\	De-	8cc\	De-	8ee\	8gg\
.	.	16ee\	16gg\	.	.	.	.	.	.	.	.	.	.
!	!	!	!	!	!	!	!	!	!	!LO:N:vis=8.	!	!	!
8C/J	.	16e/	16g/	8C/	-um	8e\	-u(m)	8g\	-u(m)	8cc\	-um	8ee\J	8gg\J
.	.	16ee\JJ	16gg\JJ	.	.	.	.	.	.	.	.	.	.
4D/	X 7	16cc\LL	16gg\LL	4D/	Pa-	4d\	Pa-	4f\	Pa-	4cc\	Pa-	8dd\L	8ff\L
.	.	16cc\	16ff\	.	.	.	.	.	.	.	.	.	.
.	.	16cc\	16ff\	.	.	.	.	.	.	.	.	8dd\	8ff\
.	.	16cc\JJ	16ff\JJ	.	.	.	.	.	.	.	.	.	.
8D/L	X 6	16dd\LL	16ff\LL	8D/	-tre(m)	8A\	-tre(m)	8f\	-tre(m)	8b\	-trem	8dd\	8ff\
.	.	16b\	16gg\	.	.	.	.	.	.	.	.	.	.
8D/J	.	16b\	16ff\	8D/	in-	8B\	in-	8f\	in-	8b\	in-	16ee\L	16gg\L
.	.	16dd\JJ	16gg\JJ	.	.	.	.	.	.	.	.	16dd\JJ	16ff\JJ
=2	=2	=2	=2	=2	=2	=2	=2	=2	=2	=2	=2	=2	=2
!	!	!	!	!	!	!	!	!	!	!	!	!LO:TX:a:t=P:problem:mixed beam	!
!	!	!	!	!	!	!	!	!	!	!	!	!LO:TX:a:o=8 (cała grupa)	!
8E\L	X 6	16cc\LL	16ee\LL	8.E\	-ge-	8c\	-ge-	8.g\	-ge-	8.cc\	-ge-	16cc\LL	16ee\LL
.	.	16ee\	16cc\	.	.	.	.	.	.	.	.	16e/	16cc\
8D\	.	16ee\	16cc\	.	.	8c\	-ni-	.	.	.	.	16e/	16cc\
.	.	16ee\JJ	16cc\JJ	16D\	-ni-	.	.	16f\	-ni-	16cc\	-ni-	16e/JJ	16cc\JJ
8C\	.	16cc\LL	16gg\LL	8C/	-tum	8c\	-tu(m)	8e\	-tu(m)	8cc\	-tum	16e/LL	16cc\LL
.	.	16ee\	16cc\	.	.	.	.	.	.	.	.	16e/	16cc\
8E\J	X 6	16ee\	16cc\	8r	.	8r	.	8r	.	8r	.	16g/	16dd\
.	.	16ee\JJ	16cc\JJ	.	.	.	.	.	.	.	.	16cc/JJ	16ee\JJ
!LO:TX:a:t=P:problem:mixed beam	!	!	!	!	!	!	!	!	!	!	!	!	!
8F\L	6 5	16dd\LL	16aa\LL	2r	.	2r	.	2r	.	2r	.	16g\LL	16dd\LL
.	.	16ff\	16dd\	.	.	.	.	.	.	.	.	16g\	16dd\
8D\	.	16ff\	16dd\	.	.	.	.	.	.	.	.	16cc\	16ee\
.	.	16ff\JJ	16dd\JJ	.	.	.	.	.	.	.	.	16dd\JJ	16ff\JJ
8G\	X 4	16gg\LL	16bb\LL	.	.	.	.	.	.	.	.	8cc\L	8ee\L
.	.	16aa\	16ccc\	.	.	.	.	.	.	.	.	.	.
8GG/J	7 3	16ff\	16aa\	.	.	.	.	.	.	.	.	8g\J	8dd\J
.	.	16gg\JJ	16bb\JJ	.	.	.	.	.	.	.	.	.	.
=3	=3	=3	=3	=3	=3	=3	=3	=3	=3	=3	=3	=3	=3
!	!	!	!	!	!	!	!	!	!	!	!	!LO:TX:a:t=P:problem:mixed beam	!
8CC/L	.	16ee\LL	16ccc\LL	8r	.	8r	.	8r	.	8r	.	8e/L	8cc\L
.	.	16ee\	16gg\	.	.	.	.	.	.	.	.	.	.
*	*	*	*	*	*ij	*	*ij	*	*ij	*	*ij	*	*
8C/	.	16ee\	16gg\	8C/	Te	8c\	Te	8g\	Te	8ee\	Te	8ee\	8gg\
.	.	16ee\JJ	16gg\JJ	.	.	.	.	.	.	.	.	.	.
!	!	!LO:TX:a:t=P:problem:mixed beam	!LO:TX:a:t=P:problem:mixed beam	!	!	!	!	!	!	!	!	!	!
8C/	.	16ee\LL	16gg\LL	8C/	De-	8e\	De-	8g\	De-	8cc\	De-	8ee\	8gg\
.	.	16e/	16gg\	.	.	.	.	.	.	.	.	.	.
8C/J	.	16e/	16g/	8C/	-um	8c\	-um	8g\	-um	8cc\	-um	8ee\J	8gg\J
.	.	16ee\JJ	16gg\JJ	.	.	.	.	.	.	.	.	.	.
!	!	!	!LO:TX:a:t=P:problem:mixed beam	!	!	!	!	!	!	!	!	!LO:SIC:s=4dd	!
4D/	X 7	16cc\LL	16ff\LL	4D/	Pa-	4d\	Pa-	4f\	Pa-	4cc\	Pa-	4cc\	4ff\
.	.	16cc\	16ff\	.	.	.	.	.	.	.	.	.	.
.	.	16cc\	16f/	.	.	.	.	.	.	.	.	.	.
.	.	16cc\JJ	16ff\JJ	.	.	.	.	.	.	.	.	.	.
!	!	!LO:TX:a:t=P:problem:mixed beam	!	!	!	!	!	!	!	!	!	!	!
!	!	!	!	!	!	!	!	!	!	!LO:N:vis=8.	!	!	!
8D/L	X 6	16b\LL	16ff\LL	8D/	-trem	8A\	-trem	8f\	-trem	8b\	-trem	8dd\L	8ff\L
.	.	16b/	16dd\	.	.	.	.	.	.	.	.	.	.
8D/J	.	16B/	16gg\	8D/	in-	8B\	in-	8f\	in-	8dd\	in-	8dd\J	8ff\J
.	.	16b\JJ	16dd\JJ	.	.	.	.	.	.	.	.	.	.
=4	=4	=4	=4	=4	=4	=4	=4	=4	=4	=4	=4	=4	=4
!	!	!	!	!	!	!	!	!	!	!	!	!LO:TX:a:t=P:problem:mixed beam	!
8.E\L	X 6	8cc\L	16ee\LL	8.E\	-ge-	8c\	-ge-	8.g\	-ge-	8.cc\	-ge-	8cc\L	8ee\L
.	.	.	16ff\	.	.	.	.	.	.	.	.	.	.
.	.	8dd\	16ee\	.	.	8G\	-ni-	.	.	.	.	8e/	8b\
16D\K	.	.	16ff\JJ	16D\	-ni-	.	.	16f\	-ni-	16cc\	-ni-	.	.
8C\	.	8ee\	16gg\LL	8C/	-tum	8G\	-tum	8e\	-tum	8cc\	-tum	8e/	8cc\
.	.	.	16ff\	.	.	.	.	.	.	.	.	.	.
*	*	*	*	*	*Xij	*	*Xij	*	*Xij	*	*Xij	*	*
8c\J	.	8gg\J	16gg\	8c\	te	8c\	te	8g\	te	8ee\	te	8ee\J	8gg\J
.	.	.	16ee\JJ	.	.	.	.	.	.	.	.	.	.
!	!	!	!	!LO:LB:g=original	!	!	!	!	!	!LO:LB:g=original	!	!	!
8B\L	X 6	16gg\LL	16dd\LL	8B\	fi-	8B\	fi-	8g\	fi-	8dd\	fi-	8dd\L	8gg\L
.	.	16gg\	16dd\	.	.	.	.	.	.	.	.	.	.
8B\	.	16gg\	16dd\	16B\	-li-	16B\	-li-	16g\	-li-	16dd\	-li-	8dd\	8gg\
.	.	16gg\JJ	16dd\JJ	16B\	-um	16d\	-u(m)	16g\	-u(m)	16dd\	-um	.	.
8E\	X 7	16dd\LL	16gg\LL	8E\	U-	8B\	U-	8g\	U-	8ee\	u-	8ee\	8gg\
.	.	16ee\	16gg\	.	.	.	.	.	.	.	.	.	.
8E\J	.	16dd\	16gg\	8E\	-ni-	8B\	-ni-	8g\	-ni-	8dd\	-ni-	8ee\J	8gg\J
.	.	16cc\JJ	16gg\JJ	.	.	.	.	.	.	.	.	.	.
!	!	!	!	!	!	!LO:LB:g=original	!	!LO:LB:g=original	!	!	!	!	!
=5	=5	=5	=5	=5	=5	=5	=5	=5	=5	=5	=5	=5	=5
8A\L	X 7	16cc\LL	16gg\LL	8A\	-ge-	8e\	-ge-	8g\	-ge-	8cc\	-ge-	8cc\L	8gg\L
.	.	16ee\	16cc\	.	.	.	.	.	.	.	.	.	.
8A\	.	16ee\	16cc\	8A\	-ni-	8e\	-ni-	8g\	-ni-	8cc\	-ni-	8cc\	16ff\L
.	.	16ee\JJ	16cc\JJ	.	.	.	.	.	.	.	.	.	16ee\JJ
!	!	!LO:LB:g=original	!LO:LB:g=original	!	!	!	!	!	!	!	!	!	!
8D\	X 7	16aa\LL	16ff\LL	8D\	-tu(m)	8A\	-tu(m)	8f\	-tu(m)	8cc\	-tum	8dd\	8ff\L
.	.	16cc\	16ff\	.	.	.	.	.	.	.	.	.	.
*	*	*	*	*	*	*	*ij	*	*	*	*	*	*
8D\J	.	16dd\	16ff\	8D\	te	8A\	te	8f\	te	8cc\	te	8dd\J	8ff\J
.	.	16cc\JJ	16ff\JJ	.	.	.	.	.	.	.	.	.	.
8G\L	X 7	16b\LL	16ff\LL	8G\	fi-	8d\	fi-	8f\	fi-	8b\	fi-	8dd\L	8ff\L
.	.	16dd\	16b\	.	.	.	.	.	.	.	.	.	.
8G\	.	16dd\	16b\	16G\	-li-	16d\	-li-	16f\	-li-	16b\	-li-	8dd\	16ee\L
.	.	16dd\JJ	16b\JJ	16G\	-um	16d\	-um	16f\	-um	16b\	-um	.	16dd\JJ
!	!	!LO:TX:a:t=P:problem:mixed beam	!	!	!	!	!	!	!	!	!	!	!
8C\	.	16gg\LL	16ee\LL	8C/	U-	8G\	U-	8e\	U-	8cc\	U-	8cc\	8ee\L
.	.	16gg\	16ee\	.	.	.	.	.	.	.	.	.	.
8E\J	X 6	16g/	16ee\	8E\	-ni-	8c\	-ni-	8g\	-ni-	8g\	-ni-	8cc\J	8ee\J
.	.	16gg\JJ	16ee\JJ	.	.	.	.	.	.	.	.	.	.
!LO:LB:g=original	!	!	!	!	!	!	!	!	!	!	!	!	!
=6	=6	=6	=6	=6	=6	=6	=6	=6	=6	=6	=6	=6	=6
8F\L	6 5	16aa\LL	16cc\LL	8F\L	-ge-	4c\	-ge-	16a\LL	-ge-	8a\L	-ge-	8cc\L	8ee\L
.	.	16ff\	16a\	.	.	.	.	16g\	.	.	.	.	.
8D\J	.	16gg\	16b\	8D\J	.	.	.	16f\	.	16b\L	.	16dd\L	16ff\L
.	.	16aa\JJ	16cc\JJ	.	.	.	.	16e\JJ	.	16cc\JJ	.	16cc\JJ	16ee\JJ
4G\	X 4	8gg\L	8b\L	8.G\	.	4d\	-ni-	8d\	.	8b\	.	8g/L	8dd\L
.	7 3	8dd\J	8b\J	.	.	.	.	8g\	-ni-	8b\	-ni-	8g/J	8dd\J
!	!	!	!	!	!	!	!	!	!	!	!	!LO:LB:g=original	!LO:LB:g=original
.	.	.	.	16G\	-ni-	.	.	.	.	.	.	.	.
!	!	!	!	!	!	!	!	!	!	!	!	!LO:TX:a:t=P:problem:mixed beam	!
8C/L	.	16ee\LL	16cc\LL	8C/	-tum	4e\	-tum	4g\	-tu(m)	4cc\	-tum	8e\L	8cc\L
*	*	*	*	*	*	*	*Xij	*	*	*	*	*	*
.	.	16ee\	16gg\	.	.	.	.	.	.	.	.	.	.
8E/J	X 6	16dd\	16ff\	8r	.	.	.	.	.	.	.	8cc/J	8ee\J
.	.	16cc\JJ	16ee\JJ	.	.	.	.	.	.	.	.	.	.
8F\L	6 5	16b\LL	16dd\LL	4r	.	4r	.	4r	.	4r	.	8g\L	8dd\L
.	.	16cc\	16ee\	.	.	.	.	.	.	.	.	.	.
8G\J	X 4	16dd\	16ff\	.	.	.	.	.	.	.	.	8dd\J	16gg\L
.	7 3	16b\JJ	16gg\JJ	.	.	.	.	.	.	.	.	.	16ff\JJ
=7	=7	=7	=7	=7	=7	=7	=7	=7	=7	=7	=7	=7	=7
!LO:TX:a:t=P:problem:mixed beam	!	!	!	!	!	!	!	!	!	!	!	!	!
8C/L	.	16cc\LL	16ee\LL	8r	.	8r	.	8r	.	8r	.	4cc\	4ee\
.	.	16dd\	16gg\	.	.	.	.	.	.	.	.	.	.
8G\	.	16dd\	16bb\	8G\	Te	8B\	Te	8g\	Te	8dd\	Te	.	.
.	.	16dd\JJ	16bb\JJ	.	.	.	.	.	.	.	.	.	.
!	!	!LO:TX:a:t=P:problem:mixed beam	!	!	!	!	!	!	!	!	!	!	!
8G\	.	16dd\LL	16bb\LL	8G\	De-	8B\	De-	8g\	De-	8dd\	De-	4r	4r
.	.	16dd\	16gg\	.	.	.	.	.	.	.	.	.	.
8G\J	.	16d/	16gg\	8G\	-u(m)	8B\	-u(m)	8g\	-u(m)	8dd\	-um	.	.
.	.	16dd\JJ	16bb\JJ	.	.	.	.	.	.	.	.	.	.
!	!	!LO:TX:a:t=P:problem:mixed beam	!	!	!	!	!	!	!	!	!	!	!
4A\	X 7	16ee\LL	16ccc\LL	4A\	Pa-	4A\	Pa-	4g\	Pa-	4cc\	Pa-	2r	2r
.	.	16e/	16aa\	.	.	.	.	.	.	.	.	.	.
.	.	16e/	16aa\	.	.	.	.	.	.	.	.	.	.
.	.	16ee\JJ	16ff#X\JJ	.	.	.	.	.	.	.	.	.	.
!	!	!LO:TX:a:t=P:problem:mixed beam	!	!	!	!	!	!	!	!	!	!	!
8A\L	X 6/	16ff#X\LL	16dd\LL	8A\	-tre(m)	8G/	-tre(m)	8a\	-tre(m)	8dd\	-tre(m)	.	.
.	.	16f#X/	16aa\	.	.	.	.	.	.	.	.	.	.
8A\J	.	16f#/	16bb\	8A\	in-	8F#X/	in-	8a\	in-	8cc\	in-	.	.
.	.	16ff#\JJ	16ccc\JJ	.	.	.	.	.	.	.	.	.	.
!	!	!	!	!LO:LB:g=original	!	!	!	!	!	!LO:LB:g=original	!	!	!
=8	=8	=8	=8	=8	=8	=8	=8	=8	=8	=8	=8	=8	=8
!LO:TX:a:t=P:problem:mixed beam	!	!	!	!	!	!	!	!	!	!	!	!	!
8B\L	X 6	16gg\LL	16bb\LL	8.B\	-ge-	8G/	-ge-	8g\	-ge-	8b\	-ge-	8r	8r
.	.	16b\	16gg\	.	.	.	.	.	.	.	.	.	.
8G\	.	16b\	16gg\	.	.	8G/	-ni-	8g\	-ni-	8b\	-ni-	8g/L	8g/L
.	.	16b\JJ	16dd\JJ	16A\	-ni-	.	.	.	.	.	.	.	.
8G\	.	16b\LL	16dd\LL	8G\	-tum	8G/	-tum	8g\	-tum	8b\	-tum	8g/	8g/
.	.	16b\	16dd\	.	.	.	.	.	.	.	.	.	.
8BB/J	X 6	16g\	16dd\	8r	.	8r	.	8r	.	8r	.	8g/J	8g/J
.	.	16b\JJ	16dd\JJ	.	.	.	.	.	.	.	.	.	.
8C/L	X 65	16a/LL	16ee\LL	2r	.	2r	.	2r	.	2r	.	8g/L	8g/L
.	.	16b/	16ff#X\	.	.	.	.	.	.	.	.	.	.
8AA/	.	16a/	16gg\	.	.	.	.	.	.	.	.	8g/	8g/
.	.	16g/JJ	16ee\JJ	.	.	.	.	.	.	.	.	.	.
!	!	!LO:TX:a:t=P:problem:mixed beam	!	!	!	!	!	!	!	!	!	!	!
8D/	X 4	8a/L	16ff#X\LL	.	.	.	.	.	.	.	.	8g/	8g/
.	.	.	16gg\	.	.	.	.	.	.	.	.	.	.
8DD/J	7 #	8dd\J	16ee\	.	.	.	.	.	.	.	.	8g/J	8g/J
.	.	.	16ff#\JJ	.	.	.	.	.	.	.	.	.	.
=9	=9	=9	=9	=9	=9	=9	=9	=9	=9	=9	=9	=9	=9
!LO:TX:a:t=P:problem:mixed beam	!	!	!	!	!	!	!	!	!	!	!	!	!
8GG/L	.	16b\LL	16gg\LL	8r	.	8r	.	8r	.	8r	.	4g/	4g/
.	.	16dd\	16dd\	.	.	.	.	.	.	.	.	.	.
*	*	*	*	*	*ij	*	*ij	*	*	*	*ij	*	*
8G\	.	16dd\	16dd\	8G\	Te	8B\	Te	8g\	Te	8dd\	Te	.	.
.	.	16dd\JJ	16dd\JJ	.	.	.	.	.	.	.	.	.	.
!	!	!LO:TX:a:t=P:problem:mixed beam	!	!	!	!	!	!	!	!	!	!	!
8G\	.	16dd\LL	16dd\LL	8G\	De-	8B\	De-	8d\	De-	8dd\	De-	4r	4r
.	.	16d/	16gg\	.	.	.	.	.	.	.	.	.	.
8G\J	.	16d/	16gg\	8G\	-um	8B\	-um	8g\	-um	8dd\	-um	.	.
.	.	16dd\JJ	16bb\JJ	.	.	.	.	.	.	.	.	.	.
!	!	!	!	!	!	!	!	!LO:LB:g=original	!	!	!	!	!
!	!	!LO:LB:g=original	!LO:LB:g=original	!	!	!	!	!	!	!	!	!	!
!	!	!LO:TX:a:t=P:problem:mixed beam	!	!	!	!	!	!	!	!	!	!	!
4A\	X 7	16ee\LL	16ccc\LL	4A\	Pa-	4A\	Pa-	4g\	Pa-	4cc\	Pa-	2r	2r
.	.	16ee\	16aa\	.	.	.	.	.	.	.	.	.	.
.	.	16e/	16aa\	.	.	.	.	.	.	.	.	.	.
.	.	16ee\JJ	16ff#X\JJ	.	.	.	.	.	.	.	.	.	.
!	!	!	!	!	!	!LO:LB:g=original	!	!	!	!	!	!	!
!	!	!LO:TX:a:t=P:problem:mixed beam	!	!	!	!	!	!	!	!	!	!	!
8A\L	X 6/	16ff#X\LL	16dd\LL	8A\	-trem	8G\	-trem	8f#X\	-tre(m)	8dd\	-trem	.	.
.	.	16f#X/	16ff#\	.	.	.	.	.	.	.	.	.	.
8A\J	.	16f#/	16aa\	8A\	in-	8A\	in-	8f#\	in-	8cc\	in-	.	.
.	.	16ff#\JJ	16ccc\JJ	.	.	.	.	.	.	.	.	.	.
=10	=10	=10	=10	=10	=10	=10	=10	=10	=10	=10	=10	=10	=10
8B\L	X 6	16gg\LL	16bb\LL	8.B\	-ge-	8B\	-ge-	8g\	-ge-	8b\	-ge-	00r	00r
.	.	16dd\	16gg\	.	.	.	.	.	.	.	.	.	.
8A\	X 6/	16cc\	16gg\	.	.	8c\	-ni-	8f#X\	-ni-	8b\	-ni-	.	.
.	.	16cc\JJ	16gg\JJ	16A\	-ni-	.	.	.	.	.	.	.	.
8G\	.	16b\LL	16gg\LL	8G\	-tum	8B\	-tum	8g\	-tu(m)	8b\	-tum	.	.
.	.	16b\	16gg\	.	.	.	.	.	.	.	.	.	.
*	*	*	*	*	*Xij	*	*Xij	*	*	*	*Xij	*	*
8G\J	.	16dd\	16gg\	8G\	te	8B\	te	8g\	te	8b\	te	.	.
.	.	16dd\JJ	16gg\JJ	.	.	.	.	.	.	.	.	.	.
8F#X\L	X 6:	16dd\LL	16gg\LL	8F#X\	fi-	8A\	fi-	8a\	fi-	8a\	fi-	.	.
.	.	16dd\	16aa\	.	.	.	.	.	.	.	.	.	.
8F#\	.	16dd\	16aa\	16F#\	-li-	16A\	-li-	16a\	-li-	16dd\	-li-	.	.
.	.	16dd\JJ	16aa\JJ	16F#\	-um	16A\	-u(m)	16a\	-u(m)	16dd\	-u(m)	.	.
8F#\	.	16dd\LL	16aa\LL	8F#\	U-	8d\	U-	8a\	u-	8dd\	u-	.	.
.	.	16aa\	16dd\	.	.	.	.	.	.	.	.	.	.
8F#\J	.	16aa\	16dd\	8F#\	-ni-	8d\	-ni-	8a\	-ni-	8dd\	-ni-	.	.
.	.	16dd\JJ	16aa\JJ	.	.	.	.	.	.	.	.	.	.
=11	=11	=11	=11	=11	=11	=11	=11	=11	=11	=11	=11	=11	=11
8E\L	X 7	16dd\LL	16gg\LL	8E\	-ge-	8e\	-ge-	8a\	-ge-	8dd\	-ge-	.	.
.	.	16dd\	16gg\	.	.	.	.	.	.	.	.	.	.
8E\	.	16dd\	16gg\	8E\	-ni-	8e\	-ni-	8g\	-ni-	8dd\	-ni-	.	.
.	.	16dd\JJ	16gg\JJ	.	.	.	.	.	.	.	.	.	.
8E\	X 6	16cc\LL	16gg\LL	8E\	-tu(m)	8e\	-tu(m)	8g\	-tu(m)	8cc\	-tum	.	.
.	.	16gg\	16cc\	.	.	.	.	.	.	.	.	.	.
*	*	*	*	*	*	*	*	*	*ij	*	*	*	*
8E\J	.	16gg\	16cc\	8E\	te	8e\	te	8g\	te	8cc\	te	.	.
.	.	16cc\JJ	16gg\JJ	.	.	.	.	.	.	.	.	.	.
8D/L	7 #	16cc\LL	16ff#X\LL	4D\	fi-	4A\	fi-	4f#X\	fi-	4cc\	fi-	.	.
.	.	16cc\	16ff#\	.	.	.	.	.	.	.	.	.	.
8D/	.	16cc\	16ff#\	.	.	.	.	.	.	.	.	.	.
.	.	16cc\JJ	16ff#\JJ	.	.	.	.	.	.	.	.	.	.
!	!	!	!	!LO:LB:g=original	!	!	!	!	!	!	!	!	!
8D/	X 6	16b\LL	16ff#\LL	8D\	-li-	8d\	-li-	8f#\	-li-	8b\	-li-	.	.
.	.	16ff#X\	16b\	.	.	.	.	.	.	.	.	.	.
8D/J	.	16ff#\	16b\	8D\	-um	8B\	-u(m)	8f#\	-um	8b\	-um	.	.
.	.	16b\JJ	16ff#\JJ	.	.	.	.	.	.	.	.	.	.
!LO:LB:g=original	!	!	!	!	!	!	!	!	!	!LO:LB:g=original	!	!	!
=12	=12	=12	=12	=12	=12	=12	=12	=12	=12	=12	=12	=12	=12
8C/L	X 6	8cc\L	16ee\LL	(<8C/L	U-	(>8e\L	U-	(>8e\	U-	(>8cc\L	U-	.	.
.	.	.	16gg\	.	.	.	.	.	.	.	.	.	.
8BB/	X 6	8b\	16ff#X\	8BB/)	.	8d\)	.	8g\)	.	8dd\)	.	.	.
.	.	.	16aa\JJ	.	.	.	.	.	.	.	.	.	.
8AA/	X 6/	8a\	16gg\LL	(<8AA/	-ni-	(>8c\	-ni-	8f#X\L	-ni-	(>8cc\	-ni-	.	.
.	.	.	16bb\	.	.	.	.	.	.	.	.	.	.
8GG/J	.	8b\J	16aa\	8GG/J)	.	8B\J)	.	8g\J	.	8b\J)	.	.	.
.	.	.	16ccc\JJ	.	.	.	.	.	.	.	.	.	.
8D/L	X #	8dd\L	8bb\L	8D/L	-ge-	8A\L	-ge-	4g\	-ge-	8a\L	-ge-	.	.
8C/	7 5	8cc\	16aa\L	8C/J	.	8e\J	.	.	.	8b\	.	.	.
.	.	.	16gg\JJ	.	.	.	.	.	.	.	.	.	.
8D/	X 4	8a\	8gg\L	8.D/	.	8d\	.	4f#X\	-ni-	8a\J	.	.	.
8DD/J	7 #	16dd\L	8ff#X\J	.	.	8d\	-ni-	.	.	8a\	-ni-	.	.
.	.	16cc\JJ	.	16D/	-ni-	.	.	.	.	.	.	.	.
=13	=13	=13	=13	=13	=13	=13	=13	=13	=13	=13	=13	=13	=13
!LO:TX:a:t=P:problem:mixed beam	!	!	!	!	!	!	!	!	!	!	!	!	!
8GG/L	.	16b/LL	16gg\LL	4GG/	-tum	4d\	-tum	4g\	-tum	4b\	-tum	.	.
*	*	*	*	*	*	*	*	*	*Xij	*	*	*	*
.	.	16b/	16dd\	.	.	.	.	.	.	.	.	.	.
8G\	.	16b/	16dd\	.	.	.	.	.	.	.	.	.	.
.	.	16b/JJ	16dd\JJ	.	.	.	.	.	.	.	.	.	.
8F#X\	X 6	16a/LL	16dd\LL	4r	.	4r	.	4r	.	4r	.	.	.
.	.	16a/	16dd\	.	.	.	.	.	.	.	.	.	.
8F#\J	.	16a/	16dd\	.	.	.	.	.	.	.	.	.	.
.	.	16a/JJ	16dd\JJ	.	.	.	.	.	.	.	.	.	.
!LO:TX:a:t=P:problem:mixed beam	!	!	!	!	!	!	!	!	!	!	!	!	!
8E\L	.	8cc\L	8gg\L	2r	.	2r	.	2r	.	2r	.	.	.
8C\	6 -	16dd\L	16ff#X\L	.	.	.	.	.	.	.	.	.	.
.	.	16ee\JJ	16ee\JJ	.	.	.	.	.	.	.	.	.	.
8D\	X 4	16dd\LL	8.ff#X\L	.	.	.	.	.	.	.	.	.	.
.	.	16ee\	.	.	.	.	.	.	.	.	.	.	.
8DD/J	7 #	16dd\	.	.	.	.	.	.	.	.	.	.	.
.	.	16cc\JJ	16ff#\Jk	.	.	.	.	.	.	.	.	.	.
!	!	!LO:LB:g=original	!LO:LB:g=original	!	!	!	!	!	!	!	!	!	!
=14	=14	=14	=14	=14	=14	=14	=14	=14	=14	=14	=14	=14	=14
!LO:TX:a:t=P:problem:mixed beam	!	!	!	!	!	!	!	!	!	!	!	!	!
8GG/L	.	16b\LL	16gg\LL	8r	.	8r	.	8r	.	8r	.	8r	8r
.	.	16gg\	16ee\	.	.	.	.	.	.	.	.	.	.
8c\	.	16gg\	16ee\	8c\	Te	8c\	Te	8g\	Te	8ee\	Te	8cc\	8ee\L
.	.	16gg\JJ	16cc\JJ	.	.	.	.	.	.	.	.	.	.
!	!	!	!	!	!	!	!	!LO:LB:g=original	!	!	!	!	!
!	!	!	!	!	!	!	!	!	!	!	!	!LO:TX:a:t=P:problem:mixed beam	!
8B\	X 6	16gg\LL	16dd\LL	8B\	De-	8d\	De-	8g\	De-	8dd\	De-	8g/L	8dd\
.	.	16dd\	16g\	.	.	.	.	.	.	.	.	.	.
!	!	!	!	!	!	!LO:LB:g=original	!	!	!	!	!	!	!
8B\J	.	16dd\	16g\	8B\	-u(m)	8B\	-um	8d\	-um	8dd\	-um	8dd\J	8gg\J
.	.	16gg\JJ	16dd\JJ	.	.	.	.	.	.	.	.	.	.
4c\	.	16gg\LL	16ee\LL	4c\	Pat-	4c\	Pa-	4e\	Pa-	4ee\	Pa-	8cc\L	8ee\L
.	.	16ee\	16gg\	.	.	.	.	.	.	.	.	.	.
.	.	16ee\	16gg\	.	.	.	.	.	.	.	.	8g\J	8ee\J
.	.	16ee\JJ	16cc\JJ	.	.	.	.	.	.	.	.	.	.
8E\L	X 6	16ee\LL	16gg\LL	8E\	-re(m)	8c\	-tre(m)	8g\	-tre(m)	8ee\	-tre(m)	8ee\L	8gg\L
.	.	16ee\	16gg\	.	.	.	.	.	.	.	.	.	.
8F\J	6 5	16dd\	16ff\	8F\	in-	8A\	in-	8a\	in-	8cc\	in-	16dd\L	16ff\L
.	.	16cc\JJ	16ee\JJ	.	.	.	.	.	.	.	.	16cc\JJ	16ee\JJ
=15	=15	=15	=15	=15	=15	=15	=15	=15	=15	=15	=15	=15	=15
8G\L	.	16b\LL	16dd\LL	8G\	-ge-	8B\	-ge-	8g\	-ge-	8dd\	-ge-	8g/L	8dd\L
.	.	16dd\	16gg\	.	.	.	.	.	.	.	.	.	.
8G\	.	16dd\	16gg\	8G\	-ni-	8B\	-ni-	8d\	-ni-	8dd\	-ni-	8g/J	8dd\
.	.	16dd\JJ	16aa\JJ	.	.	.	.	.	.	.	.	.	.
8G\	.	16gg\LL	16bb\LL	8G\	-tu{m}	8B\	-tu{m}	8d\	-tu(m)	8dd\	-tu(m)	8dd\L	8gg\
.	.	16dd\	16gg\	.	.	.	.	.	.	.	.	.	.
8G\J	.	16dd\	16gg\	8G\	te	8B\	te	8g\	te	8gg\	te	8dd\J	8gg\J
.	.	16dd\JJ	16bb\JJ	.	.	.	.	.	.	.	.	.	.
8F\L	X 6	16cc\LL	16aa\LL	4F\	fi-	4c\	fi-	4a\	fi-	4ff\	fi-	16ff\LL	16aa\LL
.	.	16cc\	16aa\	.	.	.	.	.	.	.	.	16ff\	16aa\
8F\	.	16cc\	16aa\	.	.	.	.	.	.	.	.	16ff\	16aa\
.	.	16cc\JJ	16aa\JJ	.	.	.	.	.	.	.	.	16ff\JJ	16aa\JJ
8F\	.	16cc\LL	16aa\LL	8F\	-li-	8f\	-li-	8a\	-li-	8cc\	-li-	16cc\LL	16aa\LL
.	.	16ff\	16cc\	.	.	.	.	.	.	.	.	16cc\	16aa\
8F\J	.	16ff\	16cc\	8F\	-um	8f\	-u(m)	8a\	-u(m)	8dd\	-um	16cc\	16aa\
.	.	16ff\JJ	16aa\JJ	.	.	.	.	.	.	.	.	16ff\JJ	16aa\JJ
=16	=16	=16	=16	=16	=16	=16	=16	=16	=16	=16	=16	=16	=16
8E\L	X 7	16ee\LL	16gg\LL	4E\	U-	8e\L	U-	4g\	U-	8dd\L	U-	16ee\LL	16gg\LL
.	.	16ee\	16gg\	.	.	.	.	.	.	.	.	16ee\	16gg\
8E\	.	16ee\	16gg\	.	.	8c\J	.	.	.	8cc\J	.	16ee\	16gg\
.	.	16dd\JJ	16gg\JJ	.	.	.	.	.	.	.	.	16ee\JJ	16gg\JJ
8E\	X 6	16cc\LL	16gg\LL	4E\	-ni-	4G/	-ni-	4g\	-ni-	4cc\	-ni-	16cc\LL	16ee\LL
.	.	16cc\	16cc\	.	.	.	.	.	.	.	.	16cc\	16ee\
8E\J	.	16cc\	16cc\	.	.	.	.	.	.	.	.	16cc\	16gg\
.	.	16cc\JJ	16gg\JJ	.	.	.	.	.	.	.	.	16cc\JJ	16gg\JJ
!	!	!LO:TX:a:t=P:problem:mixed beam	!	!	!	!	!	!	!	!	!	!	!LO:LB:g=original
8D\L	X 7	16cc\LL	16ff\LL	4D/	-ge-	4A/	-ge-	4.f\	-ge-	4.cc\	-ge-	16dd\LL	16ff\LL
.	.	16cc\	16ff\	.	.	.	.	.	.	.	.	16dd\	16ff\
8D\	.	16c/	16ff\	.	.	.	.	.	.	.	.	16dd\	16ff\
.	.	16cc\JJ	16ff\JJ	.	.	.	.	.	.	.	.	16dd\JJ	16ff\JJ
!	!	!	!	!	!	!	!	!	!	!	!	!LO:LB:g=original	!
!	!	!	!	!	!	!	!	!	!	!	!	!LO:TX:a:t=P:problem:mixed beam	!
8D\	X 6	16b\LL	16ff\LL	4D/	-ni-	8G/L	-ni-	.	.	.	.	16g/LL	16dd\LL
.	.	16b\	16b\	.	.	.	.	.	.	.	.	16g/	16dd\
8D\J	.	16bb\	16b\	.	.	8F/J	.	16g\LL	-ni-	8b\	-ni-	16dd\	16gg\
.	.	16b\JJ	16ff\JJ	.	.	.	.	16f\JJ	.	.	.	16dd\JJ	16gg\JJ
!	!	!	!	!LO:LB:g=original	!	!	!	!	!	!LO:LB:g=original	!	!	!
=17	=17	=17	=17	=17	=17	=17	=17	=17	=17	=17	=17	=17	=17
!LO:TX:a:t=P:problem:mixed beam	!	!	!	!	!	!	!	!	!	!	!	!	!
8C/L	.	16cc\LL	16ee\LL	8C/	-tum	8G/	-tu(m)	8e\	-tu(m)	8cc\	-tu(m)	16cc\LL	8ee\L
.	.	16gg\	16ee\	.	.	.	.	.	.	.	.	16cc\	.
8c\	.	16gg\	16ee\	8c\	te	8G/	te	8e\	te	8ee\	te	16cc\	8ee\
.	.	16ccc\JJ	16ee\JJ	.	.	.	.	.	.	.	.	16cc\JJ	.
!	!	!	!	!	!	!	!	!	!	!LO:N:vis=8.	!	!	!
8c\	.	16ccc\LL	16ee\LL	8c\	fi-	8G/	fi-	8e\	fi-	8ee\	fi-	16cc\LL	8ee\
.	.	16gg\	16ccc\	.	.	.	.	.	.	.	.	16cc\	.
8c\J	.	16gg\	16ccc\	16c\	-li-	16G/	-li-	16e\	-li-	16ee\	-li-	16cc\	8ee\J
.	.	16gg\JJ	16ccc\JJ	16c\	-u(m)	16G/	-u(m)	16e\	-u(m)	16ee\	-um	16cc\JJ	.
8B\L	X 6	16dd\LL	16gg\LL	8B\	U-	8d\	U-	8g\	U-	8dd\	U-	16dd\LL	16dd\LL
.	.	16dd\	16ddd\	.	.	.	.	.	.	.	.	16dd\	16gg\
8B\	.	16dd\	16ddd\	8B\	-ni-	8d\	-ni-	8g\	-ni-	8dd\	-ni-	16dd\	16gg\
.	.	16gg\JJ	16ddd\JJ	.	.	.	.	.	.	.	.	16dd\JJ	16gg\JJ
8B\	.	16aa\LL	16ddd\LL	8B\	-ge-	8c\	-ge-	8d\	-ge-	8gg\	-ge-	16dd\LL	16gg\LL
.	.	16ccc\	16gg\	.	.	.	.	.	.	.	.	16dd\	16gg\
8B\J	.	16bb\	16gg\	8B\	-ni-	8B\	-ni-	8g\	-ni-	8gg\	-ni-	16dd\	16gg\
.	.	16gg\JJ	16ddd\JJ	.	.	.	.	.	.	.	.	16dd\JJ	16gg\JJ
!LO:LB:g=original	!	!LO:LB:g=original	!	!	!	!	!	!	!	!	!	!	!
=18	=18	=18	=18	=18	=18	=18	=18	=18	=18	=18	=18	=18	=18
!	!	!	!	!	!	!	!	!	!	!	!	!	!LO:TX:a:t=P:problem:nieprezcyzyjny zapis wysokości w tym takcie
8A\L	X 7	16gg\LL	16ccc\LL	8A\	-tu(m)	8c\	-tu(m)	8g\	-tu(m)	8cc\	-tu(m)	16cc\LL	16gg\LL
.	.	16gg\	16ccc\	.	.	.	.	.	.	.	.	16cc\	16gg\
8A\	.	16gg\	16ccc\	8A\	te	8c\	te	8g\	te	8cc\	te	16cc\	16gg\
.	.	16gg\JJ	16ccc\JJ	.	.	.	.	.	.	.	.	16cc\JJ	16gg\JJ
!	!	!	!LO:LB:g=original	!	!	!	!	!	!	!	!	!	!
8A\	X 6	16ff\LL	16ccc\LL	8A\	fi-	8A\	fi-	8f\	fi-	8ff\	fi-	16cc\LL	16gg\LL
.	.	16cc\	16ff\	.	.	.	.	.	.	.	.	16cc\	16gg\
8A\J	.	16cc\	16ff\	16A\	-li-	16B\	-li-	16f\	-li-	16ff\	-li-	16cc\	16gg\
.	.	16ff\JJ	16ccc\JJ	16A\	-um	16c\	-u(m)	16f\	-u(m)	16ff\	-um	16cc\JJ	16gg\JJ
!	!	!LO:TX:a:t=P:problem:mixed beam	!	!	!	!	!	!	!	!	!	!	!
8G\L	X 7	16ff\LL	16bb\LL	4G\	U-	4d\	U-	4f\	U-	4b\	U-	8dd\L	8gg\L
.	.	16ff\	16bb\	.	.	.	.	.	.	.	.	.	.
8G\	.	16f/	16bb\	.	.	.	.	.	.	.	.	8dd\	8gg\
.	.	16ff\JJ	16bb\JJ	.	.	.	.	.	.	.	.	.	.
8G\	x 6	16ee\LL	16bb\LL	8G\L	-ni-	4c\	-ni-	8e\L	-ni-	4ee\	-ni-	8cc\	8ee\
.	.	16ee\	16dd\	.	.	.	.	.	.	.	.	.	.
8E\J	X 6	16dd\	16ee\	8E\J	.	.	.	8g\J	.	.	.	8cc\J	8gg\J
.	.	16cc\JJ	16gg\JJ	.	.	.	.	.	.	.	.	.	.
!	!	!	!	!	!	!LO:LB:g=original	!	!LO:LB:g=original	!	!	!	!	!
=19	=19	=19	=19	=19	=19	=19	=19	=19	=19	=19	=19	=19	=19
8F\L	.	16cc\LL	16aa\LL	8F\L	-ge-	8c\L	-ge-	8a\L	-ge-	8a\L	-ge-	8cc\L	8ff\L
.	.	16cc\	16ff\	.	.	.	.	.	.	.	.	.	.
8G\	.	16cc\	16gg\	8G\	.	8B\	.	8g\	.	8b\	.	8cc\J	8ff\J
.	.	16cc\JJ	16gg\JJ	.	.	.	.	.	.	.	.	.	.
8A\	x 6	16cc\LL	16ff\LL	8A\	.	8A\	.	8f\	.	8cc\	.	8cc\L	8ff\L
.	.	16cc\	16aa\	.	.	.	.	.	.	.	.	.	.
8B\J	X 6	16dd\	16gg\	8B\J	.	8G\J	.	8g\J	.	8dd\J	.	8dd\J	16gg\L
.	.	16dd\JJ	16gg\JJ	.	.	.	.	.	.	.	.	.	16ff\JJ
8c\L	.	8ee\L	8gg\L	8c\L	.	8G\L	.	8e\L	.	4ee\	.	8cc\L	8ee\L
8E\	X -	8ff\J	16ff\L	8E\	.	8A\J	.	8a\	.	.	.	16dd\L	8ee\J
.	.	.	16ee\JJ	.	.	.	.	.	.	.	.	16cc\JJ	.
8F\	6 5	16gg\LL	8dd\L	(>8F\	-ni-	8B\	.	8d\J	.	4dd\	-ni-	4g/	4dd\
.	.	16aa\	.	.	.	.	.	.	.	.	.	.	.
8G\J	X 4	16gg\	8gg\J	8G\J)	.	8B\	-ni-	16g\LL	.	.	.	.	.
.	X 3	16ff\JJ	.	.	.	.	.	16f\JJ	.	.	.	.	.
=20	=20	=20	=20	=20	=20	=20	=20	=20	=20	=20	=20	=20	=20
!	!	!	!	!	!	!	!	!	!	!	!	!LO:TX:a:t=P:problem:mixed beam	!
8C/L	.	16ee\LL	16gg\LL	8C/	-tu(m)	8c\	-tu(m)	4e\	-tum	4cc\	-tu(m)	8cc\L	16ee\LL
.	.	16ff\	16aa\	.	.	.	.	.	.	.	.	.	16ff\
8C/J	.	16ee\	16gg\	8C/	te	8e\	te	.	.	.	.	8g/J	16ee\
.	.	16dd\JJ	16ff\JJ	.	.	.	.	.	.	.	.	.	16dd\JJ
16A\LL	.	16cc\LL	8ee\L	16A\LL	Spi-	16c\LL	Spi-	4g\	te	4ee\	te	8e/L	8cc\L
16B\	.	16dd\	.	16B\	.	16d\	.	.	.	.	.	.	.
16A\	.	16cc\	8ee\J	16A\	.	16c\	.	.	.	.	.	8e/J	8cc\J
16G\JJ	.	16b\JJ	.	16G\JJ	.	16B\JJ	.	.	.	.	.	.	.
8F\L	X 6	16dd\LL	16ff\LL	8F\	.	8A\	.	16f\LL	Spi-	16dd\LL	Spi-	16dd\LL	16ff\LL
.	.	16ee\	16gg\	.	.	.	.	16g\	.	16ee\	.	16ee\	16gg\
8F\J	.	16dd\	16ff\	16F\	-ri-	16A\	-ri-	16f\	.	16dd\	.	16dd\	16ff\
.	.	16cc\JJ	16ee\JJ	16F\	-tum	16A\	-tu(m)	16e\JJ	.	16cc\JJ	.	16cc\JJ	16ee\JJ
!	!	!	!	!LO:LB:g=original	!	!	!	!	!	!	!	!	!
16G\LL	.	16b\LL	8dd\LL	16G\LL	San-	16B\LL	San-	8d\	.	8b\	.	8g/L	8dd\L
16A\	.	16cc\	.	16A\	.	16c\	.	.	.	.	.	.	.
16G\	.	16b\	8gg\JJ	16G\	.	16B\	.	16d\	-ri-	16cc\	-ri-	8g/J	8dd\J
16F\JJ	.	16a\JJ	.	16F\JJ	.	16A\JJ	.	16f\	-tu(m)	16dd\	-tum	.	.
!	!	!	!	!	!	!	!	!	!	!LO:LB:g=original	!	!	!
=21	=21	=21	=21	=21	=21	=21	=21	=21	=21	=21	=21	=21	=21
8E\L	X 6	8ee\L	16cccLL	8E\	-ctum	8G/	-ctu(m)	16e\LL	San-	16cc\LL	San-	8e/L	8cc\L
.	.	.	16ddd	.	.	.	.	16f\	.	16dd\	.	.	.
*	*	*	*	*	*ij	*	*ij	*	*	*	*	*	*
8E\J	.	8ee\	16ccc	8E\	San-	8c\	San-	16e\	.	16cc\	.	8e/J	16cc\L
.	.	.	16bbJJ	.	.	.	.	16d\JJ	.	16b\JJ	.	.	16cc\JJ
16F\LL	.	8cc\	8aaLL	(>16F\LL	.	8A\	-ctum	8c\	.	8a\	.	8cc\L	8cc\L
*	*	*	*	*	*	*	*Xij	*	*	*	*	*	*
16E\	.	.	.	16E\)	.	.	.	.	.	.	.	.	.
16F\	.	8cc\J	8aaJJ	(>16F\	.	8c\	Pa-	8g\	-ctu(m)	8cc\	-ctu(m)	8cc\J	8cc\J
16D\JJ	.	.	.	16D\JJ)	-ctum	.	.	.	.	.	.	.	.
*	*	*	*	*	*Xij	*	*	*	*	*	*	*	*
!LO:TX:a:t=P:problem:mixed beam	!	!	!	!	!	!	!	!	!	!	!	!	!
8G\L	.	16dd\LL	16bbLL	16G\LL	Pa-	8B\L	-ra-	8g\L	Pa-	8dd\L	Pa-	8g\L	8cc\L
.	.	16ee\	16ccc	16F\	.	.	.	.	.	.	.	.	.
8F\	.	16ff\	16ddd	16E\	.	8c\	.	16f\L	.	8ee\J	.	8cc\J	16dd\L
.	.	16ee\JJ	16cccJJ	16F\JJ	.	.	.	16e\JJ	.	.	.	.	16ee\JJ
!	!	!	!	!	!	!	!	!	!	!	!	!	!LO:LB:g=original
8G\	X 4	8dd\L	16bbLL	8G\	-ra-	8G\J	.	8d\	-ra-	8.dd\	-ra-	8g/L	8dd\L
.	.	.	16gg	.	.	.	.	.	.	.	.	.	.
8GG/J	7 3	8dd\J	16aa	8G\	-cli-	8B\	-cli-	8d\	-cli-	.	.	8g/J	8dd\J
.	.	.	16bbJJ	.	.	.	.	.	.	16dd\	-cli-	.	.
!	!	!	!	!	!	!	!	!	!	!	!	!LO:LB:g=original	!
=22	=22	=22	=22	=22	=22	=22	=22	=22	=22	=22	=22	=22	=22
!	!	!	!	!	!	!	!	!	!	!	!	!LO:TX:a:t=P:problem:mixed beam	!
8C/L	.	16ee\LL	16ccc\LL	8C/	-tu(m)	8c\	-tu(m)	4e\	-tu(m)	4cc\	-tu(m)	8cc\L	16ee\LL
.	.	16ff\	16aa\	.	.	.	.	.	.	.	.	.	16ff\
8C/J	.	16ee\	16gg\	8C/	te	8e\	te	.	.	.	.	8g/J	16ee\
.	.	16dd\JJ	16ff\JJ	.	.	.	.	.	.	.	.	.	16dd\JJ
16A\LL	.	16cc\LL	8ee\L	16A\LL	Spi-	16c\LL	Spi-	4g\	te	4ee\	te	8e/L	8cc\L
16B\	.	16dd\	.	16B\	.	16d\	.	.	.	.	.	.	.
16A\	.	16cc\	8ee\J	16A\	.	16c\	.	.	.	.	.	8e/J	8cc\J
16G\JJ	.	16b\JJ	.	16G\JJ	.	16B\JJ	.	.	.	.	.	.	.
!	!	!LO:LB:g=original	!	!	!	!	!	!	!	!	!	!	!
8F\L	X 6	16dd\LL	16ff\LL	8F\	.	8A\	.	16f\LL	Spi-	16dd\LL	Spi-	16dd\LL	16ff\LL
.	.	16ee\	16gg\	.	.	.	.	16g\	.	16ee\	.	16ee\	16gg\
8F\J	.	16dd\	16ff\	16F\	-ri-	16A\	-ri-	16f\	.	16dd\	.	16dd\	16ff\
.	.	16cc\JJ	16ee\JJ	16F\	-tu(m)	16A\	-tum	16e\JJ	.	16cc\JJ	.	16cc\JJ	16ee\JJ
16G\LL	.	16b\LL	16dd\LL	16G\LL	San-	16B\LL	San-	8d\	.	8b\	.	8g/L	8dd\L
16A\	.	16cc\	16gg\	16A\	.	16c\	.	.	.	.	.	.	.
16G\	.	16b\	16aa\	16G\	.	16B\	.	16e\	-ri-	16b\	-ri-	8g/J	8dd\J
16F\JJ	.	16a\JJ	16bb\JJ	16F\JJ	.	16A\JJ	.	16f\	-tu(m)	16dd\	-tum	.	.
!	!	!	!LO:LB:g=original	!	!	!LO:LB:g=original	!	!	!	!	!	!	!
=23	=23	=23	=23	=23	=23	=23	=23	=23	=23	=23	=23	=23	=23
!	!	!LO:TX:a:t=P:problem:mixed beam	!	!	!	!	!	!	!	!	!	!LO:TX:a:t=P:problem:mixed beam	!
8E\L	X 6	8g/L	16ccc\LL	8E\L	-ctu(m)	8G\	-ctum	16e\LL	San-	16cc\LL	San-	8e/L	16cc\LL
.	.	.	16ddd\	.	.	.	.	16f\	.	16dd\	.	.	16cc\
*	*	*	*	*	*ij	*	*ij	*	*	*	*	*	*
8E\J	.	8ee\J	16ccc\	8E\J	San-	8c\	San-	16e\	.	16cc\	.	8e/	16cc\
.	.	.	16bb\JJ	.	.	.	.	16d\JJ	.	16b\JJ	.	.	16cc\JJ
!LO:LB:g=original	!	!	!	!	!	!	!	!	!	!	!	!	!
16F\LL	.	8cc\L	8aa\L	(>16F\LL	.	8A\	-ctum	8c\	.	8a\	.	8cc\	8cc\L
*	*	*	*	*	*	*	*Xij	*	*	*	*	*	*
16E\	.	.	.	16E\)	.	.	.	.	.	.	.	.	.
16F\	.	8cc\J	8aa\J	(>16F\	.	8c\	Pa-	8g\	-ctu(m)	8cc\	-ctu(m)	8cc\J	8cc\J
16D\JJ	.	.	.	16D\JJ)	-ctum	.	.	.	.	.	.	.	.
*	*	*	*	*	*Xij	*	*	*	*	*	*	*	*
!LO:TX:a:t=P:problem:mixed beam	!	!	!	!	!	!	!	!	!	!	!	!LO:TX:a:t=P:problem:mixed beam	!
8G\L	.	8dd\L	8bb\L	16G\LL	Pa-	8B\L	-ra-	8g\L	Pa-	8dd\L	Pa-	8g/L	8dd\L
.	.	.	.	16F\	.	.	.	.	.	.	.	.	.
8F\	.	8ee\	8ccc\J	16E\	.	8c\J	.	16f\L	.	8ee\J	.	8cc\J	16ee\L
.	.	.	.	16F\JJ	.	.	.	16e\JJ	.	.	.	.	16ff\JJ
8G\	X 4	8cc\	8bb\L	8G\	-ra-	8G\L	-cli-	8d\	-ra-	8.dd\	-ra-	8g/L	8dd\L
8GG/J	7 3	8dd\J	16aa\L	8G\	-cli-	8B\J	.	8d\	-cli-	.	.	8g/J	8gg\J
.	.	.	16bb\JJ	.	.	.	.	.	.	16dd\	-cli-	.	.
!	!	!	!	!LO:LB:g=original	!	!	!	!LO:LB:g=original	!	!	!	!	!
=24	=24	=24	=24	=24	=24	=24	=24	=24	=24	=24	=24	=24	=24
!LO:TX:a:t=P:problem:mixed beam	!	!	!	!	!	!	!	!	!	!	!	!	!
8C/L	.	8ee\L	16ccc\LL	4C/	-tum	4c\	-tu(m)	4e\	-tum	4cc\	-tum	16cc\LL	16ee\LL
.	.	.	16gg\	.	.	.	.	.	.	.	.	16ee\	16gg\
8E\	X 6	16dd\L	16ff\	.	.	.	.	.	.	.	.	16dd\	16ff\
.	.	16cc\JJ	16ee\JJ	.	.	.	.	.	.	.	.	16cc\JJ	16ee\JJ
8F\	6 5	8dd\L	8dd\L	4r	.	4r	.	4r	.	4r	.	8g/L	8dd\L
8G\J	X 4	8dd\J	8dd\J	.	.	.	.	.	.	.	.	8g/J	8dd\J
!	!	!	!	!LO:TX:a:t=P:problem:w źródle podwójna kreska taktowa za tym taktem	!	!LO:TX:a:i:t=clar	!	!	!	!	!	!	!
.	7 3	.	.	.	.	.	.	.	.	.	.	.	.
2C/	.	4cc\	4ee\	2r	.	2r	.	2r	.	2r	.	4e/	4cc\
.	.	4r	4r	.	.	.	.	.	.	.	.	4r	4r
=25	=25	=25	=25	=25||	=25	=25	=25	=25	=25	=25-	=25	=25	=25
!LO:TX:a:t=P:problem:nadliczbowy takt	!	!	!	!	!	!	!	!	!	!	!	!LO:TX:a:t=P:problem:nadliczbowy takt	!LO:TX:a:t=P:problem:nadliczbowy takt
1ryy	.	1ryy	1ryy	1r	.	1ryy	.	1ryy	.	1ryy	.	1ryy	1ryy
=26	=26	=26	=26	=26	=26	=26	=26	=26	=26	=26	=26	=26	=26
!LO:TX:a:t=P:problem:mixed beam	!	!	!	!	!	!	!	!	!	!	!	!	!
!LO:TX:b:i:t=Solo.	!	!LO:TX:b:i:t=Solo Sanctam.	!LO:TX:a:i:t=Solo	!LO:TX:a:i:t=Solo	!	!LO:TX:a:i:t=Bas	!	!	!	!	!	!LO:N:vis=00	!LO:N:vis=00
!	!	!	!	!	!	!LO:N:vis=00	!	!LO:N:vis=00	!	!LO:N:vis=00	!	!	!
16AA/LL	.	4cc\	4ee\	4A\	San-	00r	.	00r	.	00r	.	00r	00r
16A\	.	.	.	.	.	.	.	.	.	.	.	.	.
16G#X\	X 6	.	.	.	.	.	.	.	.	.	.	.	.
16A\JJ	.	.	.	.	.	.	.	.	.	.	.	.	.
!LO:TX:a:t=P:problem:mixed beam	!	!	!	!	!	!	!	!	!	!	!	!	!
16AA/LL	.	8r	8r	4A\	-cta(m)	.	.	.	.	.	.	.	.
16A\	.	.	.	.	.	.	.	.	.	.	.	.	.
16G#X\	X 6	8cc\	8ee\	.	.	.	.	.	.	.	.	.	.
16A\JJ	.	.	.	.	.	.	.	.	.	.	.	.	.
!LO:TX:a:t=P:problem:mixed beam	!	!	!	!	!	!	!	!	!	!	!	!	!
16DD/LL	.	4a/	4ff\	8r	.	.	.	.	.	.	.	.	.
16D\	.	.	.	.	.	.	.	.	.	.	.	.	.
16C\	.	.	.	8A\	et	.	.	.	.	.	.	.	.
16D\JJ	.	.	.	.	.	.	.	.	.	.	.	.	.
!LO:TX:a:t=P:problem:mixed beam	!	!	!	!	!	!	!	!	!	!	!	!	!
16E\LL	.	16r	16r	8G#X\	in-	.	.	.	.	.	.	.	.
16D\	.	16b\LL	16ff\LL	.	.	.	.	.	.	.	.	.	.
16E\	X 4	16a\	16ee\	8E\	-di-	.	.	.	.	.	.	.	.
16EE/JJ	X #	16b\JJ	16dd\JJ	.	.	.	.	.	.	.	.	.	.
=27	=27	=27	=27	=27	=27	=27	=27	=27	=27	=27	=27	=27	=27
!LO:TX:a:t=P:problem:mixed beam	!	!	!	!	!	!	!	!	!	!	!	!	!
16AA/LL	.	4cc\	4ee\	8.A\	-vi-	.	.	.	.	.	.	.	.
16A\	.	.	.	.	.	.	.	.	.	.	.	.	.
16G#X\	.	.	.	.	.	.	.	.	.	.	.	.	.
16A\JJ	.	.	.	16A\	-du-	.	.	.	.	.	.	.	.
!LO:TX:a:t=P:problem:mixed beam	!	!	!	!	!	!	!	!	!	!	!	!	!
16AA/LL	.	4r	4r	8A\	-am	.	.	.	.	.	.	.	.
16A\	.	.	.	.	.	.	.	.	.	.	.	.	.
16G#X\	.	.	.	8r	.	.	.	.	.	.	.	.	.
16A\JJ	.	.	.	.	.	.	.	.	.	.	.	.	.
16A\LL	.	2r	2r	2r	.	.	.	.	.	.	.	.	.
16c\	.	.	.	.	.	.	.	.	.	.	.	.	.
16B\	.	.	.	.	.	.	.	.	.	.	.	.	.
16A\JJ	.	.	.	.	.	.	.	.	.	.	.	.	.
16E\LL	.	.	.	.	.	.	.	.	.	.	.	.	.
16G#X\	.	.	.	.	.	.	.	.	.	.	.	.	.
16F\	.	.	.	.	.	.	.	.	.	.	.	.	.
16E\JJ	.	.	.	.	.	.	.	.	.	.	.	.	.
=28	=28	=28	=28	=28	=28	=28	=28	=28	=28	=28	=28	=28	=28
!LO:TX:a:t=P:problem:mixed beam	!	!	!	!	!	!	!	!	!	!	!	!	!
16A\LL	.	4cc\	4ee\	4A\	San-	.	.	.	.	.	.	.	.
16AA/	.	.	.	.	.	.	.	.	.	.	.	.	.
16C/	.	.	.	.	.	.	.	.	.	.	.	.	.
16BB/JJ	.	.	.	.	.	.	.	.	.	.	.	.	.
!LO:LB:g=original	!	!	!	!	!	!	!	!	!	!	!	!	!
16AA/LL	.	8r	8r	4AA/	-cta(m)	.	.	.	.	.	.	.	.
16BB/	.	.	.	.	.	.	.	.	.	.	.	.	.
16C/	.	8cc\	8ee\	.	.	.	.	.	.	.	.	.	.
16AA/JJ	.	.	.	.	.	.	.	.	.	.	.	.	.
8BB/L	.	16b\LL	16dd\LL	8r	.	.	.	.	.	.	.	.	.
.	.	16a\	16cc\	.	.	.	.	.	.	.	.	.	.
16C/L	.	16g#X\	16b\	8A\	et	.	.	.	.	.	.	.	.
16D/JJ	.	16a\JJ	16cc\JJ	.	.	.	.	.	.	.	.	.	.
!LO:TX:a:t=P:problem:mixed beam	!	!	!	!	!	!	!	!	!	!	!	!	!
16E\LL	.	8b\L	8dd\L	8B\	in-	.	.	.	.	.	.	.	.
16D\	.	.	.	.	.	.	.	.	.	.	.	.	.
16E\	X 4	16a\L	16ee\L	8c\	-di-	.	.	.	.	.	.	.	.
16EE/JJ	X #	16g#\JJ	16dd\JJ	.	.	.	.	.	.	.	.	.	.
=29	=29	=29	=29	=29	=29	=29	=29	=29	=29	=29	=29	=29	=29
!	!	!	!	!LO:N:vis=8.	!	!	!	!	!	!	!	!	!
4AA/	.	16a#\LL	16cc\LL	8G#X\	-vi-	.	.	.	.	.	.	.	.
.	.	16b\	16ee\	.	.	.	.	.	.	.	.	.	.
.	.	16b\	16ee\	16G#\	-du-	.	.	.	.	.	.	.	.
.	.	16b\JJ	16ee\JJ	16G#\	-am	.	.	.	.	.	.	.	.
!	!	!LO:LB:g=original	!	!	!	!	!	!	!	!	!	!	!
4r	.	16ee\LL	16cc\LL	8G#\	Tri-	.	.	.	.	.	.	.	.
.	.	16b\	16ee\	.	.	.	.	.	.	.	.	.	.
.	.	16b\	16ee\	16A\LL	-ni-	.	.	.	.	.	.	.	.
.	.	16b\JJ	16ee\JJ	16B\JJ	.	.	.	.	.	.	.	.	.
4AA/	.	16a#\LL	16ee\LL	8A\	-ta-	.	.	.	.	.	.	.	.
.	.	16cc\	16ee\	.	.	.	.	.	.	.	.	.	.
.	.	16cc\	16ee\	8AA/	-te(m)	.	.	.	.	.	.	.	.
.	.	16cc\JJ	16ee\JJ	.	.	.	.	.	.	.	.	.	.
!	!	!	!	!LO:LB:g=original	!	!	!	!	!	!	!	!	!
4r	.	16ee\LL	16cc\LL	4r	.	.	.	.	.	.	.	.	.
!	!	!LO:TX:a:t=P:problem:nad nutą adnotacja: "÷"	!	!	!	!	!	!	!	!	!	!	!
.	.	16cc\	16ee\	.	.	.	.	.	.	.	.	.	.
.	.	16cc\	16ee\	.	.	.	.	.	.	.	.	.	.
.	.	16cc\JJ	16ee\JJ	.	.	.	.	.	.	.	.	.	.
!	!	!	!LO:LB:g=original	!	!	!	!	!	!	!	!	!	!
=30	=30	=30	=30	=30	=30	=30	=30	=30	=30	=30	=30	=30	=30
4E\	X #	16ee\LL	16cc\LL	1r	.	00r	.	00r	.	00r	.	00r	00r
.	.	16cc\	16ee\	.	.	.	.	.	.	.	.	.	.
.	.	16cc\	16ee\	.	.	.	.	.	.	.	.	.	.
.	.	16cc\JJ	16ee\JJ	.	.	.	.	.	.	.	.	.	.
8r	.	16a\LL	16ee\LL	.	.	.	.	.	.	.	.	.	.
.	.	16cc\	16ee\	.	.	.	.	.	.	.	.	.	.
8E\	.	16cc\	16ee\	.	.	.	.	.	.	.	.	.	.
.	.	16cc\JJ	16ee\JJ	.	.	.	.	.	.	.	.	.	.
4AA/	.	4cc\	16ee\LL	.	.	.	.	.	.	.	.	.	.
.	.	.	16ee\	.	.	.	.	.	.	.	.	.	.
.	.	.	16ff#X\	.	.	.	.	.	.	.	.	.	.
.	.	.	16gg#X\JJ	.	.	.	.	.	.	.	.	.	.
8r	.	8r	16aa\LL	.	.	.	.	.	.	.	.	.	.
.	.	.	16ee\	.	.	.	.	.	.	.	.	.	.
8E\	X #	8ee\	16ff#X\	.	.	.	.	.	.	.	.	.	.
.	.	.	16gg#X\JJ	.	.	.	.	.	.	.	.	.	.
=31	=31	=31	=31	=31	=31	=31	=31	=31	=31	=31	=31	=31	=31
4A\	.	16ee\LL	16aa\LL	16r	.	.	.	.	.	.	.	.	.
.	.	16gg#X\	16bb\	16E\LL	San-	.	.	.	.	.	.	.	.
.	.	16aa\	16ccc\	16F#X\	.	.	.	.	.	.	.	.	.
.	.	16bb\JJ	16gg#X\JJ	16G#X\JJ	.	.	.	.	.	.	.	.	.
8r	.	16ccc\LL	16aa\LL	16A\LL	.	.	.	.	.	.	.	.	.
.	.	16gg#X\	16ee\	16B\	.	.	.	.	.	.	.	.	.
8E\	X #	16aa\	16ff#X\	16c\	.	.	.	.	.	.	.	.	.
.	.	16bb\JJ	16gg#X\JJ	16G#X\JJ	.	.	.	.	.	.	.	.	.
4AA/	.	16ccc\LL	16aa\LL	8A\	.	.	.	.	.	.	.	.	.
.	.	16ee\	16cc\	.	.	.	.	.	.	.	.	.	.
.	.	16dd\	16dd\	8AA/	-ctam	.	.	.	.	.	.	.	.
.	.	16cc\JJ	16ee\JJ	.	.	.	.	.	.	.	.	.	.
!LO:TX:a:t=P:problem:mixed beam	!	!	!	!	!	!	!	!	!	!	!	!	!
!	!	!	!	!LO:LB:g=original	!	!	!	!	!	!	!	!	!
8E\L	X 4	8b\L	16b\LL	4r	.	.	.	.	.	.	.	.	.
.	.	.	16cc\	.	.	.	.	.	.	.	.	.	.
8EE/J	X #	8g#X\J	16dd\	.	.	.	.	.	.	.	.	.	.
.	.	.	16b\JJ	.	.	.	.	.	.	.	.	.	.
=32	=32	=32	=32	=32	=32	=32	=32	=32	=32	=32	=32	=32	=32
!	!	!	!	!LO:TX:a:t=P:problem:w źródle brak tego taktu	!	!	!	!	!	!	!	!	!
4AA/	.	4a/	4cc\	1ryy	.	.	.	.	.	.	.	.	.
4r	.	4r	8r	.	.	.	.	.	.	.	.	.	.
.	.	.	8ee\	.	.	.	.	.	.	.	.	.	.
4AA/	.	4r	16a/LL	.	.	.	.	.	.	.	.	.	.
.	.	.	16e/	.	.	.	.	.	.	.	.	.	.
.	.	.	16f#X/	.	.	.	.	.	.	.	.	.	.
.	.	.	16g#X/JJ	.	.	.	.	.	.	.	.	.	.
8r	.	8r	16a/LL	.	.	.	.	.	.	.	.	.	.
.	.	.	16b/	.	.	.	.	.	.	.	.	.	.
8E\	X #	8ee\	16cc/	.	.	.	.	.	.	.	.	.	.
.	.	.	16g#X/JJ	.	.	.	.	.	.	.	.	.	.
=33	=33	=33	=33	=33	=33	=33	=33	=33	=33	=33	=33	=33	=33
!LO:TX:a:t=P:problem:mixed beam	!	!	!	!	!	!	!	!	!	!	!	!	!
8AA/L	.	16ee\LL	16a\LL	1r	.	.	.	.	.	.	.	.	.
.	.	16a\	16cc\	.	.	.	.	.	.	.	.	.	.
8A\	.	16b\	16dd\	.	.	.	.	.	.	.	.	.	.
.	.	16cc\JJ	16ee\JJ	.	.	.	.	.	.	.	.	.	.
8G\	.	16b\LL	16dd\LL	.	.	.	.	.	.	.	.	.	.
.	.	16cc\	16ee\	.	.	.	.	.	.	.	.	.	.
8B\J	X 6	16dd\	16ff\	.	.	.	.	.	.	.	.	.	.
.	.	16b\JJ	16dd\JJ	.	.	.	.	.	.	.	.	.	.
!	!	!LO:LB:g=original	!LO:LB:g=original	!	!	!	!	!	!	!	!	!	!
!LO:TX:a:t=P:problem:mixed beam	!	!	!	!	!	!	!	!	!	!	!	!	!
8c\L	.	16cc\LL	16ee\LL	.	.	.	.	.	.	.	.	.	.
.	.	16ee\	16gg\	.	.	.	.	.	.	.	.	.	.
8F\	6 5	16ff\	16aa\	.	.	.	.	.	.	.	.	.	.
.	.	16ee\JJ	16bb\JJ	.	.	.	.	.	.	.	.	.	.
8G\	X 4	8dd\L	8.ccc\L	.	.	.	.	.	.	.	.	.	.
8GG/J	7 3	16gg\L	.	.	.	.	.	.	.	.	.	.	.
.	.	16ff\JJ	16bb\Jk	.	.	.	.	.	.	.	.	.	.
=34	=34	=34	=34	=34	=34	=34	=34	=34	=34	=34	=34	=34	=34
!	!	!LO:TX:a:t=P:problem:mixed beam	!	!	!	!	!	!	!	!	!	!	!
4C/	.	8ee\L	8ccc\L	8r	.	00r	.	00r	.	00r	.	00r	00r
.	.	8g/	8ee\	8c\	et	.	.	.	.	.	.	.	.
8r	.	8g/	8ee\	8c\	in-	.	.	.	.	.	.	.	.
8C/	.	8g/J	8ee\J	8c\	-di-	.	.	.	.	.	.	.	.
!LO:LB:g=original	!	!	!	!	!	!	!	!	!	!	!	!	!
4G\	.	4g/	8dd\L	8B\	-vi-	.	.	.	.	.	.	.	.
.	.	.	8dd\	16B\	-du-	.	.	.	.	.	.	.	.
.	.	.	.	16B\	-a(m)	.	.	.	.	.	.	.	.
8r	.	8r	8dd\	8B\	Tri-	.	.	.	.	.	.	.	.
8G\	.	8b 8g\	16gg\L	16c\LL	-ni-	.	.	.	.	.	.	.	.
.	.	.	16ff\JJ	16d\JJ	.	.	.	.	.	.	.	.	.
=35	=35	=35	=35	=35	=35	=35	=35	=35	=35	=35	=35	=35	=35
4C/	.	4g/	8ee\L	8c\	-ta-	.	.	.	.	.	.	.	.
.	.	.	8gg\J	8E\	-te(m)	.	.	.	.	.	.	.	.
4F\	.	4a/	8aa\L	8F\	Tri-	.	.	.	.	.	.	.	.
.	.	.	16ff\L	8A\	-ni-	.	.	.	.	.	.	.	.
.	.	.	16ee\JJ	.	.	.	.	.	.	.	.	.	.
4G\	X 7	4b/	8ff\L	16D\LL	-ta-	.	.	.	.	.	.	.	.
.	.	.	.	16E\	.	.	.	.	.	.	.	.	.
.	.	.	16ee\L	16F\	.	.	.	.	.	.	.	.	.
.	.	.	16ff\J	16G\JJ	.	.	.	.	.	.	.	.	.
8C/L	.	8cc\L	8gg\	16E\LL	.	.	.	.	.	.	.	.	.
.	.	.	.	16G\	.	.	.	.	.	.	.	.	.
8GG/J	X 7	8dd\J	8ff\J	16A\	.	.	.	.	.	.	.	.	.
.	.	.	.	16B\JJ	.	.	.	.	.	.	.	.	.
!	!	!	!	!LO:LB:g=original	!	!	!	!	!	!	!	!	!
=36	=36	=36	=36	=36	=36	=36	=36	=36	=36	=36	=36	=36	=36
!	!	!	!LO:TX:a:t=P:problem:mixed beam	!	!	!	!	!	!	!	!	!	!
4C/	.	8cc'\L	16ee\LL	8c\	.	.	.	.	.	.	.	.	.
.	.	.	16g/	.	.	.	.	.	.	.	.	.	.
.	.	8dd\J	16a/	8C/	-tem	.	.	.	.	.	.	.	.
.	.	.	16b\JJ	.	.	.	.	.	.	.	.	.	.
!LO:TX:a:t=P:problem:mixed beam	!	!	!	!	!	!	!	!	!	!	!	!	!
*	*	*	*	*	*ij	*	*	*	*	*	*	*	*
8C/L	.	16ee\LL	16cc\LL	8c\	Tri-	.	.	.	.	.	.	.	.
.	.	16cc\	16ee\	.	.	.	.	.	.	.	.	.	.
8G\J	.	16gg\	16dd\	8B\	-ni-	.	.	.	.	.	.	.	.
.	.	16dd\JJ	16gg\JJ	.	.	.	.	.	.	.	.	.	.
8C\L	.	16gg\LL	16ee\LL	8c\	-ta-	.	.	.	.	.	.	.	.
.	.	16ee\	16gg\	.	.	.	.	.	.	.	.	.	.
8G\J	.	16gg\	16dd\	8G\	-tem	.	.	.	.	.	.	.	.
*	*	*	*	*	*Xij	*	*	*	*	*	*	*	*
.	.	16dd\JJ	16gg\JJ	.	.	.	.	.	.	.	.	.	.
8A\L	.	16ee\LL	16cc\LL	8A\	San-	.	.	.	.	.	.	.	.
.	.	16cc\	16ee\	.	.	.	.	.	.	.	.	.	.
8E\J	X #	16ee\	16b\	8G#X\	-cta(m)	.	.	.	.	.	.	.	.
.	.	16b\JJ	16ee\JJ	.	.	.	.	.	.	.	.	.	.
=37	=37	=37	=37	=37	=37	=37	=37	=37	=37	=37	=37	=37	=37
*	*	*	*	*	*ij	*	*	*	*	*	*	*	*
8A\L	.	16ee\LL	16cc\LL	8A\	San-	.	.	.	.	.	.	.	.
.	.	16cc\	16ee\	.	.	.	.	.	.	.	.	.	.
8G#X\	X 6	16ee\	16b\	8E\	-ctam	.	.	.	.	.	.	.	.
*	*	*	*	*	*Xij	*	*	*	*	*	*	*	*
.	.	16b\JJ	16ee\JJ	.	.	.	.	.	.	.	.	.	.
8A\	.	8ee\L	8cc\L	8A\	et	.	.	.	.	.	.	.	.
8E\J	X #	8cc\J	8ee\J	16G#X\	in-	.	.	.	.	.	.	.	.
.	.	.	.	16B\	-di-	.	.	.	.	.	.	.	.
!LO:TX:a:t=P:problem:mixed beam	!	!	!	!	!	!	!	!	!	!	!	!	!
8F\L	6 5	8cc\L	8ee\L	8A\	-vi-	.	.	.	.	.	.	.	.
8D\	.	8cc\J	8aa\J	16B\	-du-	.	.	.	.	.	.	.	.
!	!	!	!LO:LB:g=original	!	!	!	!	!	!	!	!	!	!
.	.	.	.	16c\	-a(m)	.	.	.	.	.	.	.	.
8E\	X 4	8ee\L	8bb\LL	8G#X\	Tri-	.	.	.	.	.	.	.	.
!	!	!LO:TX:a:t=P:problem:nad kreską taktową adnotacja: "X"	!	!	!	!	!	!	!	!	!	!	!
8EE/J	7 #	8ee\J	16aa\	16F#X\LL	-ni-	.	.	.	.	.	.	.	.
.	.	.	16bb\JJ	16G#\JJ	.	.	.	.	.	.	.	.	.
=38	=38	=38	=38	=38	=38	=38	=38	=38	=38	=38	=38	=38	=38
4AA/	.	8ee\L	8ccc\L	8A\	-ta-	0r	.	0r	.	0r	.	0r	0r
.	.	8cc\J	8ee\J	8AA/	-te(m)	.	.	.	.	.	.	.	.
4r	.	8cc\L	8ee\L	8A\	Tri-	.	.	.	.	.	.	.	.
.	.	16b\L	8aa\J	16G#X\LL	-ni-	.	.	.	.	.	.	.	.
.	.	16a\JJ	.	16F\JJ	.	.	.	.	.	.	.	.	.
!	!	!LO:LB:g=original	!	!	!	!	!	!	!	!	!	!	!
!LO:TX:a:t=P:problem:mixed beam	!	!	!	!	!	!	!	!	!	!	!	!	!
8E\L	.	8b\L	8gg#X\L	16E\LL	-ta-	.	.	.	.	.	.	.	.
.	.	.	.	16D\	.	.	.	.	.	.	.	.	.
8D\	.	8cc\J	8aa\	16C\	.	.	.	.	.	.	.	.	.
.	.	.	.	16D\JJ	.	.	.	.	.	.	.	.	.
8E\	X 4	8b\L	8aa\	4E\	.	.	.	.	.	.	.	.	.
8EE/J	7 #	8b\J	8gg#X\J	.	.	.	.	.	.	.	.	.	.
=39	=39	=39	=39	=39	=39	=39	=39	=39	=39	=39	=39	=39	=39
4AA/	.	8cc\	16aa\LL	4AA/	-tem.	.	.	.	.	.	.	.	.
.	.	.	16ee\	.	.	.	.	.	.	.	.	.	.
.	.	16r	16ff#X\	.	.	.	.	.	.	.	.	.	.
.	.	16ee\	16gg#X\JJ	.	.	.	.	.	.	.	.	.	.
8r	.	16ff#X\LL	16aa\LL	4r	.	.	.	.	.	.	.	.	.
.	.	16gg#X\	16bb\	.	.	.	.	.	.	.	.	.	.
8E\	X #	16aa\	16ccc\	.	.	.	.	.	.	.	.	.	.
.	.	16bb\JJ	16gg#X\JJ	.	.	.	.	.	.	.	.	.	.
4A\	.	16ccc\LL	16aa\LL	2r	.	.	.	.	.	.	.	.	.
.	.	16a\	16cc\	.	.	.	.	.	.	.	.	.	.
.	.	16b\	16dd\	.	.	.	.	.	.	.	.	.	.
.	.	16cc\JJ	16ee\JJ	.	.	.	.	.	.	.	.	.	.
8r	.	16b\LL	16dd\LL	.	.	.	.	.	.	.	.	.	.
.	.	16cc\	16ee\	.	.	.	.	.	.	.	.	.	.
8G\	X 6	16dd\	16ff#\	.	.	.	.	.	.	.	.	.	.
.	.	16b\JJ	16dd\JJ	.	.	.	.	.	.	.	.	.	.
!	!	!	!	!LO:PB:g=original	!	!	!	!	!	!	!	!	!
=40	=40	=40	=40	=40	=40	=40	=40	=40	=40	=40	=40	=40	=40
!	!	!	!	!	!	!	!	!LO:TX:a:t=P:problem:w źródle pojedyncza kreska taktowa za tym taktem	!	!	!	!	!
8C/L	.	16cc\LL	8ee\L	1r	.	1r	.	1r	.	1r	.	1r	1r
.	.	16ee\	.	.	.	.	.	.	.	.	.	.	.
8AA/J	.	16dd\	8aa\J	.	.	.	.	.	.	.	.	.	.
.	.	16ee\JJ	.	.	.	.	.	.	.	.	.	.	.
8E\L	X #	8b\L	16gg#X\LL	.	.	.	.	.	.	.	.	.	.
.	.	.	16ff#X\	.	.	.	.	.	.	.	.	.	.
8F\J	X 6	8dd\J	16ee\	.	.	.	.	.	.	.	.	.	.
.	.	.	16dd\JJ	.	.	.	.	.	.	.	.	.	.
8D/L	6 5	8ee\L	8cc\L	.	.	.	.	.	.	.	.	.	.
8BB/J	.	16dd\L	16dd\L	.	.	.	.	.	.	.	.	.	.
.	.	16cc\JJ	16ee\JJ	.	.	.	.	.	.	.	.	.	.
!LO:LB:g=original	!	!	!	!	!	!	!	!	!	!	!	!	!
!LO:TX:a:t=P:problem:mixed beam	!	!	!	!	!	!	!	!	!	!	!	!	!
8E\L	X 4	8ee\L	16cc\LL	.	.	.	.	.	.	.	.	.	.
.	.	.	16aa\	.	.	.	.	.	.	.	.	.	.
!	!	!	!	!	!	!LO:TX:a:t=P:problem:w źródle "v" zapisane pod pauzą, na pięciolinii	!	!	!	!	!	!	!
!	!	!	!	!	!	!LO:TX:b:t=v	!	!	!	!	!	!	!
8EE/J	X #	16ee\L	16b\	.	.	.	.	.	.	.	.	.	.
.	.	16dd\JJ	16gg#X\JJ	.	.	.	.	.	.	.	.	.	.
!	!	!	!LO:LB:g=original	!	!	!	!	!	!	!LO:LB:g=original	!	!	!
=41||	=41||	=41||	=41||	=41||	=41||	=41||	=41||	=41||	=41||	=41||	=41||	=41||	=41||
*M3/4	*	*M3/4	*M3/4	*M3/4	*	*M3/4	*	*M3/4	*	*M3/4	*	*M3/4	*M3/4
!LO:TX:a:t=P:problem:mixed beam	!	!	!	!	!	!	!	!	!	!	!	!	!
!	!	!	!	!LO:TX:a:t=P:problem:w źródle "Toto Corde \nTacet" zapisane na pięciolinii	!	!	!	!	!	!	!	!	!
!LO:TX:b:i:t=Adagio	!	!LO:TX:b:i:t=Toto Corde Adagio.	!LO:TX:b:i:t=Toto Corde Solo.	!LO:TX:a:t=Toto Corde \nTacet	!	!LO:SIC:t: v3 cant(o) 22 clar(ini)	!	!	!	!LO:TX:a:i:t=Solo.	!	!	!LO:N:vis=00
!	!	!	!	!	!	!	!	!	!	!	!	!LO:N:vis=00	!
!	!	!	!	!	!	!LO:N:vis=00	!	!LO:N:vis=00	!	!LO:N:vis=0	!	!	!
8AA/L	.	8cc\L	8aa\L	2.ryy	.	0.r	.	0.r	.	1.r	.	0.r	0.r
8c'>\	X 6	8a\|	8ee\|	.	.	.	.	.	.	.	.	.	.
8c'>\	.	8a\|	8ee\|	.	.	.	.	.	.	.	.	.	.
8c'>\	.	8a\|	8ee\|	.	.	.	.	.	.	.	.	.	.
8c'>\	.	8a\|	8ee\|	.	.	.	.	.	.	.	.	.	.
8c'>\J	.	8a\J|	8ee\J|	.	.	.	.	.	.	.	.	.	.
=42	=42	=42	=42	=42	=42	=42	=42	=42	=42	=42	=42	=42	=42
8d'\L	.	8a\L|	8ff\L|	2.ryy	.	.	.	.	.	.	.	.	.
8c'\	X 6	8a\|	8ee\|	.	.	.	.	.	.	.	.	.	.
8c'\	.	8a\|	8ee\|	.	.	.	.	.	.	.	.	.	.
8c'\	.	8a\|	8ee\|	.	.	.	.	.	.	.	.	.	.
8c'\	.	8a\|	8ee\|	.	.	.	.	.	.	.	.	.	.
8c'\J	.	8a\J|	8ee\J|	.	.	.	.	.	.	.	.	.	.
!	!	!LO:LB:g=original	!	!	!	!	!	!	!	!	!	!	!
=43	=43	=43	=43	=43	=43	=43	=43	=43	=43	=43	=43	=43	=43
8c'\L	.	8a/L|	8ee\L|	2.ryy	.	.	.	.	.	2.r	.	.	.
8B'\	X 7	8a/|	8dd\|	.	.	.	.	.	.	.	.	.	.
8B'\	.	8a/|	8dd\|	.	.	.	.	.	.	.	.	.	.
8B'\	X 6	8g#X/|	8dd\|	.	.	.	.	.	.	.	.	.	.
8B'\	.	8g#/|	8ee\|	.	.	.	.	.	.	.	.	.	.
8B'\J	.	8g#/J|	8b\J|	.	.	.	.	.	.	.	.	.	.
=44	=44	=44	=44	=44	=44	=44	=44	=44	=44	=44	=44	=44	=44
!LO:TX:b:i:t=Canto Solo	!	!	!LO:TX:a:t=P:problem:mixed beam	!	!	!	!	!	!	!	!	!	!
4A\	.	8a/L|	8cc\L|	2.ryy	.	.	.	.	.	4r	.	.	.
.	.	8A/|	8A/|	.	.	.	.	.	.	.	.	.	.
4r	.	8A/|	8A/|	.	.	.	.	.	.	4ee\	To-	.	.
.	.	8A/|	8A/|	.	.	.	.	.	.	.	.	.	.
4r	.	8A/|	8A/|	.	.	.	.	.	.	4a\	-to	.	.
.	.	8a/J|	8a/J|	.	.	.	.	.	.	.	.	.	.
=45-	=45-	=45	=45	=45	=45	=45	=45	=45	=45	=45	=45	=45	=45
!	!	!	!	!	!	!	!	!	!	!	!	!LO:N:vis=00	!LO:N:vis=00
!	!	!	!	!	!	!LO:N:vis=00	!	!LO:N:vis=00	!	!	!	!	!
2.r	.	8g#X/L|	8g#X/L|	2.ryy	.	0.r	.	0.r	.	4b\	Cor-	0.r	0.r
.	.	8f#X/|	8f#X/|	.	.	.	.	.	.	.	.	.	.
.	.	8g#/|	8g#/|	.	.	.	.	.	.	4cc\	-de	.	.
.	.	8e/|	8e/|	.	.	.	.	.	.	.	.	.	.
.	.	8f#/|	8f#/|	.	.	.	.	.	.	4dd\	et	.	.
.	.	8g#/J|	8g#/J|	.	.	.	.	.	.	.	.	.	.
=46	=46	=46	=46	=46	=46	=46	=46	=46	=46	=46	=46	=46	=46
!	!	!	!LO:TX:a:t=P:problem:mixed beam	!	!	!	!	!	!	!	!	!	!
8r	.	8a\L|	8a/L|	2.ryy	.	.	.	.	.	4cc\	O-	.	.
8A\L	.	8a\|	8ee\|	.	.	.	.	.	.	.	.	.	.
8c'\	X 6	8a\|	8ee\|	.	.	.	.	.	.	4a\	-re	.	.
8c'\	.	8a\|	8ee\|	.	.	.	.	.	.	.	.	.	.
8c'\	.	8a\|	8ee\|	.	.	.	.	.	.	4r	.	.	.
8c'\J	.	8a\J|	8aa\J|	.	.	.	.	.	.	.	.	.	.
=47	=47	=47	=47	=47	=47	=47	=47	=47	=47	=47-	=47	=47	=47
!	!	!	!	!	!	!	!	!	!	!LO:N:vis=0	!	!	!
8d'\L	.	8a\L|	8ff\L|	2.ryy	.	.	.	.	.	1.r	.	.	.
8c'\	X 6	8a\|	8ee\|	.	.	.	.	.	.	.	.	.	.
8c'\	.	8a\|	8ee\|	.	.	.	.	.	.	.	.	.	.
8c'\	.	8a\|	8ee\|	.	.	.	.	.	.	.	.	.	.
8c'\	.	8a\|	8ee\|	.	.	.	.	.	.	.	.	.	.
8c'\J	.	8a\J|	16ff\L	.	.	.	.	.	.	.	.	.	.
.	.	.	16ee\JJ	.	.	.	.	.	.	.	.	.	.
!	!	!	!LO:LB:g=original	!	!	!	!	!	!	!	!	!	!
=48	=48	=48	=48	=48	=48	=48	=48	=48	=48	=48	=48	=48	=48
8c'\L	.	8a/L|	8ee\L|	2.ryy	.	.	.	.	.	.	.	.	.
8B'\	X 7	8a/|	8dd\|	.	.	.	.	.	.	.	.	.	.
8B'\	.	8a/|	8dd\|	.	.	.	.	.	.	.	.	.	.
8B'\J	X 6	8g#X/|	8dd\|	.	.	.	.	.	.	.	.	.	.
!LO:LB:g=original	!	!	!	!	!	!	!	!	!	!	!	!	!
8G#X'\L	X 6	8g#/|	8ee\|	.	.	.	.	.	.	.	.	.	.
8E'\J	X 7	8g#/J|	8dd\J|	.	.	.	.	.	.	.	.	.	.
!	!	!LO:LB:g=original	!	!	!	!	!	!	!	!	!	!	!
=49	=49	=49	=49	=49	=49	=49	=49	=49	=49	=49	=49	=49	=49
!	!	!	!LO:TX:a:t=P:problem:mixed beam	!	!	!	!	!	!	!	!	!LO:N:vis=00	!LO:N:vis=00
!	!	!	!	!	!	!LO:N:vis=00	!	!LO:N:vis=00	!	!	!	!	!
4AA/	.	8a/L|	8cc\L|	2.ryy	.	0.r	.	0.r	.	4r	.	0.r	0.r
.	.	8A/|	8A/|	.	.	.	.	.	.	.	.	.	.
*	*	*	*	*	*	*	*	*	*	*	*ij	*	*
4r	.	8A/|	8A/|	.	.	.	.	.	.	4ee\	To-	.	.
.	.	8A/|	8A/|	.	.	.	.	.	.	.	.	.	.
4r	.	8A/|	8A/|	.	.	.	.	.	.	4a\	-to	.	.
.	.	8a/J|	8a/J	.	.	.	.	.	.	.	.	.	.
=50	=50	=50	=50	=50	=50	=50	=50	=50	=50	=50	=50	=50	=50
2.r	.	8g#X/L|	8g#X/L|	2.ryy	.	.	.	.	.	4b\	Cor-	.	.
.	.	8f#X/|	8f#X/|	.	.	.	.	.	.	.	.	.	.
.	.	8g#/|	8g#/|	.	.	.	.	.	.	4cc\	-de	.	.
.	.	8e/|	8e/|	.	.	.	.	.	.	.	.	.	.
.	.	8f#/|	8f#/|	.	.	.	.	.	.	4dd\	et	.	.
.	.	8g#/J|	8g#/J|	.	.	.	.	.	.	.	.	.	.
=51	=51	=51	=51	=51	=51	=51	=51	=51	=51	=51	=51	=51	=51
4r	.	8a/L|	8a/L|	2.ryy	.	.	.	.	.	4cc\	O-	.	.
.	.	8e/|	8e/|	.	.	.	.	.	.	.	.	.	.
4r	.	8c/|	8c/|	.	.	.	.	.	.	4a\	-re	.	.
*	*	*	*	*	*	*	*	*	*	*	*Xij	*	*
.	.	8e/J|	8e/J|	.	.	.	.	.	.	.	.	.	.
4A\	.	4A/	4A/	.	.	.	.	.	.	4cc\	et	.	.
=52	=52	=52	=52	=52	=52	=52	=52	=52	=52	=52	=52	=52	=52
!	!	!LO:N:vis=00	!LO:TX:a:t=1	!	!	!	!	!	!	!	!	!	!
4E\	X #	0.r	2.r	2.ryy	.	.	.	.	.	8b\L	O-	.	.
.	.	.	.	.	.	.	.	.	.	8cc\	.	.	.
4F#X\	.	.	.	.	.	.	.	.	.	8b\	.	.	.
.	.	.	.	.	.	.	.	.	.	8cc\J	.	.	.
4G#X\	6 5	.	.	.	.	.	.	.	.	4dd\	.	.	.
!	!	!	!LO:TX:b:i:t=Vertat[?] Citiſsime.	!	!	!	!	!	!	!	!	!	!
!	!	!	!LO:PB:g=original	!	!	!	!	!	!	!LO:LB:g=original	!	!	!
=53	=53	=53	=53	=53	=53	=53	=53	=53	=53	=53	=53	=53	=53
!	!	!	!	!	!	!	!	!	!	!	!	!LO:N:vis=00	!LO:N:vis=00
!	!	!	!	!	!	!LO:N:vis=00	!	!LO:N:vis=00	!	!	!	!	!
8A\L	.	.	4r	2.ryy	.	0.r	.	0.r	.	4cc\	.	0.r	0.r
8B\	.	.	.	.	.	.	.	.	.	.	.	.	.
8c\	.	.	4r	.	.	.	.	.	.	4a\	-re	.	.
8B\J	.	.	.	.	.	.	.	.	.	.	.	.	.
!	!	!	!LO:TX:i:b:t=Piano	!	!	!	!	!	!	!	!	!	!
!	!	!	!LO:TX:a:i:t=Sollo.	!	!	!	!	!	!	!	!	!	!
4A\	.	.	4a/	.	.	.	.	.	.	4cc\	et	.	.
=54	=54	=54	=54	=54	=54	=54	=54	=54	=54	=54	=54	=54	=54
4G\	.	.	8b\L	2.ryy	.	.	.	.	.	8dd\L	O-	.	.
.	.	.	8cc\	.	.	.	.	.	.	8ee\	.	.	.
4A\	.	.	8b\	.	.	.	.	.	.	8dd\	.	.	.
.	.	.	8cc\J	.	.	.	.	.	.	8ee\J	.	.	.
4B\	6 5	.	4dd\	.	.	.	.	.	.	4ff\	.	.	.
=55	=55	=55	=55	=55	=55	=55	=55	=55	=55	=55	=55	=55	=55
8C/L	.	.	4cc\	2.ryy	.	.	.	.	.	4ee\	.	.	.
8D/	.	.	.	.	.	.	.	.	.	.	.	.	.
8E/	X 6	.	4ee\	.	.	.	.	.	.	4cc\	-re	.	.
8D/	.	.	.	.	.	.	.	.	.	.	.	.	.
8E/	.	.	4cc\	.	.	.	.	.	.	4g\	et	.	.
8C/J	.	.	.	.	.	.	.	.	.	.	.	.	.
=56	=56	=56	=56	=56	=56	=56	=56	=56	=56	=56	=56	=56	=56
!	!	!LO:N:vis=00	!	!	!	!	!	!	!	!	!	!	!
4F\	.	0.r	8cc\L	2.ryy	.	.	.	.	.	16a\LL	O-	.	.
.	.	.	.	.	.	.	.	.	.	16g\	.	.	.
.	.	.	8cc\	.	.	.	.	.	.	16a\	.	.	.
.	.	.	.	.	.	.	.	.	.	16b\JJ	.	.	.
4r	.	.	8cc\	.	.	.	.	.	.	16a\LL	.	.	.
.	.	.	.	.	.	.	.	.	.	16b\	.	.	.
.	.	.	8cc\J	.	.	.	.	.	.	16cc\	.	.	.
.	.	.	.	.	.	.	.	.	.	16dd\JJ	.	.	.
4G\	.	.	8dd\L	.	.	.	.	.	.	16b\LL	.	.	.
.	.	.	.	.	.	.	.	.	.	16cc\	.	.	.
.	.	.	8b\J	.	.	.	.	.	.	16dd\	.	.	.
.	.	.	.	.	.	.	.	.	.	16ee\JJ	.	.	.
=57	=57	=57	=57	=57	=57	=57	=57	=57	=57	=57	=57	=57	=57
!	!	!	!	!	!	!	!	!	!	!	!	!LO:N:vis=00	!LO:N:vis=00
!	!	!	!	!	!	!LO:N:vis=00	!	!LO:N:vis=00	!	!	!	!	!
4A\	.	.	16a\LL	2.ryy	.	0.r	.	0.r	.	16cc\LL	.	0.r	0.r
.	.	.	16g\	.	.	.	.	.	.	16b\	.	.	.
.	.	.	16a\	.	.	.	.	.	.	16cc\	.	.	.
.	.	.	16b\JJ	.	.	.	.	.	.	16dd\JJ	.	.	.
4r	.	.	16a/LL	.	.	.	.	.	.	16cc\LL	.	.	.
.	.	.	16b/	.	.	.	.	.	.	16dd\	.	.	.
.	.	.	16cc/	.	.	.	.	.	.	16ee\	.	.	.
.	.	.	16dd/JJ	.	.	.	.	.	.	16ff\JJ	.	.	.
4G\	.	.	16b\LL	.	.	.	.	.	.	16dd\LL	.	.	.
.	.	.	16cc\	.	.	.	.	.	.	16ee\	.	.	.
.	.	.	16dd\	.	.	.	.	.	.	16ff\	.	.	.
.	.	.	16ee\JJ	.	.	.	.	.	.	16gg\JJ	.	.	.
=58	=58	=58	=58	=58	=58	=58	=58	=58	=58	=58	=58	=58	=58
8C/L	.	.	16cc\LL	2.ryy	.	.	.	.	.	4ee\	.	.	.
.	.	.	16b\	.	.	.	.	.	.	.	.	.	.
8D/	.	.	16cc\	.	.	.	.	.	.	.	.	.	.
.	.	.	16dd\JJ	.	.	.	.	.	.	.	.	.	.
8E/	X 6	.	16ee\LL	.	.	.	.	.	.	4cc\	-re	.	.
.	.	.	16dd\	.	.	.	.	.	.	.	.	.	.
8D/	.	.	16ee\	.	.	.	.	.	.	.	.	.	.
.	.	.	16ff\JJ	.	.	.	.	.	.	.	.	.	.
8C/	.	.	4ee\	.	.	.	.	.	.	4gg\	et	.	.
8E/J	X 6	.	.	.	.	.	.	.	.	.	.	.	.
!LO:LB:g=original	!	!	!	!	!	!	!	!	!	!	!	!	!
=59	=59	=59	=59	=59	=59	=59	=59	=59	=59	=59	=59	=59	=59
4F\	.	.	4cc\	2.ryy	.	.	.	.	.	(>4a\	O-	.	.
4r	.	.	4r	.	.	.	.	.	.	4b\)	.	.	.
4E\	X 6	.	4a/	.	.	.	.	.	.	4cc\	-re	.	.
!	!	!	!	!	!	!	!	!	!	!LO:LB:g=original	!	!	!
=60	=60	=60	=60	=60	=60	=60	=60	=60	=60	=60	=60	=60	=60
!	!	!LO:N:vis=00	!	!	!	!	!	!	!	!	!	!	!
4D\	X 7	0.r	8b\L	2.ryy	.	.	.	.	.	8dd\L	Con-	.	.
.	.	.	8cc\	.	.	.	.	.	.	8ee\	.	.	.
4r	.	.	8dd\	.	.	.	.	.	.	8ff\	.	.	.
.	.	.	8cc\J	.	.	.	.	.	.	8ee\J	.	.	.
4F\	X 6	.	8b\L	.	.	.	.	.	.	(8dd\L	-fi-	.	.
.	.	.	8ee\J	.	.	.	.	.	.	8cc\J)	.	.	.
!	!	!	!LO:LB:g=original	!	!	!	!	!	!	!	!	!	!
=61	=61	=61	=61	=61	=61	=61	=61	=61	=61	=61	=61	=61	=61
!LO:TX:a:t=P:problem:mixed beam	!	!	!	!	!	!	!	!	!	!	!	!	!
!	!	!	!	!	!	!LO:N:vis=00	!	!LO:N:vis=00	!	!	!	!	!
8G\L	.	.	8dd\L	2.ryy	.	0.r	.	0.r	.	16b\LL	-te-	2.r	2.r
.	.	.	.	.	.	.	.	.	.	16gg\	.	.	.
8BB/	X 6	.	8b\	.	.	.	.	.	.	16ff\	.	.	.
.	.	.	.	.	.	.	.	.	.	16gg\JJ	.	.	.
8C/	.	.	8cc\	.	.	.	.	.	.	16ee\LL	.	.	.
.	.	.	.	.	.	.	.	.	.	16dd\	.	.	.
8F/J	6 5	.	8aa\J	.	.	.	.	.	.	16cc\	.	.	.
.	.	.	.	.	.	.	.	.	.	16dd\JJ	.	.	.
!LO:TX:a:t=P:problem:mixed beam	!	!	!	!	!	!	!	!	!	!	!	!	!
8G\L	X 4	.	8dd\L	.	.	.	.	.	.	8g\L	.	.	.
8GG/J	7 3	.	16gg\L	.	.	.	.	.	.	8b\J	.	.	.
.	.	.	16ff\JJ	.	.	.	.	.	.	.	.	.	.
=62	=62	=62	=62	=62	=62	=62	=62	=62	=62	=62	=62	=62	=62
!LO:TX:b:i:t=Clarin.	!	!	!	!	!	!	!	!	!	!	!	!	!LO:TX:b:i:t=Solo
4C/	.	.	4ee\	2.ryy	.	.	.	.	.	4cc\	-mur.	4r	4r
4r	.	.	4r	.	.	.	.	.	.	4r	.	4ee\	4gg\
4C/	.	.	4r	.	.	.	.	.	.	4r	.	4e/	4cc\
!	!	!	!	!	!	!	!	!	!	!	!	!	!LO:LB:g=original
=63	=63	=63	=63	=63	=63	=63	=63	=63	=63	=63-	=63	=63	=63
!	!	!	!	!	!	!	!	!	!	!LO:TX:b:i:t=clar	!	!	!
!	!	!	!LO:N:vis=00	!	!	!	!	!	!	!LO:TX:a:t=35..	!	!	!
!	!	!	!	!	!	!	!	!	!	!LO:N:vis=00	!	!	!
4F\	.	.	0.r	2.ryy	.	.	.	.	.	0.r	.	8ff\L	8aa\L
.	.	.	.	.	.	.	.	.	.	.	.	8ee\J	8gg\
!	!	!	!	!	!	!	!	!	!	!	!	!LO:LB:g=original	!
4r	.	.	.	.	.	.	.	.	.	.	.	8dd\L	8ff\
.	.	.	.	.	.	.	.	.	.	.	.	8cc\J	8ee\
4F\	.	.	.	.	.	.	.	.	.	.	.	8g/L	8dd\
.	.	.	.	.	.	.	.	.	.	.	.	8e/J	8cc\J
=64	=64	=64	=64	=64	=64	=64	=64	=64	=64	=64	=64	=64	=64
!LO:TX:a:t=P:problem:mixed beam	!	!	!	!	!	!	!	!	!	!	!	!LO:TX:a:t=P:problem:mixed beam	!
!	!	!LO:N:vis=00	!	!	!	!	!	!	!	!	!	!	!
8G\L	.	0.r	.	2.ryy	.	.	.	.	.	.	.	8g/L	8dd\L
8F\	.	.	.	.	.	.	.	.	.	.	.	8e/	8cc\
8E\	.	.	.	.	.	.	.	.	.	.	.	8g/	8dd\
8F\	.	.	.	.	.	.	.	.	.	.	.	8cc\J	8ee\
!	!	!	!	!	!	!	!	!	!	!	!	!LO:TX:a:t=P:problem:mixed beam	!
8G\	.	.	.	.	.	.	.	.	.	.	.	8dd\L	8ff\
8GG/J	.	.	.	.	.	.	.	.	.	.	.	8g/J	16ee\L
.	.	.	.	.	.	.	.	.	.	.	.	.	16dd\JJ
=65	=65	=65	=65	=65	=65	=65	=65	=65	=65	=65	=65	=65	=65
!LO:TX:a:t=P:problem:tt. 65-67 zapisane na doklejonym kawałku papieru	!	!	!	!	!	!	!	!	!	!	!	!	!
!LO:TX:b:i:t=alt.	!	!	!	!	!	!LO:N:vis=00	!	!LO:TX:a:i:t=Solo.	!	!	!	!	!
4C/	.	.	.	2.ryy	.	0.r	.	4r	.	.	.	4e/	4cc\
4C/	.	.	.	.	.	.	.	4g\	to-	.	.	4r	4r
4F\	.	.	.	.	.	.	.	4a\	-to	.	.	4r	4r
=66	=66	=66	=66	=66	=66	=66	=66	=66	=66	=66	=66	=66	=66-
!	!	!	!	!	!	!	!	!	!	!	!	!	!LO:N:vis=1
4C/	.	.	.	2.ryy	.	.	.	8g\L	Cor-	.	.	2.r	2.r
.	.	.	.	.	.	.	.	8f\J	.	.	.	.	.
4E\	.	.	.	.	.	.	.	8e\L	-de	.	.	.	.
.	.	.	.	.	.	.	.	8f\J	.	.	.	.	.
4F\	.	.	.	.	.	.	.	8g\L	et	.	.	.	.
.	.	.	.	.	.	.	.	16f\L	.	.	.	.	.
.	.	.	.	.	.	.	.	16e\JJ	.	.	.	.	.
=67	=67	=67	=67	=67	=67	=67	=67	=67	=67	=67	=67	=67	=67
!	!	!	!LO:N:vis=00	!	!	!	!	!	!	!LO:N:vis=00	!	!	!
4G\	.	.	0.r	2.ryy	.	.	.	4d\	O-	0.r	.	8r	8r
.	.	.	.	.	.	.	.	.	.	.	.	8g/L	8dd\L
4r	.	.	.	.	.	.	.	4d\	-re	.	.	8g/	8dd\
.	.	.	.	.	.	.	.	.	.	.	.	8g/	8dd\
4G\	.	.	.	.	.	.	.	4r	.	.	.	8g/	8dd\
.	.	.	.	.	.	.	.	.	.	.	.	8cc/J	8ee\J
=68	=68	=68	=68	=68	=68	=68	=68	=68	=68	=68	=68	=68	=68
!	!	!LO:N:vis=00	!	!	!	!	!	!	!	!	!	!	!
4D/	.	0.r	.	2.ryy	.	.	.	2.r	.	.	.	8dd\L	8ff\L
.	.	.	.	.	.	.	.	.	.	.	.	8dd\	8ff\
4BB/	X 5	.	.	.	.	.	.	.	.	.	.	8dd\	8ff\
.	.	.	.	.	.	.	.	.	.	.	.	8dd\	8ff\
!	!	!	!	!	!	!	!	!	!	!	!	!LO:SIC:s=8dd	!
4GG/	X 7	.	.	.	.	.	.	.	.	.	.	8ee\	8ff\
.	.	.	.	.	.	.	.	.	.	.	.	8dd\J	16gg\L
.	.	.	.	.	.	.	.	.	.	.	.	.	16ff\JJ
=69	=69	=69	=69	=69	=69	=69	=69	=69	=69	=69	=69	=69	=69
!	!	!	!	!	!	!LO:N:vis=00	!	!	!	!	!	!	!
2C/	.	.	.	2.ryy	.	0.r	.	4r	.	.	.	4cc\	4ee\
*	*	*	*	*	*	*	*	*	*ij	*	*	*	*
.	.	.	.	.	.	.	.	4g\	to-	.	.	4e/	4cc\
4FF/	.	.	.	.	.	.	.	4a\	-to	.	.	4r	4r
=70	=70	=70	=70	=70	=70	=70	=70	=70	=70	=70	=70	=70	=70-
!	!	!	!	!	!	!	!	!	!	!	!	!LO:N:vis=0	!LO:N:vis=0
4C/	.	.	.	2.ryy	.	.	.	(>8g\L	Cor-	.	.	1.r	1.r
.	.	.	.	.	.	.	.	8f\)	.	.	.	.	.
4E\	X 6	.	.	.	.	.	.	(>8e\	-de	.	.	.	.
.	.	.	.	.	.	.	.	8f\J)	.	.	.	.	.
4F\	6 5	.	.	.	.	.	.	8g\L	et	.	.	.	.
.	.	.	.	.	.	.	.	16f\L	.	.	.	.	.
.	.	.	.	.	.	.	.	16e\JJ	.	.	.	.	.
!LO:PB:g=original	!	!	!	!	!	!	!	!	!	!	!	!	!
=71	=71	=71	=71	=71	=71	=71	=71	=71	=71	=71	=71	=71	=71
!	!	!	!LO:N:vis=00	!	!	!	!	!	!	!LO:N:vis=00	!	!	!
4G\	.	.	0.r	2.ryy	.	.	.	4d\	O-	0.r	.	.	.
4G\	.	.	.	.	.	.	.	4d\	-re	.	.	.	.
*	*	*	*	*	*	*	*	*	*Xij	*	*	*	*
4G\	.	.	.	.	.	.	.	8d\L	et	.	.	.	.
.	.	.	.	.	.	.	.	8e\J	.	.	.	.	.
!	!	!	!	!	!	!	!	!LO:LB:g=original	!	!	!	!	!
=72	=72	=72	=72	=72	=72	=72	=72	=72	=72	=72	=72	=72	=72
!	!	!LO:N:vis=00	!	!	!	!	!	!	!	!	!	!	!
4A\	X 6	0.r	.	2.ryy	.	.	.	8f\L	o-	.	.	2.r	2.r
.	.	.	.	.	.	.	.	8e\	.	.	.	.	.
4AA/	.	.	.	.	.	.	.	8f\	.	.	.	.	.
.	.	.	.	.	.	.	.	8g\	.	.	.	.	.
4BB/	6 5	.	.	.	.	.	.	8f\	.	.	.	.	.
.	.	.	.	.	.	.	.	8g\J	.	.	.	.	.
!	!	!	!	!	!	!	!	!	!	!	!	!LO:LB:g=original	!
=73	=73	=73	=73	=73	=73	=73	=73	=73	=73	=73	=73	=73	=73
!	!	!	!	!	!	!LO:N:vis=00	!	!	!	!	!	!	!
2C/	.	.	.	2.ryy	.	0.r	.	4e\	.	.	.	8r	8r
.	.	.	.	.	.	.	.	.	.	.	.	8ee\L	8gg\L
.	.	.	.	.	.	.	.	4c\	-re	.	.	8ee\	8gg\
.	.	.	.	.	.	.	.	.	.	.	.	8ee\	8gg\
4r	.	.	.	.	.	.	.	4r	.	.	.	8ee\	8gg\
.	.	.	.	.	.	.	.	.	.	.	.	8ee\J	8gg\J
!	!	!	!	!	!	!	!	!	!	!	!	!	!LO:LB:g=original
=74	=74	=74	=74	=74	=74	=74	=74	=74-	=74	=74	=74	=74	=74
4D\	.	.	.	2.ryy	.	.	.	2.r	.	.	.	8ff\L	8aa\L
.	.	.	.	.	.	.	.	.	.	.	.	8dd\	8ff\
4G\	.	.	.	.	.	.	.	.	.	.	.	8dd\	8ff\
.	.	.	.	.	.	.	.	.	.	.	.	8dd\	8ff\
4GG/	.	.	.	.	.	.	.	.	.	.	.	8ee\	8gg\
.	.	.	.	.	.	.	.	.	.	.	.	8dd\J	8ff\J
=75	=75	=75	=75	=75	=75	=75	=75	=75	=75	=75	=75	=75	=75
!	!	!	!LO:N:vis=00	!	!	!	!	!	!	!LO:N:vis=00	!	!	!
4C/	.	.	0.r	2.ryy	.	.	.	4r	.	0.r	.	4cc\	4ee\
4r	.	.	.	.	.	.	.	4e\	to-	.	.	4r	4r
4r	.	.	.	.	.	.	.	4f\	-to	.	.	4r	4r
=76	=76	=76	=76	=76	=76	=76	=76	=76	=76	=76	=76	=76	=76
!	!	!LO:N:vis=00	!	!	!	!	!	!	!	!	!	!LO:N:vis=00	!LO:N:vis=00
4GG/	.	0.r	.	2.ryy	.	.	.	4g\	Cor-	.	.	0.r	0.r
2BB/	X 65	.	.	.	.	.	.	4d\	-de	.	.	.	.
.	.	.	.	.	.	.	.	8g\L	et	.	.	.	.
.	.	.	.	.	.	.	.	8f\J	.	.	.	.	.
=77	=77	=77	=77	=77	=77	=77	=77	=77	=77	=77	=77	=77	=77
!	!	!	!	!	!	!LO:N:vis=00	!	!	!	!	!	!	!
4C/	.	.	.	2.ryy	.	0.r	.	4e\	O-	.	.	.	.
4D/	.	.	.	.	.	.	.	4c\	-re	.	.	.	.
*	*	*	*	*	*	*	*	*	*ij	*	*	*	*
4E/	X 6	.	.	.	.	.	.	4cc\	et	.	.	.	.
=78	=78	=78	=78	=78	=78	=78	=78	=78	=78	=78	=78	=78	=78
4F\	.	.	.	2.ryy	.	.	.	4a\	O-	.	.	.	.
4r	.	.	.	.	.	.	.	4f\	-re	.	.	.	.
*	*	*	*	*	*	*	*	*	*Xij	*	*	*	*
4G\	.	.	.	.	.	.	.	8g\	Con-	.	.	.	.
.	.	.	.	.	.	.	.	8f\	-fi-	.	.	.	.
=79	=79	=79	=79	=79	=79	=79	=79	=79	=79	=79	=79	=79	=79
!	!	!	!LO:N:vis=00	!	!	!	!	!	!	!LO:N:vis=00	!	!	!
4C/	.	.	0.r	2.ryy	.	.	.	16e\LL	-te-	0.r	.	.	.
.	.	.	.	.	.	.	.	16d\	.	.	.	.	.
.	.	.	.	.	.	.	.	16c\	.	.	.	.	.
.	.	.	.	.	.	.	.	16d\JJ	.	.	.	.	.
4r	.	.	.	.	.	.	.	16e\LL	.	.	.	.	.
.	.	.	.	.	.	.	.	16f\	.	.	.	.	.
.	.	.	.	.	.	.	.	16e\	.	.	.	.	.
.	.	.	.	.	.	.	.	16f\JJ	.	.	.	.	.
4BB/	X 6	.	.	.	.	.	.	8g\L	.	.	.	.	.
.	.	.	.	.	.	.	.	8d\J	.	.	.	.	.
=80	=80	=80	=80	=80	=80	=80	=80	=80	=80	=80	=80	=80	=80
!	!	!LO:N:vis=00	!	!	!	!	!	!	!	!	!	!LO:N:vis=00	!LO:N:vis=00
16C/LL	.	0.r	.	2.ryy	.	.	.	4e\	.	.	.	0.r	0.r
16BB/	.	.	.	.	.	.	.	.	.	.	.	.	.
16C/	.	.	.	.	.	.	.	.	.	.	.	.	.
16D/JJ	.	.	.	.	.	.	.	.	.	.	.	.	.
8C/L	.	.	.	.	.	.	.	4c\	-mur	.	.	.	.
8D/	.	.	.	.	.	.	.	.	.	.	.	.	.
8E/	.	.	.	.	.	.	.	8c/	Con-	.	.	.	.
8C/J	.	.	.	.	.	.	.	8G/	-fi-	.	.	.	.
=81	=81	=81	=81	=81	=81	=81	=81	=81	=81	=81	=81	=81	=81
!	!	!	!	!	!	!LO:N:vis=00	!	!	!	!	!	!	!
4F\	.	.	.	2.ryy	.	0.r	.	8A/L	-te-	.	.	.	.
.	.	.	.	.	.	.	.	8c/J	.	.	.	.	.
!	!	!	!	!	!	!	!	!LO:LB:g=original	!	!	!	!	!
4r	.	.	.	.	.	.	.	8B/L	.	.	.	.	.
.	.	.	.	.	.	.	.	8c/J	.	.	.	.	.
4G\	.	.	.	.	.	.	.	4d/	.	.	.	.	.
!LO:LB:g=original	!	!	!	!	!	!	!	!	!	!	!	!	!
=82	=82	=82	=82	=82	=82	=82	=82	=82	=82	=82	=82	=82	=82
4C/	.	.	.	2.ryy	.	.	.	4e\	.	.	.	.	.
4D/	.	.	.	.	.	.	.	4c\	-mur	.	.	.	.
4C/	.	.	.	.	.	.	.	8e\L	et	.	.	.	.
.	.	.	.	.	.	.	.	8f\J	.	.	.	.	.
=83	=83	=83	=83	=83	=83	=83	=83	=83	=83	=83	=83	=83	=83
!	!	!	!LO:N:vis=00	!	!	!	!	!	!	!LO:N:vis=00	!	!	!
4BB/	.	.	0.r	2.ryy	.	.	.	8d\L	O-	0.r	.	.	.
.	.	.	.	.	.	.	.	16g\L	.	.	.	.	.
.	.	.	.	.	.	.	.	16f\JJ	.	.	.	.	.
4C/	.	.	.	.	.	.	.	16e\LL	.	.	.	.	.
.	.	.	.	.	.	.	.	16d\	.	.	.	.	.
.	.	.	.	.	.	.	.	16c\	.	.	.	.	.
.	.	.	.	.	.	.	.	16d\JJ	.	.	.	.	.
8E\L	X 6	.	.	.	.	.	.	8e\L	.	.	.	.	.
8F\J	6 5	.	.	.	.	.	.	16d\L	.	.	.	.	.
.	.	.	.	.	.	.	.	16c\JJ	.	.	.	.	.
=84	=84	=84	=84	=84	=84	=84	=84	=84	=84	=84	=84	=84	=84
!	!	!	!	!	!	!	!	!	!	!	!	!LO:N:vis=0	!LO:N:vis=0
!	!	!LO:N:vis=00	!	!	!	!	!	!	!	!	!	!	!LO:TX:a:t=P:problem:w źródle dodatkowa pauza całotaktowa
16G\LL	.	0.r	.	2.ryy	.	.	.	4d\	.	.	.	1.r	1.r
16F\	.	.	.	.	.	.	.	.	.	.	.	.	.
16G\	.	.	.	.	.	.	.	.	.	.	.	.	.
16A\JJ	.	.	.	.	.	.	.	.	.	.	.	.	.
16G\LL	.	.	.	.	.	.	.	4d\	-re	.	.	.	.
16A\	.	.	.	.	.	.	.	.	.	.	.	.	.
16G\	.	.	.	.	.	.	.	.	.	.	.	.	.
16F\JJ	.	.	.	.	.	.	.	.	.	.	.	.	.
*	*	*	*	*	*	*	*	*	*ij	*	*	*	*
8E\L	X 6	.	.	.	.	.	.	4g\	et	.	.	.	.
8C\J	.	.	.	.	.	.	.	.	.	.	.	.	.
=85	=85	=85	=85	=85	=85	=85	=85	=85	=85	=85	=85	=85	=85
!	!	!	!	!	!	!LO:N:vis=00	!	!	!	!	!	!	!
4F\	.	.	.	2.ryy	.	0.r	.	4.a\	O-	.	.	.	.
4r	.	.	.	.	.	.	.	.	.	.	.	.	.
.	.	.	.	.	.	.	.	8a\	-re	.	.	.	.
*	*	*	*	*	*	*	*	*	*Xij	*	*	*	*
4G\	.	.	.	.	.	.	.	8g\	Con-	.	.	.	.
.	.	.	.	.	.	.	.	8f\	-fi-	.	.	.	.
=86	=86	=86	=86	=86	=86	=86	=86	=86	=86	=86	=86	=86	=86
8C/L	.	.	.	2.ryy	.	.	.	8e\L	-te-	.	.	4r	4r
8AA/	.	.	.	.	.	.	.	8f\	.	.	.	.	.
8FF/	.	.	.	.	.	.	.	8g\	.	.	.	4cc\	4ee\
8DD/J	.	.	.	.	.	.	.	8a\J	.	.	.	.	.
4GG/	.	.	.	.	.	.	.	4d\	.	.	.	4g/	4dd\
=87	=87	=87	=87	=87	=87	=87	=87	=87	=87	=87	=87	=87	=87
!	!	!	!LO:N:vis=00	!	!	!	!	!	!	!LO:N:vis=00	!	!	!
4C/	.	.	0.r	2.ryy	.	.	.	4c\	-mur	0.r	.	8e/L	8cc\L
.	.	.	.	.	.	.	.	.	.	.	.	8g/J	8dd\
4r	.	.	.	.	.	.	.	4r	.	.	.	8cc\L	8ee\
.	.	.	.	.	.	.	.	.	.	.	.	8dd\	8ff\
4BB/	6 5	.	.	.	.	.	.	4r	.	.	.	8ee\	8gg\
.	.	.	.	.	.	.	.	.	.	.	.	8dd\J	8ff\J
=88	=88	=88	=88	=88	=88	=88	=88	=8	=88	=88	=88	=88	=88
!	!	!LO:N:vis=00	!	!	!	!	!	!	!	!	!	!	!
!	!	!	!	!	!	!	!	!LO:N:vis=0	!	!	!	!	!
4C/	.	0.r	.	2.ryy	.	.	.	1.r	.	.	.	8cc\L	8ee\L
.	.	.	.	.	.	.	.	.	.	.	.	16dd\L	16ff\L
.	.	.	.	.	.	.	.	.	.	.	.	16cc\JJ	16ee\JJ
4r	.	.	.	.	.	.	.	.	.	.	.	4.g/	4.dd\
4BB/	6 5	.	.	.	.	.	.	.	.	.	.	.	.
.	.	.	.	.	.	.	.	.	.	.	.	8e/	8cc\
!	!	!	!	!	!	!	!	!	!	!	!	!LO:LB:g=original	!
=89	=89	=89	=89	=89	=89	=89	=89	=89	=89	=89	=89	=89	=89
!	!	!	!	!	!	!	!	!LO:TX:a:t=P:problem:1 takt nadliczbowy	!	!	!	!	!LO:TX:a:t=P:problem:1 takt nadliczbowy w A i T
8C\L	.	.	.	2.ryy	.	2.r	.	.	.	.	.	2.ryy	2.ryy
8F\J	6 5	.	.	.	.	.	.	.	.	.	.	.	.
4G\	X 4	.	.	.	.	.	.	.	.	.	.	.	.
4GG/	7 4	.	.	.	.	.	.	.	.	.	.	.	.
=90	=90	=90	=90	=90	=90	=90	=90	=90	=90	=90	=90	=90	=90
4C/	.	.	.	2.ryy	.	(>8e\L	Lau-	(>8g\L	Lau-	.	.	4e/	4cc\
.	.	.	.	.	.	8d\)	.	8f\)	.	.	.	.	.
4r	.	.	.	.	.	(>8c\	-da-	(>8e\	-da-	.	.	4r	4r
.	.	.	.	.	.	8d\)	.	8f\)	.	.	.	.	.
4C/	.	.	.	.	.	(>8e\	-m(us)	(>8g\	-m(us).	.	.	4r	4r
.	.	.	.	.	.	8f\J)	.	8a\J)	.	.	.	.	.
!	!	!	!	!	!	!LO:LB:g=original	!	!LO:LB:g=original	!	!	!	!	!
=91	=91	=91	=91	=91	=91	=91	=91	=91	=91	=91	=91	=91	=91
!	!	!	!	!	!	!	!	!	!	!	!	!	!LO:TX:a:t=P:problem:3. z łuczkiem (jak od fermaty)
!	!	!	!LO:N:vis=00	!	!	!	!	!	!	!	!	!LO:N:vis=0	!LO:N:vis=0
!	!	!	!	!	!	!	!	!	!	!LO:N:vis=00	!	!	!
2D\	X 7	.	0.r	2.ryy	.	(>4.d\	at-	(>4.f\	at-	0.r	.	1.r	1.r
.	.	.	.	.	.	8c\)	.	8e\)	.	.	.	.	.
4GG/	.	.	.	.	.	4B\	-q(ue)	4d\	-que	.	.	.	.
=92	=92	=92	=92	=92	=92	=92	=92	=92	=92	=92	=92	=92	=92
!	!	!LO:N:vis=00	!	!	!	!	!	!	!	!	!	!	!
4C/	.	0.r	.	2.ryy	.	(>4c\	be-	(>4e\	be-	.	.	.	.
4r	.	.	.	.	.	4d\)	.	4f\)	.	.	.	.	.
4C/	.	.	.	.	.	4e\	-ne-	4g\	-ne-	.	.	.	.
!LO:LB:g=original	!	!	!	!	!	!	!	!	!	!	!	!	!
=93	=93	=93	=93	=93	=93	=93	=93	=93	=93	=93	=93	=93	=93
4G\	.	.	.	2.ryy	.	4.B\	-di-	4.d\	-di-	.	.	2.r	2.r
4GG/	.	.	.	.	.	.	.	.	.	.	.	.	.
.	.	.	.	.	.	8B\	-ci-	8c\	-ci-	.	.	.	.
4C/	.	.	.	.	.	4c\	-mus	4c\	-mus	.	.	.	.
!	!	!	!	!	!	!	!	!	!	!	!	!	!LO:LB:g=original
=94	=94	=94	=94	=94	=94	=94	=94	=94	=94	=94	=94	=94	=94
!	!	!	!	!	!	!LO:N:vis=00	!	!LO:N:vis=00	!	!	!	!	!
4C/	.	.	.	2.ryy	.	0.r	.	0.r	.	.	.	8ee\L	8gg\L
.	.	.	.	.	.	.	.	.	.	.	.	8dd\	8ff\
4r	.	.	.	.	.	.	.	.	.	.	.	8cc\	8ee\
.	.	.	.	.	.	.	.	.	.	.	.	8dd\	8ff\
4C/	.	.	.	.	.	.	.	.	.	.	.	8ee\	8gg\
.	.	.	.	.	.	.	.	.	.	.	.	8ff\J	8aa\J
=95	=95	=95	=95	=95	=95	=95	=95	=95	=95	=95	=95	=95	=95
!	!	!	!LO:N:vis=00	!	!	!	!	!	!	!LO:N:vis=0	!	!	!
4D/	.	.	0.r	2.ryy	.	.	.	.	.	1.r	.	4.dd\	4.ff\
4BB/	X 6	.	.	.	.	.	.	.	.	.	.	.	.
.	.	.	.	.	.	.	.	.	.	.	.	8cc\	8ee\
4GG/	X 7	.	.	.	.	.	.	.	.	.	.	4g/	4dd\
=96	=96	=96	=96	=96	=96	=96	=96	=96	=96	=96	=96	=96	=96
!	!	!LO:N:vis=00	!	!	!	!	!	!	!	!	!	!	!
4C/	.	0.r	.	2.ryy	.	.	.	.	.	.	.	4cc\	4ee\
4AA/	X 6	.	.	.	.	.	.	.	.	.	.	4dd\	4ff\
4FF/	X 7	.	.	.	.	.	.	.	.	.	.	4ee\	4gg\
=97	=97	=97	=97	=97	=97	=97	=97	=97	=97	=97	=97	=97	=97
2GG/	.	.	.	2.ryy	.	.	.	.	.	2.r	.	4.g/	4.dd\
.	.	.	.	.	.	.	.	.	.	.	.	8g/	8cc\
4C/	.	.	.	.	.	.	.	.	.	.	.	4e/	4cc\
=98	=98	=98	=98	=98	=98	=98	=98	=98	=98	=98	=98	=98	=98
!	!	!	!	!	!	!	!	!	!	!	!	!LO:N:vis=00	!LO:N:vis=00
!	!	!	!	!	!	!LO:N:vis=00	!	!LO:N:vis=00	!	!	!	!	!
2AA/	.	.	.	2.ryy	.	0.r	.	0.r	.	4r	.	0.r	0.r
.	.	.	.	.	.	.	.	.	.	4a\	to-	.	.
!LO:TX:b:i:t=Canto.	!	!	!	!	!	!	!	!	!	!	!	!	!
4A\	.	.	.	.	.	.	.	.	.	4cc\	-to	.	.
=99	=99	=99	=99	=99	=99	=99	=99	=99	=99	=99	=99	=99	=99
!	!	!	!LO:N:vis=00	!	!	!	!	!	!	!	!	!	!
2G#X\	.	.	0.r	2.ryy	.	.	.	.	.	4b\	Cor-	.	.
.	.	.	.	.	.	.	.	.	.	4ee\	-de	.	.
4E\	.	.	.	.	.	.	.	.	.	8b\L	et	.	.
.	.	.	.	.	.	.	.	.	.	16cc\L	.	.	.
.	.	.	.	.	.	.	.	.	.	16dd\JJ	.	.	.
=100	=100	=100	=100	=100	=100	=100	=100	=100	=100	=100	=100	=100	=100
!	!	!LO:N:vis=00	!	!	!	!	!	!	!	!	!	!	!
8AA/L	.	0.r	.	2.ryy	.	.	.	.	.	4cc\	o-	.	.
8BB/	.	.	.	.	.	.	.	.	.	.	.	.	.
8C/	.	.	.	.	.	.	.	.	.	4a\	-re	.	.
8BB/	.	.	.	.	.	.	.	.	.	.	.	.	.
8C/	.	.	.	.	.	.	.	.	.	4ee\	lau-	.	.
8AA/J	.	.	.	.	.	.	.	.	.	.	.	.	.
!	!	!	!	!	!	!	!	!	!	!LO:PB:g=original	!	!	!
=101	=101	=101	=101	=101	=101	=101	=101	=101	=101	=101	=101	=101	=101
4D/	X -	.	.	2.ryy	.	.	.	.	.	4ff\	-da-	.	.
!	!	!	!	!	!	!	!	!	!	!LO:TX:a:t=P:problem:łuczek nad trylem	!	!	!
4d\	X #	.	.	.	.	.	.	.	.	2ff#Xt\	.	.	.
4c\	X :	.	.	.	.	.	.	.	.	.	.	.	.
=102	=102	=102	=102	=102	=102	=102	=102	=102	=102	=102	=102	=102	=102
!	!	!	!	!	!	!	!	!	!	!	!	!LO:N:vis=00	!LO:N:vis=00
!	!	!	!	!	!	!LO:N:vis=00	!	!LO:N:vis=00	!	!	!	!	!
4B\	X 6	.	.	2.ryy	.	0.r	.	0.r	.	4gg\	.	0.r	0.r
!	!	!	!	!	!	!	!	!	!	!LO:TX:a:t=P:problem:łuczek nad trylem	!	!	!
4e\	X #	.	.	.	.	.	.	.	.	2gg#Xt\	.	.	.
4d\	X :	.	.	.	.	.	.	.	.	.	.	.	.
=103	=103	=103	=103	=103	=103	=103	=103	=103	=103	=103	=103	=103	=103
!	!	!	!LO:N:vis=00	!	!	!	!	!	!	!	!	!	!
2c\	X 6	.	0.r	2.ryy	.	.	.	.	.	4aa\	.	.	.
.	.	.	.	.	.	.	.	.	.	8ee\L	.	.	.
.	.	.	.	.	.	.	.	.	.	8b\	.	.	.
4G#X\	6 5	.	.	.	.	.	.	.	.	8cc\	.	.	.
.	.	.	.	.	.	.	.	.	.	8dd\J	.	.	.
=104	=104	=104	=104	=104	=104	=104	=104	=104	=104	=104	=104	=104	=104
!	!	!LO:N:vis=00	!	!	!	!	!	!	!	!	!	!	!
4A\	.	0.r	.	2.ryy	.	.	.	.	.	4cc\	.	.	.
4A\	.	.	.	.	.	.	.	.	.	4a\	-mus	.	.
4A\	X 6	.	.	.	.	.	.	.	.	4ff\	lau-	.	.
!LO:LB:g=original	!	!	!	!	!	!	!	!	!	!	!	!	!
=105	=105	=105	=105	=105	=105	=105	=105	=105	=105	=105	=105	=105	=105
2B\	X 5	.	.	2.ryy	.	.	.	.	.	4.ff\	-da-	.	.
.	.	.	.	.	.	.	.	.	.	8gg\L	.	.	.
4G\	X 7	.	.	.	.	.	.	.	.	8dd\	.	.	.
.	.	.	.	.	.	.	.	.	.	16ee\L	.	.	.
.	.	.	.	.	.	.	.	.	.	16ff\JJ	.	.	.
=106	=106	=106	=106	=106	=106	=106	=106	=106	=106	=106	=106	=106	=106
!	!	!	!	!	!	!	!	!	!	!	!	!LO:N:vis=00	!LO:N:vis=00
!	!	!	!	!	!	!LO:N:vis=00	!	!LO:N:vis=00	!	!	!	!	!
2c\	.	.	.	2.ryy	.	0.r	.	0.r	.	4ee\	.	0.r	0.r
.	.	.	.	.	.	.	.	.	.	4cc\	-m(us)	.	.
4A\	.	.	.	.	.	.	.	.	.	4ee\	lau-	.	.
=107	=107	=107	=107	=107	=107	=107	=107	=107	=107	=107	=107	=107	=107
!	!	!	!LO:N:vis=00	!	!	!	!	!	!	!	!	!	!
2G#X\	X 6	.	0.r	2.ryy	.	.	.	.	.	4.ee\	-da-	.	.
.	.	.	.	.	.	.	.	.	.	8ff\L	.	.	.
4E\	X 7	.	.	.	.	.	.	.	.	8b\	.	.	.
.	.	.	.	.	.	.	.	.	.	16cc\L	.	.	.
.	.	.	.	.	.	.	.	.	.	16dd\JJ	.	.	.
=108	=108	=108	=108	=108	=108	=108	=108	=108	=108	=108	=108	=108	=108
!LO:TX:a:t=P:problem:mixed beam	!	!	!	!	!	!	!	!	!	!	!	!	!
!	!	!LO:N:vis=00	!	!	!	!	!	!	!	!	!	!	!
16AA/LL	.	0.r	.	2.ryy	.	.	.	.	.	4cc\	.	.	.
16A\	.	.	.	.	.	.	.	.	.	.	.	.	.
16G#X\	.	.	.	.	.	.	.	.	.	.	.	.	.
16A\JJ	.	.	.	.	.	.	.	.	.	.	.	.	.
16E\LL	X #	.	.	.	.	.	.	.	.	4a\	-mus.	.	.
16F\	.	.	.	.	.	.	.	.	.	.	.	.	.
16E\	.	.	.	.	.	.	.	.	.	.	.	.	.
16D\JJ	.	.	.	.	.	.	.	.	.	.	.	.	.
16C/LL	X 6	.	.	.	.	.	.	.	.	4r	.	.	.
16D/	.	.	.	.	.	.	.	.	.	.	.	.	.
16C/	.	.	.	.	.	.	.	.	.	.	.	.	.
16BB/JJ	.	.	.	.	.	.	.	.	.	.	.	.	.
=109	=109	=109	=109	=109	=109	=109	=109	=109	=109	=109-	=109	=109	=109
!LO:TX:a:t=P:problem:mixed beam	!	!	!	!	!	!	!	!	!	!	!	!	!
16AA/LL	.	.	.	2.ryy	.	.	.	.	.	2.r	.	.	.
16F\	.	.	.	.	.	.	.	.	.	.	.	.	.
16E\	.	.	.	.	.	.	.	.	.	.	.	.	.
16F\JJ	.	.	.	.	.	.	.	.	.	.	.	.	.
16D\LL	6 5	.	.	.	.	.	.	.	.	.	.	.	.
16C\	.	.	.	.	.	.	.	.	.	.	.	.	.
16D\	.	.	.	.	.	.	.	.	.	.	.	.	.
16BB\JJ	.	.	.	.	.	.	.	.	.	.	.	.	.
!LO:TX:a:t=P:problem:mixed beam	!	!	!	!	!	!	!	!	!	!	!	!	!
16E\LL	.	.	.	.	.	.	.	.	.	.	.	.	.
.	X 4	.	.	.	.	.	.	.	.	.	.	.	.
16D\	.	.	.	.	.	.	.	.	.	.	.	.	.
16E\	X #	.	.	.	.	.	.	.	.	.	.	.	.
16EE/JJ	X 7	.	.	.	.	.	.	.	.	.	.	.	.
=110	=110	=110	=110	=110	=110	=110	=110	=110	=110	=110	=110	=110	=110
!	!	!	!	!	!	!	!	!	!	!	!	!LO:N:vis=00	!LO:N:vis=00
!	!	!	!	!	!	!LO:N:vis=00	!	!LO:N:vis=00	!	!	!	!	!
4AA/	.	.	.	2.ryy	.	0.r	.	0.r	.	4r	.	0.r	0.r
8A\L	.	.	.	.	.	.	.	.	.	4ee\	at-	.	.
8B\	.	.	.	.	.	.	.	.	.	.	.	.	.
8c\	X 6	.	.	.	.	.	.	.	.	4ee\	-q(ue)	.	.
8G#X\J	X 6	.	.	.	.	.	.	.	.	.	.	.	.
=111	=111	=111	=111	=111	=111	=111	=111	=111	=111	=111	=111	=111	=111
!	!	!	!LO:N:vis=00	!	!	!	!	!	!	!	!	!	!
16A\LL	.	.	0.r	2.ryy	.	.	.	.	.	2ee\	be-	.	.
16B\	.	.	.	.	.	.	.	.	.	.	.	.	.
16c\	.	.	.	.	.	.	.	.	.	.	.	.	.
16B\JJ	.	.	.	.	.	.	.	.	.	.	.	.	.
16A\LL	.	.	.	.	.	.	.	.	.	.	.	.	.
16B\	.	.	.	.	.	.	.	.	.	.	.	.	.
16A\	.	.	.	.	.	.	.	.	.	.	.	.	.
16G#X\JJ	.	.	.	.	.	.	.	.	.	.	.	.	.
16A\LL	.	.	.	.	.	.	.	.	.	8ee\L	-ne-	.	.
16G#X\	.	.	.	.	.	.	.	.	.	.	.	.	.
16A\	.	.	.	.	.	.	.	.	.	8dd\J	.	.	.
16E\JJ	.	.	.	.	.	.	.	.	.	.	.	.	.
!LO:LB:g=original	!	!	!	!	!	!	!	!	!	!LO:LB:g=original	!	!	!
=112	=112	=112	=112	=112	=112	=112	=112	=112	=112	=112	=112	=112	=112
!	!	!LO:N:vis=00	!	!	!	!	!	!	!	!	!	!	!
4AA/	.	0.r	.	2.ryy	.	.	.	.	.	4.cc\	-di-	.	.
4BB/	.	.	.	.	.	.	.	.	.	.	.	.	.
.	.	.	.	.	.	.	.	.	.	8b\	-ci-	.	.
4C/	X 6	.	.	.	.	.	.	.	.	4a\	-m(us)	.	.
=113	=113	=113	=113	=113	=113	=113	=113	=113	=113	=113	=113	=113	=113
2D/	X 6-	.	.	2.ryy	.	.	.	.	.	4r	.	.	.
.	.	.	.	.	.	.	.	.	.	4b-X\	be-	.	.
4C/	X 6	.	.	.	.	.	.	.	.	4a\	-ne-	.	.
=114	=114	=114	=114	=114	=114	=114	=114	=114	=114	=114	=114	=114	=114
!	!	!	!	!	!	!	!	!	!	!	!	!LO:N:vis=00	!LO:N:vis=00
!	!	!	!	!	!	!LO:N:vis=00	!	!LO:N:vis=00	!	!	!	!	!
2BB/	X 6/	.	.	2.ryy	.	0.r	.	0.r	.	4.g#X\	-di-	0.r	0.r
.	.	.	.	.	.	.	.	.	.	8g#\	-ci-	.	.
4AA/	.	.	.	.	.	.	.	.	.	4a\	-mus	.	.
=115	=115	=115	=115	=115	=115	=115	=115	=115	=115	=115	=115	=115	=115
!	!	!	!LO:N:vis=00	!	!	!	!	!	!	!	!	!	!
4D\	6 5	.	0.r	2.ryy	.	.	.	.	.	8a\L	lau-	.	.
.	.	.	.	.	.	.	.	.	.	16b\L	.	.	.
.	.	.	.	.	.	.	.	.	.	16a\JJ	.	.	.
4E\	X 4	.	.	.	.	.	.	.	.	2g#X\	-da-	.	.
4EE/	7 #	.	.	.	.	.	.	.	.	.	.	.	.
=116	=116	=116	=116	=116	=116	=116	=116	=116	=116	=116	=116	=116	=116
!LO:TX:a:t=P:problem:mixed beam	!	!	!	!	!	!	!	!	!	!	!	!	!
!	!	!LO:N:vis=00	!	!	!	!	!	!	!	!	!	!	!
!	!	!LO:TX:a:t=6	!	!	!	!	!	!	!	!	!	!	!
16AA/LL	.	0.r	.	2.ryy	.	.	.	.	.	2a\	-mus	.	.
16E\	.	.	.	.	.	.	.	.	.	.	.	.	.
16F\	.	.	.	.	.	.	.	.	.	.	.	.	.
16G#X\JJ	.	.	.	.	.	.	.	.	.	.	.	.	.
16A\LL	.	.	.	.	.	.	.	.	.	.	.	.	.
16G#X\	.	.	.	.	.	.	.	.	.	.	.	.	.
16A\	.	.	.	.	.	.	.	.	.	.	.	.	.
16E\JJ	.	.	.	.	.	.	.	.	.	.	.	.	.
16F\LL	.	.	.	.	.	.	.	.	.	4r	.	.	.
16D\	.	.	.	.	.	.	.	.	.	.	.	.	.
16E\	X #	.	.	.	.	.	.	.	.	.	.	.	.
16EE/JJ	.	.	.	.	.	.	.	.	.	.	.	.	.
=117	=117	=117	=117	=117	=117	=117	=117	=117	=117	=117	=117	=117	=117
4AA/	.	.	.	2.ryy	.	.	.	.	.	4r	.	.	.
.	X -	.	.	.	.	.	.	.	.	.	.	.	.
4D/	X 6	.	.	.	.	.	.	.	.	4b-X\	be-	.	.
4C/	X 6	.	.	.	.	.	.	.	.	4a\	-ne-	.	.
=118	=118	=118	=118	=118	=118	=118	=118	=118	=118	=118	=118	=118	=118
!	!	!	!	!	!	!	!	!	!	!	!	!LO:N:vis=00	!LO:N:vis=00
!	!	!	!	!	!	!LO:N:vis=00	!	!LO:N:vis=00	!	!	!	!	!
2BB/	X 6	.	.	2.ryy	.	0.r	.	0.r	.	4.g#X\	-di-	0.r	0.r
.	.	.	.	.	.	.	.	.	.	8g#\	-ci-	.	.
4AA/	.	.	.	.	.	.	.	.	.	4a\	-m(us)	.	.
=119	=119	=119	=119	=119	=119	=119	=119	=119	=119	=119	=119	=119	=119
!	!	!	!LO:N:vis=00	!	!	!	!	!	!	!	!	!	!
4D\	.	.	0.r	2.ryy	.	.	.	.	.	(8a\L	lau-	.	.
.	.	.	.	.	.	.	.	.	.	8b\J)	.	.	.
4E\	x 4	.	.	.	.	.	.	.	.	2g#X\	-da-	.	.
4EE/	7 5	.	.	.	.	.	.	.	.	.	.	.	.
=120	=120	=120	=120	=120	=120	=120	=120	=120	=120	=120	=120	=120	=120
!LO:TX:a:t=P:problem:mixed beam	!	!	!	!	!	!	!	!	!	!	!	!	!
!	!	!LO:N:vis=1	!	!	!	!	!	!	!	!	!	!	!
8AA/L	.	1.r	.	2.ryy	.	.	.	.	.	4a\	-m(us)	.	.
8A\	.	.	.	.	.	.	.	.	.	.	.	.	.
8F\	X 6	.	.	.	.	.	.	.	.	4r	.	.	.
8D\	6 5	.	.	.	.	.	.	.	.	.	.	.	.
8E\	X 4	.	.	.	.	.	.	.	.	4r	.	.	.
8EE/J	7 #	.	.	.	.	.	.	.	.	.	.	.	.
=121	=121	=121	=121	=121	=121	=121	=121	=121	=121	=121-	=121	=121	=121
!LO:TX:a:t=P:problem:2 nadliczbowe takty	!	!	!	!	!	!	!	!	!	!	!	!	!
!	!	!	!	!LO:TX:a:t=P:problem:błąd renderowania - nie powinno wyświetlać się "3" i pauza 3-taktowa	!	!	!	!	!	!LO:TX:a:t=P:problem:nadliczbowe 2 takty	!	!	!
2.ryy	.	.	.	2.ryy	.	.	.	.	.	2.r	.	.	.
=122	=122	=122	=122	=122	=122	=122	=122	=122	=122	=122	=122	=122	=122
!	!	!LO:TX:a:t=P:problem:2 nadliczbowe takty	!	!	!	!	!	!	!	!	!	!LO:TX:a:t=P:problem:2 nadliczbowe takty w vl 1 i vl 2	!LO:TX:a:t=P:problem:2 nadliczbowe takty w vl 1 i vl 2
!	!	!	!	!	!	!LO:TX:a:t=P:problem:nadliczbowe 2 takty	!	!LO:TX:a:t=P:problem:nadliczbowe 2 takty	!	!	!	!	!
2.ryy	.	2.ryy	.	2.ryy	.	2.ryy	.	2.ryy	.	2.ryy	.	2.ryy	2.ryy
=123	=123	=123	=123	=123	=123	=123	=123	=123	=123	=123	=123	=123	=123
!	!	!LO:TX:b:i:t=Vertaqur.[?] Cito	!	!	!	!	!	!	!	!	!	!	!
2.AA/	.	2.ryy	2.ryy	2.ryy	.	2.r	.	2.r	.	2.ryy	.	2.ryy	2.ryy
!LO:LB:g=original	!	!LO:PB:g=original	!	!	!	!	!	!	!	!	!	!LO:LB:g=original	!
=124||	=124||	=124||	=124||	=124||	=124||	=124||	=124||	=124||	=124||	=124||	=124||	=124||	=124||
*M6/8	*	*M6/8	*M6/8	*M6/8	*	*M6/8	*	*M6/8	*	*M6/8	*	*M6/8	*M6/8
!LO:TX:b:t=Tibi gloria	!	!LO:TX:i:b:t=Tibi gloria.	!LO:TX:b:t=Tibi gloria	!	!	!	!	!	!	!	!	!LO:TX:i:b:t=Tibi gloria	!LO:TX:b:i:t=Tibi gloria.
!	!	!	!	!	!	!	!	!	!	!	!	!LO:N:vis=00	!LO:N:vis=00
4AA/	.	2.r	2.r	8r	.	8r	.	8r	.	8r	.	0.r	0.r
.	.	.	.	8AA/	Ti-	8c\	ti-	8a\	ti-	8ee\	Ti-	.	.
8BB/	X 6/	.	.	8BB/	-bi	8d\	-bi	8g#X\	-bi	8dd\	-bi	.	.
8C/L	X 6	.	.	8.C/	glo-	8.e\	glo-	8.a\	glo-	8.cc\	glo-	.	.
8D/	6 5	.	.	.	.	.	.	.	.	.	.	.	.
.	.	.	.	16D/	-ri-	16e\	-ri-	16f#X\	-ri-	16cc\	-ri-	.	.
!	!	!	!	!	!	!	!	!	!	!LO:LB:g=original	!	!	!
8E/J	X 4	.	.	16E\	-a	16B\	-a	16e\	-a	16b\	-a	.	.
.	.	.	.	16E\	in	16B\	in	16e\	in	16dd\	in	.	.
=125	=125	=125	=125	=125	=125	=125	=125	=125	=125	=125	=125	=125	=125
4AA/	.	8r	8r	8AA/	Sae-	16A\	Sae-	16e\	Sae-	16cc\	Sae-	.	.
.	.	.	.	.	.	16A\	-cu-	16e\	-cu-	16cc\	-cu-	.	.
!	!	!	!	!	!	!LO:LB:g=original	!	!	!	!	!	!	!
.	.	8cc\L	8ee\L	16AA/	-cu-	8A\	-la	8e\	-la	8cc\	-la	.	.
.	.	.	.	16AA/	-la	.	.	.	.	.	.	.	.
8BB/	X 6/	8b\J	8dd\J	8r	.	8r	.	8r	.	8r	.	.	.
!	!	!	!	!LO:N:vis=2	!	!LO:N:vis=2	!	!LO:N:vis=2	!	!LO:N:vis=2	!	!	!
8C/L	X 6	8a\L	8cc\L	4.r	.	4.r	.	4.r	.	4.r	.	.	.
8D/	6 5	16b\L	16dd\L	.	.	.	.	.	.	.	.	.	.
.	X 4	16a\	16ee\J	.	.	.	.	.	.	.	.	.	.
8E/J	7 4	16a\	8b\J	.	.	.	.	.	.	.	.	.	.
.	.	16g#X\JJ	.	.	.	.	.	.	.	.	.	.	.
!	!	!	!	!	!	!	!	!LO:LB:g=original	!	!	!	!	!
=126	=126	=126	=126	=126	=126	=126	=126	=126	=126	=126	=126	=126	=126
!LO:TX:a:t=P:problem:mixed beam	!	!LO:TX:a:t=P:problem:mixed beam	!	!	!	!	!	!	!	!	!	!	!
8A\L	.	8a/L	8cc\L	8r	.	8r	.	8r	.	8r	.	.	.
*	*	*	*	*	*ij	*	*	*	*	*	*ij	*	*
8AA/	.	8ee\	8aa\	8AA/	ti-	8c\	ti-	8e\	ti-	8cc\	Ti-	.	.
8BB/J	X 6/	8dd\J	8gg#X\J	8BB/	-bi	8B\	-bi	8g#X\	-bi	8dd\	-bi	.	.
8C/L	x 6	8cc\L	8aa\L	8.C/	glo-	8.c\	glo-	8.e\	glo-	8.ee\	glo-	.	.
8D/	6 5	16b\L	16ee\L	.	.	.	.	.	.	.	.	.	.
.	.	16dd\	16ff\	16D/	-ri-	16c\	-ri-	16a\	-ri-	16cc\	-ri-	.	.
*	*reverse	*	*	*	*	*	*	*	*	*	*	*	*
8E/J	X 4#	16cc\	16ee\	16E\	-a	16d\	-a	16g#X\	-a	16b\	-a	.	.
.	.	16b\JJ	16dd\JJ	16EE/	in	16B\	in	16b\	in	16dd\	in	.	.
!	!	!	!LO:LB:g=original	!LO:LB:g=original	!	!	!	!	!	!	!	!	!
=127	=127	=127	=127	=127	=127	=127	=127	=127	=127	=127	=127	=127	=127
4AA/	.	16cc\LL	16ee\LL	16AA/	Sae-	16c\	Sae-	8a\	Sae-	16cc\	Sae-	.	.
.	.	16cc\	16ee\	16AA/	-cu-	16B\	-cu-	.	.	16cc\	-cu-	.	.
.	.	16cc\	16ee\	8AA/	-la	8A\	-la	16e\	-cu-	8cc\	-la	.	.
*	*	*	*	*	*Xij	*	*	*	*	*	*Xij	*	*
.	.	16cc\	16ee\	.	.	.	.	16e\	-la	.	.	.	.
8A\	.	16cc\	16ee\	8A\	in	8A\	in	8e\	in	8cc\	in	.	.
.	.	16cc\JJ	16aa\JJ	.	.	.	.	.	.	.	.	.	.
4G#X\	X 6	16ee\LL	16bb\LL	(>4G#X\	Sae-	16G#X/LL	Sae-	(>4e\	Sae-	8b\L	Sae-	.	.
.	.	16ee\	16bb\	.	.	16A/	.	.	.	.	.	.	.
.	.	16ee\	16bb\	.	.	16B/	.	.	.	16cc\L	.	.	.
.	X 7	16ee\	16bb\	.	.	16A/	.	.	.	16b\J	.	.	.
8F#X\	X 6	16dd#X\	16aa\	8F#X\)	.	16A/	.	8d#X\)	.	8a\J	.	.	.
.	.	16dd#\JJ	16aa\JJ	.	.	16F#X/JJ	.	.	.	.	.	.	.
=128	=128	=128	=128	=128	=128	=128	=128	=128	=128	=128	=128	=128	=128
!	!	!	!	!	!	!	!	!	!	!	!	!LO:N:vis=0	!LO:N:vis=0
4E\	X #	8ee\L	16bb\LL	16E\	-cu-	16G#X/	.	16e\	.	16b\	.	1.r	1.r
.	.	.	16ee\	16E\	-la	16G#/	-cu-	16e\	-cu-	16b\	-cu-	.	.
.	.	8b\	16ee\	8E\	.	8G#/	-la	8e\	-la	8b\	-la	.	.
.	.	.	16ccc\	.	.	.	.	.	.	.	.	.	.
!	!	!	!	!	!	!LO:LB:g=original	!	!LO:TX:b:i:t=Vertat[?] Cito.	!	!	!	!	!
8A\	.	8ee\J	16ccc\	8A\	in	8e\	in	8a\	in	8cc\	in	.	.
.	.	.	16ccc\JJ	.	.	.	.	.	.	.	.	.	.
4G#X\	X 6	16ee\LL	16bb\LL	4G#X\	Sae-	4e\	Sae-	16b\LL	Sae-	16b\LL	Sae-	.	.
.	.	16ee\	16bb\	.	.	.	.	16a\	.	16a\	.	.	.
.	.	16ee\	16bb\	.	.	.	.	16b\	.	16b\	.	.	.
.	X 7	16ee\	16bb\JJ	.	.	.	.	16cc\	.	16cc\	.	.	.
8F#X\	X 6	16dd#X\	32aa\LLL	8F#X\	-cu-	8d#X\	-cu-	(>16a\	-cu-	(>16a\	-cu-	.	.
.	.	.	32ccc\	.	.	.	.	.	.	.	.	.	.
.	.	16dd#\JJ	32bb\	.	.	.	.	16b\JJ)	.	16b\JJ)	.	.	.
.	.	.	32aa\JJJ	.	.	.	.	.	.	.	.	.	.
!	!	!	!	!	!	!	!	!LO:PB:g=original	!	!	!	!	!
=129	=129	=129	=129	=129	=129	=129	=129	=129	=129	=129	=129	=129	=129
!LO:TX:a:t=P:problem:mixed beam	!	!	!	!	!	!	!	!	!	!	!	!	!
8E\L	X #	8ee\L	8bb\L	8E\	-la	8e\	-la	8g#X\	-la	8b\	-la	.	.
8AA/	.	8ee\	16aa\L	8AA/	ti-	8c\	ti-	8a\	ti-	8cc\	ti-	.	.
.	.	.	16aa\	.	.	.	.	.	.	.	.	.	.
8BB/J	X 6	8dd\J	16bb\	8BB/	-bi	8d\	-bi	8g#X\	-bi	8dd\	-bi	.	.
.	.	.	16bb\JJ	.	.	.	.	.	.	.	.	.	.
!	!	!LO:LB:g=original	!	!	!	!	!	!	!	!	!	!	!
8C/L	X 6	16ee\LL	16ccc\LL	8.C/L	glo-	(>8.e\	glo-	(>8.a\	glo-	(8.ee\	glo-	.	.
.	.	16cc\	16aa\	.	.	.	.	.	.	.	.	.	.
8D/	6 5	16b\	16ee\	.	.	.	.	.	.	.	.	.	.
.	.	16cc\	16aa\	16D/Jk	.	16d\	.	16f\)	.	16cc\)	.	.	.
!	!	!	!	!	!	!	!	!	!	!LO:LB:g=original	!	!	!
8E/J	X #	16dd\	16gg#X\	8E\	-ri-	16B\)	.	8e\	-ri-	8b\	-ri-	.	.
.	.	16b\JJ	16ee\JJ	.	.	16d\	-ri-	.	.	.	.	.	.
=130	=130	=130	=130	=130	=130	=130	=130	=130	=130	=130	=130	=130	=130
8AA/L	.	16cc\LL	8ee\L	8AA/	-a	8c\	-a	8e\	-a	8a\	-a	2.r	2.r
.	.	32ee\L	.	.	.	.	.	.	.	.	.	.	.
.	.	32ee\J	.	.	.	.	.	.	.	.	.	.	.
8C/	.	16ee\	16gg\L	8C/	ti-	8c\	ti-	8g\	ti-	8ee\	ti-	.	.
.	.	16ee\	32gg\L	.	.	.	.	.	.	.	.	.	.
.	.	.	32gg\J	.	.	.	.	.	.	.	.	.	.
8D/J	X 6	16dd\	16gg\	8D/	-bi	8B\	-bi	8f\	-bi	8dd\	-bi	.	.
.	.	16g\JJ	16gg\JJ	.	.	.	.	.	.	.	.	.	.
!LO:LB:g=original	!	!	!	!	!	!	!	!	!	!	!	!	!
!LO:TX:a:t=P:problem:mixed beam	!	!LO:TX:a:t=P:problem:mixed beam	!	!	!	!	!	!	!	!	!	!	!
8E\L	X 6	16g/LL	16gg\LL	8.E\	glo-	8.c\	glo-	8.e\	glo-	8.cc\	glo-	.	.
.	.	16cc\	16aa\	.	.	.	.	.	.	.	.	.	.
8F\	6 5	16b\	16ff\	.	.	.	.	.	.	.	.	.	.
.	.	16cc\	16aa\	16F\	-ri-	16G/	-ri-	16f\	-ri-	16cc\	-ri-	.	.
16G\L	X 4	16dd\	16gg\	16G\	-a	16G/	-a	16d\	-a	16dd\	-a	.	.
16GG/JJ	7 3	16g\JJ	16ff\JJ	16GG/	in	16d\	in	16f\	in	16dd\	in	.	.
=131	=131	=131	=131	=131	=131	=131	=131	=131	=131	=131	=131	=131	=131
!	!	!LO:TX:b:i:t=clar	!	!	!	!	!	!	!	!	!	!	!
!	!	!LO:TX:a:t=P:problem:mixed beam	!LO:TX:a:t=P:problem:mixed beam	!	!	!	!	!	!	!	!	!	!
4C/	.	16cc\LL	16ee\LL	16C/	Sae-	16c\	Sae-	16e\	Sae-	16ee\	Sae-	8r	8r
.	.	16c/	16c/	16C/	-cu-	16c\	-cu-	16e\	-cu-	16ee\	-cu-	.	.
!	!	!	!	!LO:LB:g=original	!	!	!	!	!	!	!	!	!
.	.	16c/	16c/	8C/	-la	8c\	-la	8e\	-la	8ee\	-la	8ee\L	8gg\L
.	.	16c/	16c/	.	.	.	.	.	.	.	.	.	.
!	!	!	!	!	!	!LO:LB:g=original	!	!	!	!	!	!	!
8r	.	16d/	16d/	8r	.	8r	.	8r	.	8r	.	8dd\J	8ff\J
.	.	16G/JJ	16G/JJ	.	.	.	.	.	.	.	.	.	.
!	!	!	!LO:LB:g=original	!	!	!	!	!	!	!	!	!	!
!LO:SIC:o=2r (dotyczy każdej pauzy 4.r we wszystkich partiach)	!	!	!	!	!	!	!	!	!	!LO:N:vis=2	!	!	!
!LO:N:vis=2	!	!	!	!LO:N:vis=2	!	!LO:N:vis=2	!	!LO:N:vis=2	!	!	!	!	!
4.r	.	16c/LL	16c/LL	4.r	.	4.r	.	4.r	.	4.r	.	8cc\L	8ee\L
.	.	16e/	16e/	.	.	.	.	.	.	.	.	.	.
.	.	16f/	16f/	.	.	.	.	.	.	.	.	16dd\L	16ff\L
.	.	16d/	16d/	.	.	.	.	.	.	.	.	16cc\J	16ee\J
.	.	16g/	16g/	.	.	.	.	.	.	.	.	8g\J	8dd\J
.	.	16G/JJ	16G/JJ	.	.	.	.	.	.	.	.	.	.
!	!	!	!	!	!	!	!	!	!	!	!	!	!LO:LB:g=original
=132	=132	=132	=132	=132	=132	=132	=132	=132	=132	=132	=132	=132	=132
!	!	!LO:TX:a:t=P:problem:mixed beam	!LO:TX:a:t=P:problem:mixed beam	!	!	!	!	!	!	!	!	!LO:TX:a:t=P:problem:mixed beam	!
8r	.	16c/LL	16c/LL	8r	.	8r	.	8r	.	8r	.	8e/L	8cc\L
.	.	16ee\	16gg\	.	.	.	.	.	.	.	.	.	.
*	*	*	*	*	*	*	*ij	*	*ij	*	*	*	*
8C/L	.	16ee\	16gg\	8C/	Ti-	8c\	ti-	8g\	ti-	8cc\	ti-	8cc\	8ee\
.	.	16ee\	16gg\	.	.	.	.	.	.	.	.	.	.
8D/J	X 6	16ee\	16ff\	8D/	-bi	8B\	-bi	8f\	-bi	8dd\	-bi	8dd\J	8ff\J
.	.	16dd\JJ	16ff\JJ	.	.	.	.	.	.	.	.	.	.
!LO:TX:a:t=P:problem:mixed beam	!	!	!	!	!	!	!	!	!	!	!	!	!
!	!	!	!	!	!	!	!	!LO:LB:g=original	!	!	!	!	!
8E\L	X 6	16ee\LL	16ee\LL	8.E\	glo-	8.c\	glo-	8.g\	glo-	8.ee\	glo-	8.ee\L	8.gg\L
.	.	16cc\	16gg\	.	.	.	.	.	.	.	.	.	.
8F\	6 5	16cc\	16cc\	.	.	.	.	.	.	.	.	.	.
.	.	16a\	16aa\	16F\	-ri-	16A\	-ri-	16g\	-ri-	16cc\	-ri-	16ff\L	16aa\L
16G\L	X 4	16b\	16dd\	16G\	-a	16G\	-a	16g\	-a	16g\	-a	16ee\	16gg\
16GG/JJ	7 3	16g\JJ	16gg\JJ	16G\	in	16G\	in	16d\	in	16b\	in	16dd\JJ	16ff\JJ
=133	=133	=133	=133	=133	=133	=133	=133	=133	=133	=133	=133	=133	=133
4C/	.	16g\LL	16ee\LL	16C/	Sae-	16G/	Sae-	16e\	Sae-	16cc\	Sae-	4cc\	4ee\
.	.	16ee\	16cc\	16C/	-cu-	16G/	-cu-	16e\	-cu-	16cc\	-cu-	.	.
.	.	16ee\	16cc\	8C/	-la	8G/	-la	8e\	-la	8cc\	-la	.	.
*	*	*	*	*	*	*	*Xij	*	*Xij	*	*	*	*
.	.	16ee\	16cc\	.	.	.	.	.	.	.	.	.	.
8c\	.	16cc\	16ee\	8c\	in	8c\	in	8g\	in	8ee\	in	8cc\	8ee\
.	.	16cc\JJ	16ee\JJ	.	.	.	.	.	.	.	.	.	.
!	!	!LO:LB:g=original	!	!	!	!	!	!	!	!	!	!	!
4B\	X 6	16dd\LL	16dd\LL	16B\LL	Sae-	(>4B\	Sae-	(>4g\	Sae-	16dd\LL	Sae-	8g/L	8dd\L
.	.	16dd\	16gg\	16A\	.	.	.	.	.	16cc\	.	.	.
.	.	16dd\	16gg\	16B\	.	.	.	.	.	16dd\	.	8g/	8dd\
.	.	16dd\	16gg\	16c\	.	.	.	.	.	16ee\	.	.	.
8A\	X 7	16cc\	16aa\	16A\	.	8A\)	.	8f#X\)	.	16cc\	.	8e/J	16cc\L
.	X 6/	32dd\L	32gg\L	16c\JJ	.	.	.	.	.	16dd\JJ	.	.	16ee\JJ
.	.	32cc\JJJ	32aa\JJJ	.	.	.	.	.	.	.	.	.	.
=134	=134	=134	=134	=134	=134	=134	=134	=134	=134	=134	=134	=134	=134
!	!	!	!	!	!	!	!	!	!	!	!	!	!LO:TX:a:t=P:problem:mixed beam
4G\	.	16b\LL	16bb\LL	16B\	.	16B\	.	16g\	.	16dd\	.	8g/L	8dd\L
.	.	16dd\	16gg\	16A\	-cu-	16c\	-cu-	16g\	-cu-	16dd\	-cu-	.	.
.	.	16dd\	16gg\	8G\	-la	8d\	-la	8g\	-la	8dd\	-la	16g/L	8g/
.	.	16dd\	16gg\	.	.	.	.	.	.	.	.	16g/	.
8C/	.	16ee\	16gg\	8C/	in	8e\	in	8e\	in	8cc\	in	16g/	8g\J
.	.	16ee\JJ	16gg\JJ	.	.	.	.	.	.	.	.	16g/JJ	.
!	!	!	!	!	!	!	!	!	!	!LO:LB:g=original	!	!	!
4BB/	X 6	16dd\LL	16gg\LL	(<4BB/	Sae-	(>4d\	Sae-	4g\	Sae-	8dd\L	Sae-	8g/L	8g/L
.	.	16dd\	16gg\	.	.	.	.	.	.	.	.	.	.
.	.	16dd\	16gg\	.	.	.	.	.	.	8gg\	.	8g/	16g/L
.	.	16dd\	16gg\	.	.	.	.	.	.	.	.	.	16g/
8AA/	X 7	16cc\	16ff#X\	8AA/)	.	8c\)	.	8a\	.	8ff#X\J	.	8g/J	16g/
.	X 6/	16cc\JJ	16ff#\JJ	.	.	.	.	.	.	.	.	.	16g/JJ
!	!	!	!	!	!	!LO:PB:g=original	!	!	!	!	!	!	!
=135	=135	=135	=135	=135	=135	=135	=135	=135	=135	=135	=135	=135	=135
!LO:TX:a:t=P:problem:mixed beam	!	!	!	!	!	!	!	!	!	!	!	!	!
8GG/L	.	16dd\LL	16gg\LL	16GG/	.	16B\	.	16b\	.	16dd\	.	4g/	4g/
.	.	16b\	16dd\	16GG/	-cu-	16B\	-cu-	16a\	-cu-	16dd\	-cu-	.	.
8G\	.	16b\	16dd\	8GG/	-la	8B\	-la	8g\	-la	8dd\	-la	.	.
.	.	16b\	16dd\	.	.	.	.	.	.	.	.	.	.
!	!	!	!	!	!	!	!	!LO:LB:g=original	!	!	!	!	!
8G\J	.	16gg\	16dd\	16G\	ti-	16d\	ti-	16d\	ti-	16dd\	ti-	8r	8r
.	.	16b\JJ	16gg\JJ	16G\	-bi	16c\	-bi	16g\	-bi	16cc\	-bi	.	.
!	!	!	!	!LO:LB:g=original	!	!	!	!	!	!	!	!	!
4G\	.	16b\LL	16gg\LL	8.G\	glo-	8.B\	glo-	8.e\	glo-	8.b\	glo-	8g/L	8r
.	.	16b\	16gg\	.	.	.	.	.	.	.	.	.	.
.	.	16b\	16dd\	.	.	.	.	.	.	.	.	16g/L	16g/LL
.	.	16a\	16dd\	16G\	-ri-	16B\	-ri-	16f\	-ri-	16cc\	-ri-	16g/	16g/
8G\	.	16b\	16dd\	8G\	-a	8B\	-a	8g\	-a	8dd\	-a	16g/	16g/
.	.	16b\JJ	16dd\JJ	.	.	.	.	.	.	.	.	16g/JJ	16g/JJ
!	!	!	!	!	!	!	!	!	!	!	!	!LO:LB:g=original	!
=136	=136	=136	=136	=136	=136	=136	=136	=136	=136	=136	=136	=136	=136
8r	.	16b\LL	16dd\LL	8r	.	8r	.	8r	.	8r	.	8g/L	8g/L
.	.	16a\	16cc\	.	.	.	.	.	.	.	.	.	.
*	*	*	*	*	*	*	*	*	*ij	*	*	*	*
8G\L	.	16g\	16b\	8G\	ti-	8B\	ti-	8g\	ti-	8dd\	ti-	8g/J	8g/J
.	.	16a\J	16cc\J	.	.	.	.	.	.	.	.	.	.
8G\J	.	8b\J	8dd\J	8G\	-bi	8B\	-bi	8d\	-bi	8dd\	-bi	8r	8r
!	!	!	!LO:LB:g=original	!	!	!	!	!	!	!	!	!	!
16E\LL	X 6	16cc\LL	8ee\L	16E\LL	glo-	8c\L	glo-	8e\L	glo-	16cc\LL	glo-	8r	8r
16D\	.	16b\	.	16D\	.	.	.	.	.	16b\	.	.	.
16C\	.	16cc\	8gg\	16C\	.	8G\	.	8f\	.	16cc\	.	8ee\L	8gg\L
16D\	.	16b\	.	16D\	.	.	.	.	.	16dd\	.	.	.
16E\	.	16cc\	8ee\J	16E\	.	8c\J	.	8a\J	.	16cc\	.	8ee\J	8gg\J
16F\JJ	.	16dd\JJ	.	16F\JJ	.	.	.	.	.	16dd\JJ	.	.	.
=137	=137	=137	=137	=137	=137	=137	=137	=137	=137	=137	=137	=137	=137
!	!	!	!	!	!	!	!	!	!	!	!	!LO:TX:a:t=P:problem:mixed beam	!
8G\L	.	16b\LL	16dd\LL	8.G\	.	8.B\	.	8.g\	.	8.dd\	.	8g/L	16dd\LL
.	.	16b\	16dd\	.	.	.	.	.	.	.	.	.	16cc\J
8G\	.	16b\	16dd\	.	.	.	.	.	.	.	.	8g/	8dd\
.	.	16b\	16dd\	16G\	-ri-	16B\	-ri-	16g\	-ri-	16dd\	-ri-	.	.
8E\J	X 6	16ee\	16gg\	16E\	-a	16c\	-a	16g\	-a	16cc\	-a	8cc\J	8ee\J
*	*	*	*	*	*	*	*	*	*Xij	*	*	*	*
.	.	16ee\JJ	16gg\JJ	16E\	in	16c\	in	16g\	in	16cc\	in	.	.
!	!	!LO:TX:a:t=P:problem:mixed beam	!	!	!	!	!	!	!	!	!	!	!
4A\	X 7	16ee\LL	16cc\LL	8.A\	Sae-	8.c\	Sae-	8.g\	Sae-	8.cc\	Sae-	8cc\L	8.ee\L
.	.	16ee\	16cc\	.	.	.	.	.	.	.	.	.	.
.	.	16ee\	16cc\	.	.	.	.	.	.	.	.	8cc\	.
.	.	16ee\	16cc\	16A\	-cu-	16A\	-cu-	16f\	-cu-	16cc\	-cu-	.	16ee\L
8D\	X 7	16a/	16ff\	16D\	-la	16A\	-la	16f\	-la	16dd\	-la	8dd\J	16ff\
*	*	*	*	*	*ij	*	*	*	*	*	*ij	*	*
.	.	16a/JJ	16ff\JJ	16D\	in	16A\	in	16f\	in	16cc\	in	.	16ee\JJ
!LO:LB:g=original	!	!LO:LB:g=original	!	!	!	!LO:LB:g=original	!	!LO:LB:g=original	!	!	!	!	!LO:LB:g=original
=138	=138	=138	=138	=138	=138	=138	=138	=138	=138	=138	=138	=138	=138
4G\	.	16b\LL	16dd\LL	8.G\	Sae-	8.B\	Sae-	8.d\	Sae-	8.b\	Sae-	16g/LL	16dd\LL
.	.	16b\	16cc\	.	.	.	.	.	.	.	.	16g/	16dd\
.	.	16b\	16dd\	.	.	.	.	.	.	.	.	16g/	16dd\
.	.	16cc\	16ee\	16G\	-cu-	16B\	-cu-	16d\	-cu-	16b\	-cu-	16g/	16dd\
8G\	.	16dd\	16ff\	8G\	-la	8B\	-la	8d\	-la	8b\	-la	16g/	16dd\
*	*	*	*	*	*Xij	*	*	*	*	*	*Xij	*	*
.	.	16b\JJ	32ee\L	.	.	.	.	.	.	.	.	16g/JJ	16dd\JJ
.	.	.	32dd\JJJ	.	.	.	.	.	.	.	.	.	.
8r	.	8cc\L	8ee\L	8r	.	8r	.	8r	.	8r	.	4cc\	4ee\
8C/L	.	8ee\	8gg\	8C/	ti-	8c\	ti-	8e\	ti-	8ee\	ti-	.	.
8D/J	X 6	8dd\J	8ff\J	8D/	-bi	8B\	-bi	8f\	-bi	8dd\	-bi	8r	8r
=139	=139	=139	=139	=139	=139	=139	=139	=139	=139	=139	=139	=139	=139
!	!	!	!	!	!	!	!	!	!	!	!	!LO:N:vis=2	!LO:N:vis=2
8E\L	X 6	16cc\LL	16ee\LL	8E\	glo-	8.G\	glo-	8g\	glo-	8.cc\	glo-	4.r	4.r
.	.	16cc\	16gg\	.	.	.	.	.	.	.	.	.	.
8F\	.	16cc\	16ff\	8F\	-ri-	.	.	8a\	-ri-	.	.	.	.
.	6 5	16a\	16aa\	.	.	16c\	-ri-	.	.	16cc\	-ri-	.	.
!	!	!	!	!	!	!	!	!	!	!LO:LB:g=original	!	!	!
8G\J	.	16b\	16dd\	16G\	-a	16B\	-a	16g\	-a	16dd\	-a	.	.
.	.	16dd\JJ	16ff\JJ	16G\	in	16d\	in	16f\	in	16ff\	in	.	.
!	!	!	!	!LO:LB:g=original	!	!	!	!	!	!	!	!	!
4C/	.	16cc\LL	16ee\LL	16C/	Sae-	16e\	Sae-	16g\	Sae-	16ee\	Sae-	8r	8r
.	.	16g\	16cc\	16C/	-cu-	16d\	-cu-	16f\	-cu-	16dd\	-cu-	.	.
.	.	16cc\	16ee\	8C/	-la	8c\	-la	8e\	-la	8cc\	-la	8r	8r
.	.	16ee\	16gg\	.	.	.	.	.	.	.	.	.	.
8c\	.	16ee\	16ee\	8c\	in	8c\	in	8e\	in	8cc\	in	8cc\	8ee\
.	.	16ee\JJ	16ee\JJ	.	.	.	.	.	.	.	.	.	.
=140	=140	=140	=140	=140	=140	=140	=140	=140	=140	=140	=140	=140	=140
16E\LL	X 6	16cc\LL	16gg\LL	16E\LL	Sae-	4.c\	Sae-	16g\LL	Sae-	16cc\LL	Sae-	16cc\LL	16gg\LL
16D\	.	16cc\	16ff\	16D\	.	.	.	16f\	.	16b\	.	16dd\	16ff\
16E\	.	16cc\	16gg\	16E\	.	.	.	16g\	.	16cc\	.	16ee\	16gg\
16C\	.	16g\	16ee\	16C\	.	.	.	16e\	.	16g\J	.	16cc\	16ee\
16E\	.	16cc\	16gg\	16E\	.	.	.	16g\	.	8cc\J	.	16cc\	16ee\
16F\JJ	.	16a\JJ	16aa\JJ	16F\JJ	.	.	.	16a\JJ	.	.	.	16cc\JJ	16cc\JJ
!LO:TX:a:t=P:problem:mixed beam	!	!	!	!LO:TX:a:t=P:problem:mixed beam	!	!	!	!	!	!	!	!	!LO:TX:a:t=P:problem:mixed beam
16G\LL	.	16dd\LL	16bb\LL	16G\LL	.	4.B\	.	16g\LL	.	16b\LL	.	16g/LL	16dd\LL
16GG/	.	16dd\	16bb\	16GG/	.	.	.	16d\	.	16cc\	.	16g/	16g/
16BB/	.	16gg\	16dd\	16BB/	.	.	.	16g\	.	16dd\	.	16g/	16g/
!	!	!	!	!	!	!	!	!LO:TX:a:t=P:problem:odczyt akcydencji niepewny	!	!	!	!	!
16AA/	.	16gg\	16cc\	16AA/	.	.	.	16f#X\	.	16cc\	.	16g/	16g/
16BB/	.	16gg\	16dd\	16BB/	.	.	.	16g\	.	16dd\	.	16g/	16g/
16GG/JJ	.	16dd\JJ	16b\JJ	16GG/JJ	.	.	.	16d\JJ	.	16b\JJ	.	16g/JJ	16g/JJ
!	!	!	!	!	!	!	!	!LO:LB:g=original	!	!	!	!LO:LB:g=original	!
=141	=141	=141	=141	=141	=141	=141	=141	=141	=141	=141	=141	=141	=141
16C/LL	.	16gg\LL	16ee\LL	16C/LL	.	8c\L	.	16e\LL	.	16ee\LL	.	16g/LL	16ee\LL
16BB/	.	16gg\	16dd\	16BB/	.	.	.	16d\	.	16dd\	.	16g/	16dd\
16C/	.	16gg\	16ee\	16C/	.	8G\	.	16e\	.	16cc\	.	16g/	16ee\
16D/	.	16ff\	16ff\	16D/	.	.	.	16f\	.	16b\	.	16g/	16ff\
16E/	.	16ee\	16gg\	16E/	.	8c\J	.	16g\	.	16cc\	.	16cc/	16gg\
16F/JJ	.	16cc\JJ	16cc\JJ	16F/JJ	.	.	.	16a\JJ	.	16dd\JJ	.	16cc/JJ	16ff\JJ
!	!	!	!	!	!	!	!	!	!	!	!	!LO:TX:a:t=P:problem:mixed beam	!
8.G\L	.	16b\LL	16dd\LL	8.G\	.	8.B\	.	8.b\	.	8.dd\	.	8g/L	8.dd\L
.	.	16dd\	16gg\	.	.	.	.	.	.	.	.	.	.
.	.	16dd\	16gg\	.	.	.	.	.	.	.	.	8g/	.
16G\K	.	16dd\	16gg\JJ	16G\	-cu-	16B\	-cu-	16b\	-cu-	16dd\	-cu-	.	16dd\L
!	!	!	!LO:LB:g=original	!	!	!LO:LB:g=original	!	!	!	!	!	!	!
8E\J	X 6	16cc\	16gg\LL	16E\	-la	16c\	-la	16g\	-la	16cc\	-la	16ee\L	16gg\
*	*	*	*	*	*ij	*	*ij	*	*	*	*	*	*
.	.	16cc\JJ	16gg\JJ	16E\	in	16G/	in	16g\	in	16cc\	in	16ee\JJ	16gg\JJ
=142	=142	=142	=142	=142	=142	=142	=142	=142	=142	=142	=142	=142	=142
8.A\L	X 7	16cc\LL	16gg\LL	8.A\	Sae-	8.A\	Sae-	8.g\	Sae-	8.cc\	Sae-	8cc\L	16gg\LL
.	.	16cc\	16gg\	.	.	.	.	.	.	.	.	.	16gg\
.	.	16cc\	16gg\	.	.	.	.	.	.	.	.	8cc\	16gg\
16A\K	.	32cc\L	16gg\	16A\	-cu-	16A\	-cu-	16f\	-cu-	16cc\	-cu-	.	16ff\
.	.	32cc\J	.	.	.	.	.	.	.	.	.	.	.
8D\J	X 7	16a\	16ff\	8D\	-la	8A\	-la	8f\	-la	8dd\	-la	16dd\L	16ff\
*	*	*	*	*	*Xij	*	*Xij	*	*	*	*	*	*
.	.	16a\JJ	16ff\JJ	.	.	.	.	.	.	.	.	16dd\JJ	16ff\JJ
!	!	!LO:LB:g=original	!	!	!	!	!	!	!	!	!	!	!
4G\	.	16b\LL	16dd\LL	8.G\	Sae-	8.B\	Sae-	8.d\	Sae-	8.dd\	Sae-	16g/LL	16dd\LL
.	.	16a\	16cc\	.	.	.	.	.	.	.	.	16e/	16cc\
.	.	16b\	16dd\	.	.	.	.	.	.	.	.	16g/	16dd\
.	.	16cc\	16ee\	16G\	-cu-	16B\	-cu-	16g\	-cu-	16dd\	-cu-	16g/JJ	16ee\
!	!	!	!	!	!	!	!	!	!	!	!	!LO:TX:a:t=P:problem:mixed beam	!
8G\	.	16dd\	16ff\	8G\	-la	8B\	-la.	8g\	-la	8dd\	-la	16dd\LL	16ff\
.	.	16b\JJ	16dd\JJ	.	.	.	.	.	.	.	.	16g/JJ	16dd\JJ
=143	=143	=143	=143	=143	=143	=143	=143	=143	=143	=143	=143	=143	=143
!	!	!LO:TX:a:t=P:problem:mixed beam	!LO:TX:a:t=P:problem:mixed beam	!	!	!	!	!	!	!	!	!	!
2.r	.	16cc\LL	16ee\LL	2.r	.	2.r	.	8r	.	8r	.	4cc\	4ee\
.	.	16c/	16c/	.	.	.	.	.	.	.	.	.	.
.	.	16c/	32c/L	.	.	.	.	8g\	ti-	8ee\	ti-	.	.
.	.	.	32c/J	.	.	.	.	.	.	.	.	.	.
.	.	16c/	16c/	.	.	.	.	.	.	.	.	.	.
.	.	16c/	16d/	.	.	.	.	8f\	-bi	8dd\	-bi	8r	8r
!	!	!	!	!	!	!	!	!	!	!LO:LB:g=original	!	!	!LO:LB:g=original
.	.	16G/JJ	16G/JJ	.	.	.	.	.	.	.	.	.	.
!	!	!	!	!	!	!	!	!	!	!	!	!LO:TX:b:i:t=Vertat[?] Cito.	!LO:N:vis=2
!	!	!	!	!	!	!	!	!	!	!	!	!LO:N:vis=2	!
.	.	16c/LL	16c/LL	.	.	.	.	8.e\	glo-	8.cc\	glo-	4.r	4.r
.	.	16e/	16e/	.	.	.	.	.	.	.	.	.	.
.	.	16f/	16f/	.	.	.	.	.	.	.	.	.	.
.	.	16d/	16d/	.	.	.	.	16e\	-ri-	16cc\	-ri-	.	.
.	.	16g/	16g/	.	.	.	.	16d\	-a	16b\	-a	.	.
.	.	16G/JJ	16G/JJ	.	.	.	.	16f\	in	16b\	in	.	.
!	!	!	!	!LO:LB:g=original	!	!	!	!LO:LB:g=original	!	!	!	!LO:PB:g=original	!
=144	=144	=144	=144	=144	=144	=144	=144	=144	=144	=144	=144	=144	=144
!	!	!LO:TX:a:t=P:problem:mixed beam	!LLO:TX:a:t=P:problem:mixed beam	!	!	!	!	!	!	!	!	!	!
8r	.	16c/LL	8c/L	8r	.	8r	.	16e\	Sae-	16cc\	Sae-	8r	8r
.	.	16ee\	.	.	.	.	.	16e\	-cu-	16cc\	-cu-	.	.
8C/L	.	16ee\	8gg\	8C/	Ti-	8e\	ti-	8e\	-la	8cc\	-la	8ee\L	8gg\L
.	.	16ee\	.	.	.	.	.	.	.	.	.	.	.
8D/J	X 6	16dd\	8ff\J	8D/	-bi	8d\	-bi	8r	.	8r	.	8dd\J	8ff\J
.	.	16dd\JJ	.	.	.	.	.	.	.	.	.	.	.
!LO:LB:g=original	!	!	!	!	!	!	!	!	!	!	!	!	!
8E\L	X 6	16cc\LL	8ee\L	8.E\	glo-	8.c\	glo-	8r	.	8r	.	16cc\LL	16ee\LL
.	.	16ee\	.	.	.	.	.	.	.	.	.	16dd\	16gg\
8F\	6 5	16dd\	16ff\L	.	.	.	.	8r	.	8r	.	16cc\	16gg\
.	.	16cc\	16ee\	16F\	-ri-	16c\	-ri-	.	.	.	.	16cc\	16gg\
8G\J	7 4	16dd\	16dd\	16G\	-a	16d\	-a	8d\	in	8dd\	in	16dd\	16gg\
.	X 3	16b\JJ	16gg\JJ	16G\	in	16B\	in	.	.	.	.	16dd\JJ	16gg\JJ
=145	=145	=145	=145	=145	=145	=145	=145	=145	=145	=145	=145	=145	=145
4C/	.	16cc\LL	16ee\LL	16C/	Sae-	16c\	Sae-	16e\	Sae-	16cc\	Sae-	8ee\L	8gg\L
.	.	16ee\	16gg\	16C/	-cu-	16c\	-cu-	16e\	-cu-	16cc\	-cu-	.	.
.	.	16ee\	16gg\	8C/	-la	8c\	-la	8e\	-la	8cc\	-la	8cc\	8ee\
.	.	16ee\	16gg\	.	.	.	.	.	.	.	.	.	.
*	*	*	*	*	*	*	*	*	*	*	*ij	*	*
8c\	.	16ee\	16gg\	8c\	in	8G/	in	8g\	in	8ee\	in	8cc\J	8ee\J
.	.	16ee\JJ	16ccc\JJ	.	.	.	.	.	.	.	.	.	.
!	!	!	!	!	!	!LO:LB:g=original	!	!	!	!	!	!	!
8B\L	X 6	16dd\LL	16bb\LL	8B\	Sae-	8B\	Sae-	8g\	Sae-	8dd\	Sae-	8g/L	16ee\LL
.	.	16dd\	16gg\	.	.	.	.	.	.	.	.	.	16dd\
8B\	.	16dd\	16gg\	16B\	-cu-	16B\	-cu-	16g\	-cu-	16dd\	-cu-	16g/L	16dd\
.	.	16dd\	16gg\	16B\	-la	16c\	-la	16g\	-la	16dd\	-la	16g/	16dd\J
*	*	*	*	*	*	*	*	*	*	*	*Xij	*	*
8B\J	.	16dd\	16gg\	16B\	Sae-	16d\	Sae-	16g\	Sae-	16b\	Sae-	16g/	8dd\J
.	.	16dd\JJ	16gg\JJ	16B\	-cu-	16B\	-cu-	16g\	-cu-	16dd\	-cu-	16g/JJ	.
=146	=146	=146	=146	=146	=146	=146	=146	=146	=146	=146	=146	=146	=146
!	!	!	!	!	!	!	!	!	!	!	!	!LO:TX:a:t=P:problem:mixed beam	!LO:TX:a:t=P:problem:mixed beam
8c\L	.	8ee\L	8gg\L	8c\	-lo-	8c\	-lo-	8g\	-lo-	8ee\	-lo-	8cc\L	8ee\L
8E\	.	16gg#X\L	8bb\	8E\	-ru(m)	8B\	-ru(m)	8g#X\	-ru(m)	8ee\	-ru(m)	8e/	8e/
.	X #	16gg#\	.	.	.	.	.	.	.	.	.	.	.
*	*	*	*	*	*	*	*	*	*	*	*ij	*	*
8E\J	.	16ee\	8bb\J	8E\	in	8e\	in	8g#\	in	8b\	in	8e/J	8e/J
.	.	16gg#\JJ	.	.	.	.	.	.	.	.	.	.	.
8A\L	.	16aa\LL	16ccc\LL	8A\	Sae-	8e\	Sae-	8a\	Sae-	8cc\	Sae-	8e/L	8e/L
.	.	16cc\	16ee\	.	.	.	.	.	.	.	.	.	.
8A\	.	16cc\	16ee\	16A\	-cu-	16B\	-cu-	16e\	-cu-	16cc\	-cu-	16e/L	16e/L
.	.	16aa\JJ	16ee\	16A\	-la	16B\	-la	16e\	-la	16cc\	-la	16e/	16e/J
!	!	!LO:LB:g=original	!	!	!	!	!	!	!	!	!	!	!
8G#X\J	X 6	16gg#X\LL	16ee\	16G#X\	Sae-	16B\	Sae-	16e\	Sae-	16b\	Sae-	16e/	8e/J
.	.	16gg#\JJ	16ee\JJ	16G#\	-cu-	16d\	-cu-	16e\	-cu-	16ee\	-cu-	16e/JJ	.
!	!	!	!LO:LB:g=original	!	!	!	!	!LO:LB:g=original	!	!LO:LB:g=original	!	!	!
=147	=147	=147	=147	=147	=147	=147	=147	=147	=147	=147	=147	=147	=147
8A\L	.	16aa\LL	8cc\L	8A\	-lo-	8c\	-lo-	8e\	-lo-	8cc\	-lo-	8e/L	8e/L
.	.	16ee\	.	.	.	.	.	.	.	.	.	.	.
8E\	X 6	16cc\	8gg\	8E\	-ru(m)	8B\	-ru(m)	8g\	-ru(m)	8cc\	-rum	8c/	8c/
*	*	*	*	*	*	*	*ij	*	*ij	*	*Xij	*	*
.	.	16cc\	.	.	.	.	.	.	.	.	.	.	.
8E\J	.	16cc\	8gg\J	8E\	in	8G/	in	8g\	in	8cc\	in	8c/J	8c/J
.	.	16cc\JJ	.	.	.	.	.	.	.	.	.	.	.
!	!	!	!	!	!	!	!	!	!	!	!	!	!LO:TX:a:o=16
4F\	.	8cc\L	16aa\LL	8F\	Sae-	8A/	Sae-	8a\	Sae-	8cc\	Sae-	8c/L	8c/L
.	.	.	16gg\	.	.	.	.	.	.	.	.	.	.
!	!	!	!	!LO:LB:g=original	!	!	!	!	!	!	!	!	!
.	.	16ee\L	16gg\	16F\	-cu-	16B/	-cu-	16f\	-cu-	16cc\	-cu-	16c/L	16c/L
.	.	16ee\J	16gg\	16F\	-la	16c/	-la	16a\	-la	16cc\	-la	16c/	16c/
8E\	X 6	8ee\J	16gg\	16E\	Sae-	16c\	Sae-	16g\	Sae-	16cc\	Sae-	16c/	16c/
.	.	.	16gg\JJ	16E\	-cu-	16G/	-cu-	16g\	-cu-	16cc\	-cu-	16c/JJ	16c/JJ
!	!	!	!	!	!	!LO:LB:g=original	!	!	!	!	!	!	!
=148	=148	=148	=148	=148	=148	=148	=148	=148	=148	=148	=148	=148	=148
8F\L	.	8cc\L	16aa\LL	8F\L	-lo-	4A\	-lo-	8a\L	-lo-	4cc\	-lo-	4c/	4c/
.	.	.	16aa\	.	.	.	.	.	.	.	.	.	.
8C\	.	16cc\L	16gg\	8C\J	.	.	.	8g\J	.	.	.	.	.
.	.	16cc\	16gg\	.	.	.	.	.	.	.	.	.	.
8E\J	X 6	16cc\	16gg\	8E\	-rum	8G/	-rum	8g\	-rum	8cc\	-ru(m)	8r	8r
*	*	*	*	*	*	*	*Xij	*	*Xij	*	*	*	*
.	.	16cc\JJ	16gg\JJ	.	.	.	.	.	.	.	.	.	.
!	!	!	!	!	!	!	!	!	!	!	!	!	!LO:TX:b:i:t=Vertat[?] Cito.
!	!	!	!	!	!	!	!	!	!	!	!	!LO:N:vis=2	!LO:N:vis=2
8F\L	6 5	16dd\LL	16aa\LL	8F\	in	8c\	in	8a\	in	8dd\	in	4.r	4.r
.	.	16cc\	16gg\	.	.	.	.	.	.	.	.	.	.
8D\	.	16dd\	16ff\	8D\	Sae-	8.A\	Sae-	8.a\	Sae-	8dd\	Sae-	.	.
.	.	16ee\J	16ee\	.	.	.	.	.	.	.	.	.	.
8G\J	X 4	8dd\J	16dd\	8G\	-cu-	.	.	.	.	8dd\	-cu-	.	.
.	7 3	.	16gg\JJ	.	.	16B\	-cu-	16g\	-cu-	.	.	.	.
!	!	!	!	!	!	!	!	!	!	!	!	!LO:LB:g=original	!LO:PB:g=original
=149	=149	=149	=149	=149	=149	=149	=149	=149	=149	=149	=149	=149	=149
!	!	!LO:TX:a:t=P:problem:mixed beam	!LO:TX:a:t=P:problem:mixed beam	!	!	!	!	!	!	!	!	!	!
4C/	.	16cc\LL	16ee\LL	4C/	-la	8c\	-la	4g\	-la	4cc\	-la	8r	8r
.	.	16c/	16c/	.	.	.	.	.	.	.	.	.	.
.	.	16c/	16c/	.	.	8r	.	.	.	.	.	8ee\L	8gg\L
.	.	16c/	16c/	.	.	.	.	.	.	.	.	.	.
8r	.	16d/	16d/	8r	.	8r	.	8r	.	8r	.	8dd\J	8ff\J
.	.	16G/JJ	16G/JJ	.	.	.	.	.	.	.	.	.	.
!LO:N:vis=2	!	!	!	!LO:N:vis=2	!	!LO:N:vis=2	!	!LO:N:vis=2	!	!LO:N:vis=2	!	!	!
4.r	.	16c/LL	16c/LL	4.r	.	4.r	.	4.r	.	4.r	.	8cc\L	8ee\L
.	.	16B/	16B/	.	.	.	.	.	.	.	.	.	.
.	.	16A/	16A/	.	.	.	.	.	.	.	.	16dd\L	16ff\L
.	.	16a/	16f/	.	.	.	.	.	.	.	.	16cc\	16ee\
.	.	16b/	16g/	.	.	.	.	.	.	.	.	16g\	16dd\
.	.	16B/JJ	16G/JJ	.	.	.	.	.	.	.	.	16g\JJ	16dd\JJ
=150	=150	=150	=150	=150	=150	=150	=150	=150	=150	=150	=150	=150	=150
!	!	!LO:TX:a:t=P:problem:mixed beam	!LO:TX:a:t=P:problem:mixed beam	!	!	!	!	!	!	!	!	!	!
8r	.	16c/LL	8c/L	8r	.	8r	.	8r	.	8r	.	8cc\L	8ee\L
.	.	16ee\	.	.	.	.	.	.	.	.	.	.	.
8C/L	.	16ee\	8gg\	8C/	ti-	8c\	ti-	8e\	ti-	8ee\	ti-	8cc\	8ee\
.	.	16ee\	.	.	.	.	.	.	.	.	.	.	.
8D/J	X 6	16dd\	8ff\J	8D/	-bi	8B\	-bi	8f\	-bi	8dd\	-bi	8g\J	8dd\J
.	.	16dd\JJ	.	.	.	.	.	.	.	.	.	.	.
8E\L	X 6	16cc\LL	16ee\LL	8.E\	glo-	8.c\	glo-	8.g\	glo-	8.cc\	glo-	16e\LL	16cc\LL
.	.	16cc\	16gg\	.	.	.	.	.	.	.	.	16e\	16ee\
8F\	6 5	16a\	16ccc\	.	.	.	.	.	.	.	.	16g\	16dd\
.	X 4	16cc\	16ccc\	16F\	-ri-	16A\	-ri-	16a\	-ri-	16a\	-ri-	16g\	16ee\
!	!	!	!	!	!	!	!	!LO:LB:g=original	!	!	!	!	!
8G\J	X 3	16dd\	16bb\	16G\	-a	16B\	-a	16g\	-a	16b\	-a	16g\	16ff\
.	.	16ff\JJ	16gg\JJ	16GG/	in	16d\	in	16f\	in	16dd\	in	16g\JJ	16gg\JJ
!LO:LB:g=original	!	!LO:LB:g=original	!	!	!	!	!	!	!	!	!	!	!
=151	=151	=151	=151	=151	=151	=151	=151	=151	=151	=151	=151	=151	=151
!	!	!	!	!	!	!	!	!	!	!	!	!LO:TX:a:t=P:problem:mixed beam	!LO:TX:a:t=P:problem:mixed beam
4C/	.	8cc\L	8ee\L	16C/	Sae-	16e\	Sae-	16e\	Sae-	16cc\	Sae-	8cc\L	8ee\L
.	.	.	.	16C/	-cu-	16e\	-cu-	16e\	-cu-	16cc\	-cu-	.	.
.	.	8ee\	8gg\	8C/	-la	8e\	-la	8e\	-la	8cc\	-la	8c/	8c/
8r	.	8dd\J	8ff\J	8r	.	8r	.	8r	.	8r	.	8c/J	8c/J
!LO:N:vis=2	!	!	!	!LO:N:vis=2	!	!LO:N:vis=2	!	!LO:N:vis=2	!	!LO:N:vis=2	!	!	!
4.r	.	8cc\L	8ee\L	4.r	.	4.r	.	4.r	.	4.r	.	16c/LL	16c/LL
.	.	.	.	.	.	.	.	.	.	.	.	16c/	16c/
.	.	16dd\L	16ff\L	.	.	.	.	.	.	.	.	16e/	16e/
.	.	16cc\	16ee\	.	.	.	.	.	.	.	.	16e/	16e/
.	.	16b\	16dd\	.	.	.	.	.	.	.	.	16g/	16g/
.	.	16b\JJ	16dd\JJ	.	.	.	.	.	.	.	.	16g/JJ	16g/JJ
!	!	!	!LO:LB:g=original	!LO:LB:g=original	!	!LO:LB:g=original	!	!	!	!LO:LB:g=original	!	!	!
=152	=152	=152	=152	=152	=152	=152	=152	=152	=152	=152	=152	=152	=152
!	!	!	!	!	!	!	!	!	!	!	!	!LO:TX:a:t=P:problem:mixed beam	!LO:TX:a:t=P:problem:mixed beam
8r	.	16cc\LL	16ee\LL	8r	.	8r	.	8r	.	8r	.	8c/L	8c/L
.	.	16ee\	16gg\	.	.	.	.	.	.	.	.	.	.
*	*	*	*	*	*	*	*ij	*	*ij	*	*	*	*
8C/L	.	16ee\	16gg\	8C/	ti-	8e\	ti-	8g\	ti-	8cc\	ti-	8ee\	8gg\
.	.	16cc\	16gg\	.	.	.	.	.	.	.	.	.	.
8D/J	X 6	16b\	16aa\	8D/	-bi	8d\	-bi	8f\	-bi	8g\	-bi	8dd\J	8ff\J
.	.	16b\JJ	16bb\JJ	.	.	.	.	.	.	.	.	.	.
!LO:TX:a:t=P:problem:mixed beam	!	!	!	!	!	!	!	!	!	!	!	!	!
8E\L	X 6	16ee\LL	16ccc\LL	8.E\	glo-	8.c\	glo-	8.e\	glo-	8.cc\	glo-	8cc\L	8ee\L
.	.	16ee\	16ccc\	.	.	.	.	.	.	.	.	.	.
8F\	6 5	16cc\	16ccc\	.	.	.	.	.	.	.	.	16dd\L	16ff\L
.	.	16cc\	16ccc\	16F\	-ri-	16G\	-ri-	16e\	-ri-	16a\	-ri-	16cc\J	16ee\J
16G\L	X 4	16dd\	16bb\	16G\	-a	16G\	-a	16d\	-a	16b\	-a	8g\J	8dd\J
16GG/JJ	7 3	16dd\JJ	16bb\JJ	16G\	in	16B\	in	32g\LLL	in	16dd\	in	.	.
.	.	.	.	.	.	.	.	32f\JJJ	.	.	.	.	.
=153	=153	=153	=153	=153	=153	=153	=153	=153	=153	=153	=153	=153	=153
4CC/	.	4ee\	4ccc\	16C/	Sae-	16c\	Sae-	16g\	Sae-	16ee\	Sae-	4e/	4cc\
.	.	.	.	16C/	-cu-	16c\	-cu-	16g\	-cu-	16ee\	-cu-	.	.
.	.	.	.	8C/	-la	8c\	-la	8g\	-la	8ee\	-la	.	.
*	*	*	*	*	*	*	*Xij	*	*Xij	*	*	*	*
8r	.	8r	8r	8r	.	8r	.	8r	.	8r	.	8r	8r
!	!	!	!	!	!	!	!	!	!	!	!	!LO:N:vis=2	!LO:N:vis=2
!LO:N:vis=2	!	!LO:N:vis=2	!LO:N:vis=2	!LO:N:vis=2	!	!LO:N:vis=2	!	!LO:N:vis=2	!	!LO:N:vis=2	!	!	!
4.r	.	4.r	4.r	4.r	.	4.r	.	4.r	.	4.r	.	4.r	4.ra
==;;	==;;	==;;	==;;	==;;	==	==;;	==	==;;	==	==;;	==	==;;	==;;
*-	*-	*-	*-	*-	*-	*-	*-	*-	*-	*-	*-	*-	*-
!!!system-decoration: [(s1,s2)][(s3,s4,s5,s6)][(s7,s8)][(s9)]
!!!RDF**kern: > = above
!!!RDF**kern: < = below
!!!EED: Antoni Szymański
!!!EST: 2020-10-27
!!!ENC: Kamil Watkowski
!!!END: 2020-04-22
!!!RDF**kern: | = vertical stroke
